(G-CODE GENERATED BY FLATCAM v8.994 - www.flatcam.org - Version Date: 2020/11/7)

(Name: lipo_drainer_schematic-F_Paste.gbr_edit_iso_combined_cnc)
(Type: G-code from Geometry)
(Units: MM)

(Created on Monday, 01 May 2023 at 08:55)

(Specially modified by mattwach to work with the Sainsmart 3080 that I have.)

(TOOL DIAMETER: 0.1 mm)
(Feedrate_XY: 300.0 mm/min)
(Feedrate_Z: 60.0 mm/min)
(Feedrate rapids 1500.0 mm/min)

(Z_Cut: -0.2 mm)
(Z_Move: 2.0 mm)
(Z Start: None mm)
(Z End: 10.0 mm)
(X,Y End: 0.0000, 0.0000 mm)
(Steps per circle: 64)
(Preprocessor Geometry: default)

(X range:   -0.1000 ...  122.1000  mm)
(Y range:  -88.1000 ...    0.1000  mm)

(Spindle Speed: 10000.0 RPM)
G21
G90
G17
G94


G01 F300.00

M5
G00 Z15.0000
G00 X0.0000 Y0.0000
G00 Z15.0000

M03 S10000.0
G01 F300.00
G00 X-0.1000 Y-0.0000
G01 F60.00
G01 Z-0.2000
G01 F300.00
G01 X-0.1000 Y-88.0000
G01 X-0.0994 Y-88.0110
G01 X-0.0976 Y-88.0219
G01 X-0.0957 Y-88.0290
G01 X-0.0933 Y-88.0360
G01 X-0.0882 Y-88.0472
G01 X-0.0825 Y-88.0566
G01 X-0.0757 Y-88.0653
G01 X-0.0707 Y-88.0707
G01 X-0.0653 Y-88.0757
G01 X-0.0566 Y-88.0825
G01 X-0.0450 Y-88.0893
G01 X-0.0383 Y-88.0924
G01 X-0.0290 Y-88.0957
G01 X-0.0195 Y-88.0981
G01 X-0.0122 Y-88.0992
G01 X0.0000 Y-88.1000
G01 X122.0000 Y-88.1000
G01 X122.0110 Y-88.0994
G01 X122.0219 Y-88.0976
G01 X122.0290 Y-88.0957
G01 X122.0360 Y-88.0933
G01 X122.0472 Y-88.0882
G01 X122.0566 Y-88.0825
G01 X122.0653 Y-88.0757
G01 X122.0707 Y-88.0707
G01 X122.0757 Y-88.0653
G01 X122.0825 Y-88.0566
G01 X122.0893 Y-88.0450
G01 X122.0924 Y-88.0383
G01 X122.0957 Y-88.0290
G01 X122.0985 Y-88.0171
G01 X122.0995 Y-88.0098
G01 X122.1000 Y-88.0000
G01 X122.1000 Y-0.0000
G01 X122.0992 Y0.0122
G01 X122.0981 Y0.0195
G01 X122.0964 Y0.0267
G01 X122.0929 Y0.0371
G01 X122.0882 Y0.0472
G01 X122.0825 Y0.0566
G01 X122.0757 Y0.0653
G01 X122.0707 Y0.0707
G01 X122.0653 Y0.0757
G01 X122.0566 Y0.0825
G01 X122.0450 Y0.0893
G01 X122.0383 Y0.0924
G01 X122.0290 Y0.0957
G01 X122.0171 Y0.0985
G01 X122.0098 Y0.0995
G01 X122.0000 Y0.1000
G01 X0.0000 Y0.1000
G01 X-0.0098 Y0.0995
G01 X-0.0195 Y0.0981
G01 X-0.0290 Y0.0957
G01 X-0.0383 Y0.0924
G01 X-0.0472 Y0.0882
G01 X-0.0556 Y0.0832
G01 X-0.0635 Y0.0773
G01 X-0.0707 Y0.0707
G01 X-0.0773 Y0.0635
G01 X-0.0832 Y0.0556
G01 X-0.0882 Y0.0472
G01 X-0.0924 Y0.0383
G01 X-0.0957 Y0.0290
G01 X-0.0981 Y0.0195
G01 X-0.0995 Y0.0098
G01 X-0.1000 Y-0.0000
G00 Z2.0000
G00 X0.1000 Y-0.1000
G01 F60.00
G01 Z-0.2000
G01 F300.00
G01 X0.1000 Y-87.9000
G01 X121.9000 Y-87.9000
G01 X121.9000 Y-0.1000
G01 X0.1000 Y-0.1000
G00 Z2.0000
G00 X12.0275 Y-31.0625
G01 F60.00
G01 Z-0.2000
G01 F300.00
G01 X12.3225 Y-31.0625
G01 X12.3348 Y-31.0619
G01 X12.3445 Y-31.0605
G01 X12.3540 Y-31.0581
G01 X12.3609 Y-31.0557
G01 X12.3721 Y-31.0506
G01 X12.3825 Y-31.0441
G01 X12.3884 Y-31.0397
G01 X12.3956 Y-31.0331
G01 X12.4037 Y-31.0239
G01 X12.4080 Y-31.0180
G01 X12.4131 Y-31.0096
G01 X12.4182 Y-30.9984
G01 X12.4206 Y-30.9915
G01 X12.4227 Y-30.9832
G01 X12.4244 Y-30.9723
G01 X12.4250 Y-30.9600
G01 X12.4250 Y-29.7900
G01 X12.4246 Y-29.7802
G01 X12.4227 Y-29.7668
G01 X12.4206 Y-29.7585
G01 X12.4173 Y-29.7493
G01 X12.4131 Y-29.7404
G01 X12.4094 Y-29.7341
G01 X12.4014 Y-29.7232
G01 X12.3956 Y-29.7169
G01 X12.3893 Y-29.7111
G01 X12.3784 Y-29.7031
G01 X12.3721 Y-29.6994
G01 X12.3632 Y-29.6952
G01 X12.3540 Y-29.6919
G01 X12.3457 Y-29.6898
G01 X12.3348 Y-29.6881
G01 X12.3225 Y-29.6875
G01 X12.0275 Y-29.6875
G01 X12.0152 Y-29.6881
G01 X12.0067 Y-29.6893
G01 X11.9948 Y-29.6923
G01 X11.9868 Y-29.6952
G01 X11.9790 Y-29.6988
G01 X11.9685 Y-29.7051
G01 X11.9616 Y-29.7103
G01 X11.9553 Y-29.7160
G01 X11.9470 Y-29.7251
G01 X11.9420 Y-29.7320
G01 X11.9375 Y-29.7393
G01 X11.9323 Y-29.7504
G01 X11.9294 Y-29.7585
G01 X11.9273 Y-29.7668
G01 X11.9256 Y-29.7777
G01 X11.9250 Y-29.7900
G01 X11.9250 Y-30.9600
G01 X11.9255 Y-30.9711
G01 X11.9268 Y-30.9808
G01 X11.9291 Y-30.9903
G01 X11.9323 Y-30.9996
G01 X11.9363 Y-31.0085
G01 X11.9413 Y-31.0170
G01 X11.9470 Y-31.0249
G01 X11.9535 Y-31.0322
G01 X11.9598 Y-31.0381
G01 X11.9716 Y-31.0469
G01 X11.9790 Y-31.0512
G01 X11.9891 Y-31.0557
G01 X11.9972 Y-31.0584
G01 X12.0067 Y-31.0607
G01 X12.0152 Y-31.0619
G01 X12.0275 Y-31.0625
G00 Z2.0000
G00 X12.9775 Y-32.9375
G01 F60.00
G01 Z-0.2000
G01 F300.00
G01 X13.2725 Y-32.9375
G01 X13.2848 Y-32.9369
G01 X13.2945 Y-32.9355
G01 X13.3063 Y-32.9323
G01 X13.3132 Y-32.9298
G01 X13.3221 Y-32.9256
G01 X13.3305 Y-32.9205
G01 X13.3364 Y-32.9162
G01 X13.3456 Y-32.9081
G01 X13.3522 Y-32.9009
G01 X13.3566 Y-32.8950
G01 X13.3631 Y-32.8846
G01 X13.3682 Y-32.8734
G01 X13.3706 Y-32.8665
G01 X13.3727 Y-32.8582
G01 X13.3744 Y-32.8473
G01 X13.3750 Y-32.8350
G01 X13.3750 Y-31.6650
G01 X13.3746 Y-31.6552
G01 X13.3727 Y-31.6418
G01 X13.3706 Y-31.6335
G01 X13.3673 Y-31.6243
G01 X13.3631 Y-31.6154
G01 X13.3594 Y-31.6091
G01 X13.3514 Y-31.5982
G01 X13.3456 Y-31.5919
G01 X13.3393 Y-31.5861
G01 X13.3284 Y-31.5781
G01 X13.3221 Y-31.5744
G01 X13.3132 Y-31.5702
G01 X13.3040 Y-31.5669
G01 X13.2957 Y-31.5648
G01 X13.2848 Y-31.5631
G01 X13.2725 Y-31.5625
G01 X12.9775 Y-31.5625
G01 X12.9652 Y-31.5631
G01 X12.9567 Y-31.5643
G01 X12.9448 Y-31.5673
G01 X12.9368 Y-31.5702
G01 X12.9290 Y-31.5738
G01 X12.9185 Y-31.5801
G01 X12.9116 Y-31.5853
G01 X12.9053 Y-31.5910
G01 X12.8970 Y-31.6001
G01 X12.8920 Y-31.6070
G01 X12.8875 Y-31.6143
G01 X12.8823 Y-31.6254
G01 X12.8794 Y-31.6335
G01 X12.8773 Y-31.6418
G01 X12.8756 Y-31.6527
G01 X12.8750 Y-31.6650
G01 X12.8750 Y-32.8350
G01 X12.8755 Y-32.8461
G01 X12.8768 Y-32.8558
G01 X12.8791 Y-32.8653
G01 X12.8823 Y-32.8746
G01 X12.8863 Y-32.8835
G01 X12.8913 Y-32.8920
G01 X12.8970 Y-32.8999
G01 X12.9035 Y-32.9072
G01 X12.9098 Y-32.9131
G01 X12.9185 Y-32.9199
G01 X12.9258 Y-32.9244
G01 X12.9391 Y-32.9307
G01 X12.9472 Y-32.9334
G01 X12.9567 Y-32.9357
G01 X12.9652 Y-32.9369
G01 X12.9775 Y-32.9375
G00 Z2.0000
G00 X11.0775 Y-32.9375
G01 F60.00
G01 Z-0.2000
G01 F300.00
G01 X11.3725 Y-32.9375
G01 X11.3848 Y-32.9369
G01 X11.3945 Y-32.9355
G01 X11.4063 Y-32.9323
G01 X11.4132 Y-32.9298
G01 X11.4221 Y-32.9256
G01 X11.4305 Y-32.9205
G01 X11.4364 Y-32.9162
G01 X11.4456 Y-32.9081
G01 X11.4522 Y-32.9009
G01 X11.4566 Y-32.8950
G01 X11.4631 Y-32.8846
G01 X11.4682 Y-32.8734
G01 X11.4706 Y-32.8665
G01 X11.4727 Y-32.8582
G01 X11.4744 Y-32.8473
G01 X11.4750 Y-32.8350
G01 X11.4750 Y-31.6650
G01 X11.4746 Y-31.6552
G01 X11.4727 Y-31.6418
G01 X11.4706 Y-31.6335
G01 X11.4673 Y-31.6243
G01 X11.4631 Y-31.6154
G01 X11.4594 Y-31.6091
G01 X11.4514 Y-31.5982
G01 X11.4456 Y-31.5919
G01 X11.4393 Y-31.5861
G01 X11.4284 Y-31.5781
G01 X11.4221 Y-31.5744
G01 X11.4132 Y-31.5702
G01 X11.4040 Y-31.5669
G01 X11.3957 Y-31.5648
G01 X11.3848 Y-31.5631
G01 X11.3725 Y-31.5625
G01 X11.0775 Y-31.5625
G01 X11.0652 Y-31.5631
G01 X11.0567 Y-31.5643
G01 X11.0448 Y-31.5673
G01 X11.0368 Y-31.5702
G01 X11.0290 Y-31.5738
G01 X11.0185 Y-31.5801
G01 X11.0116 Y-31.5853
G01 X11.0053 Y-31.5910
G01 X10.9970 Y-31.6001
G01 X10.9920 Y-31.6070
G01 X10.9875 Y-31.6143
G01 X10.9823 Y-31.6254
G01 X10.9794 Y-31.6335
G01 X10.9773 Y-31.6418
G01 X10.9756 Y-31.6527
G01 X10.9750 Y-31.6650
G01 X10.9750 Y-32.8350
G01 X10.9755 Y-32.8461
G01 X10.9768 Y-32.8558
G01 X10.9791 Y-32.8653
G01 X10.9823 Y-32.8746
G01 X10.9863 Y-32.8835
G01 X10.9913 Y-32.8920
G01 X10.9970 Y-32.8999
G01 X11.0035 Y-32.9072
G01 X11.0098 Y-32.9131
G01 X11.0185 Y-32.9199
G01 X11.0258 Y-32.9244
G01 X11.0391 Y-32.9307
G01 X11.0472 Y-32.9334
G01 X11.0567 Y-32.9357
G01 X11.0652 Y-32.9369
G01 X11.0775 Y-32.9375
G00 Z2.0000
G00 X9.1750 Y-32.6975
G01 F60.00
G01 Z-0.2000
G01 F300.00
G01 X9.1750 Y-31.8025
G01 X9.1741 Y-31.7829
G01 X9.1705 Y-31.7586
G01 X9.1659 Y-31.7408
G01 X9.1587 Y-31.7213
G01 X9.1513 Y-31.7058
G01 X9.1412 Y-31.6890
G01 X9.1295 Y-31.6732
G01 X9.1163 Y-31.6587
G01 X9.1018 Y-31.6455
G01 X9.0860 Y-31.6338
G01 X9.0692 Y-31.6237
G01 X9.0537 Y-31.6163
G01 X9.0307 Y-31.6081
G01 X9.0140 Y-31.6040
G01 X8.9934 Y-31.6010
G01 X8.9725 Y-31.6000
G01 X8.2775 Y-31.6000
G01 X8.2554 Y-31.6011
G01 X8.2360 Y-31.6040
G01 X8.2170 Y-31.6087
G01 X8.1985 Y-31.6153
G01 X8.1808 Y-31.6237
G01 X8.1640 Y-31.6338
G01 X8.1482 Y-31.6455
G01 X8.1337 Y-31.6587
G01 X8.1205 Y-31.6732
G01 X8.1088 Y-31.6890
G01 X8.0987 Y-31.7058
G01 X8.0903 Y-31.7235
G01 X8.0837 Y-31.7420
G01 X8.0790 Y-31.7610
G01 X8.0761 Y-31.7804
G01 X8.0750 Y-31.8025
G01 X8.0750 Y-32.6975
G01 X8.0759 Y-32.7171
G01 X8.0795 Y-32.7414
G01 X8.0841 Y-32.7592
G01 X8.0913 Y-32.7787
G01 X8.0987 Y-32.7942
G01 X8.1088 Y-32.8110
G01 X8.1205 Y-32.8268
G01 X8.1337 Y-32.8413
G01 X8.1482 Y-32.8545
G01 X8.1640 Y-32.8662
G01 X8.1808 Y-32.8763
G01 X8.1963 Y-32.8837
G01 X8.2193 Y-32.8919
G01 X8.2360 Y-32.8960
G01 X8.2566 Y-32.8990
G01 X8.2775 Y-32.9000
G01 X8.9725 Y-32.9000
G01 X8.9970 Y-32.8986
G01 X9.0140 Y-32.8960
G01 X9.0330 Y-32.8913
G01 X9.0515 Y-32.8847
G01 X9.0692 Y-32.8763
G01 X9.0860 Y-32.8662
G01 X9.1018 Y-32.8545
G01 X9.1163 Y-32.8413
G01 X9.1279 Y-32.8287
G01 X9.1405 Y-32.8121
G01 X9.1501 Y-32.7964
G01 X9.1605 Y-32.7742
G01 X9.1663 Y-32.7580
G01 X9.1710 Y-32.7390
G01 X9.1739 Y-32.7196
G01 X9.1750 Y-32.6975
G00 Z2.0000
G00 X7.1750 Y-32.6975
G01 F60.00
G01 Z-0.2000
G01 F300.00
G01 X7.1750 Y-31.8025
G01 X7.1741 Y-31.7829
G01 X7.1705 Y-31.7586
G01 X7.1659 Y-31.7408
G01 X7.1587 Y-31.7213
G01 X7.1513 Y-31.7058
G01 X7.1412 Y-31.6890
G01 X7.1295 Y-31.6732
G01 X7.1163 Y-31.6587
G01 X7.1018 Y-31.6455
G01 X7.0860 Y-31.6338
G01 X7.0692 Y-31.6237
G01 X7.0537 Y-31.6163
G01 X7.0307 Y-31.6081
G01 X7.0140 Y-31.6040
G01 X6.9934 Y-31.6010
G01 X6.9725 Y-31.6000
G01 X6.2775 Y-31.6000
G01 X6.2554 Y-31.6011
G01 X6.2360 Y-31.6040
G01 X6.2170 Y-31.6087
G01 X6.1985 Y-31.6153
G01 X6.1808 Y-31.6237
G01 X6.1640 Y-31.6338
G01 X6.1482 Y-31.6455
G01 X6.1337 Y-31.6587
G01 X6.1205 Y-31.6732
G01 X6.1088 Y-31.6890
G01 X6.0987 Y-31.7058
G01 X6.0903 Y-31.7235
G01 X6.0837 Y-31.7420
G01 X6.0790 Y-31.7610
G01 X6.0761 Y-31.7804
G01 X6.0750 Y-31.8025
G01 X6.0750 Y-32.6975
G01 X6.0759 Y-32.7171
G01 X6.0795 Y-32.7414
G01 X6.0841 Y-32.7592
G01 X6.0913 Y-32.7787
G01 X6.0987 Y-32.7942
G01 X6.1088 Y-32.8110
G01 X6.1205 Y-32.8268
G01 X6.1337 Y-32.8413
G01 X6.1482 Y-32.8545
G01 X6.1640 Y-32.8662
G01 X6.1808 Y-32.8763
G01 X6.1963 Y-32.8837
G01 X6.2193 Y-32.8919
G01 X6.2360 Y-32.8960
G01 X6.2566 Y-32.8990
G01 X6.2775 Y-32.9000
G01 X6.9725 Y-32.9000
G01 X6.9970 Y-32.8986
G01 X7.0140 Y-32.8960
G01 X7.0330 Y-32.8913
G01 X7.0515 Y-32.8847
G01 X7.0692 Y-32.8763
G01 X7.0860 Y-32.8662
G01 X7.1018 Y-32.8545
G01 X7.1163 Y-32.8413
G01 X7.1279 Y-32.8287
G01 X7.1405 Y-32.8121
G01 X7.1501 Y-32.7964
G01 X7.1605 Y-32.7742
G01 X7.1663 Y-32.7580
G01 X7.1710 Y-32.7390
G01 X7.1739 Y-32.7196
G01 X7.1750 Y-32.6975
G00 Z2.0000
G00 X6.4875 Y-39.6475
G01 F60.00
G01 Z-0.2000
G01 F300.00
G01 X6.4875 Y-38.3512
G01 X6.4864 Y-38.3304
G01 X6.4840 Y-38.3134
G01 X6.4780 Y-38.2896
G01 X6.4722 Y-38.2735
G01 X6.4638 Y-38.2558
G01 X6.4537 Y-38.2390
G01 X6.4428 Y-38.2242
G01 X6.4288 Y-38.2087
G01 X6.4143 Y-38.1955
G01 X6.3985 Y-38.1838
G01 X6.3795 Y-38.1726
G01 X6.3640 Y-38.1653
G01 X6.3479 Y-38.1595
G01 X6.3289 Y-38.1545
G01 X6.3071 Y-38.1511
G01 X6.2863 Y-38.1500
G01 X5.4625 Y-38.1501
G01 X5.4429 Y-38.1511
G01 X5.4259 Y-38.1535
G01 X5.4021 Y-38.1595
G01 X5.3860 Y-38.1653
G01 X5.3683 Y-38.1737
G01 X5.3515 Y-38.1838
G01 X5.3367 Y-38.1947
G01 X5.3212 Y-38.2087
G01 X5.3080 Y-38.2232
G01 X5.2963 Y-38.2390
G01 X5.2851 Y-38.2580
G01 X5.2770 Y-38.2758
G01 X5.2712 Y-38.2920
G01 X5.2670 Y-38.3086
G01 X5.2636 Y-38.3304
G01 X5.2625 Y-38.3512
G01 X5.2625 Y-39.6488
G01 X5.2636 Y-39.6696
G01 X5.2660 Y-39.6866
G01 X5.2720 Y-39.7104
G01 X5.2778 Y-39.7265
G01 X5.2862 Y-39.7442
G01 X5.2963 Y-39.7610
G01 X5.3072 Y-39.7758
G01 X5.3212 Y-39.7913
G01 X5.3357 Y-39.8045
G01 X5.3515 Y-39.8162
G01 X5.3683 Y-39.8263
G01 X5.3860 Y-39.8347
G01 X5.4045 Y-39.8413
G01 X5.4235 Y-39.8460
G01 X5.4441 Y-39.8490
G01 X5.4650 Y-39.8500
G01 X6.2850 Y-39.8500
G01 X6.3071 Y-39.8489
G01 X6.3265 Y-39.8460
G01 X6.3455 Y-39.8413
G01 X6.3640 Y-39.8347
G01 X6.3817 Y-39.8263
G01 X6.3985 Y-39.8162
G01 X6.4143 Y-39.8045
G01 X6.4288 Y-39.7913
G01 X6.4404 Y-39.7787
G01 X6.4530 Y-39.7621
G01 X6.4626 Y-39.7464
G01 X6.4730 Y-39.7242
G01 X6.4788 Y-39.7080
G01 X6.4835 Y-39.6890
G01 X6.4864 Y-39.6696
G01 X6.4875 Y-39.6475
G00 Z2.0000
G00 X6.0225 Y-42.6125
G01 F60.00
G01 Z-0.2000
G01 F300.00
G01 X5.7275 Y-42.6125
G01 X5.7152 Y-42.6131
G01 X5.7067 Y-42.6143
G01 X5.6948 Y-42.6173
G01 X5.6868 Y-42.6202
G01 X5.6801 Y-42.6233
G01 X5.6695 Y-42.6295
G01 X5.6598 Y-42.6369
G01 X5.6544 Y-42.6419
G01 X5.6486 Y-42.6482
G01 X5.6413 Y-42.6580
G01 X5.6369 Y-42.6654
G01 X5.6332 Y-42.6731
G01 X5.6291 Y-42.6847
G01 X5.6270 Y-42.6930
G01 X5.6257 Y-42.7015
G01 X5.6250 Y-42.7150
G01 X5.6250 Y-43.7350
G01 X5.6254 Y-43.7448
G01 X5.6273 Y-43.7582
G01 X5.6294 Y-43.7665
G01 X5.6323 Y-43.7746
G01 X5.6381 Y-43.7867
G01 X5.6420 Y-43.7930
G01 X5.6478 Y-43.8009
G01 X5.6562 Y-43.8098
G01 X5.6616 Y-43.8147
G01 X5.6695 Y-43.8205
G01 X5.6779 Y-43.8256
G01 X5.6845 Y-43.8288
G01 X5.6972 Y-43.8334
G01 X5.7055 Y-43.8355
G01 X5.7140 Y-43.8368
G01 X5.7275 Y-43.8375
G01 X6.0225 Y-43.8375
G01 X6.0336 Y-43.8370
G01 X6.0421 Y-43.8359
G01 X6.0540 Y-43.8331
G01 X6.0655 Y-43.8288
G01 X6.0721 Y-43.8256
G01 X6.0795 Y-43.8212
G01 X6.0902 Y-43.8131
G01 X6.0956 Y-43.8081
G01 X6.1014 Y-43.8018
G01 X6.1087 Y-43.7920
G01 X6.1131 Y-43.7846
G01 X6.1168 Y-43.7769
G01 X6.1209 Y-43.7653
G01 X6.1230 Y-43.7570
G01 X6.1243 Y-43.7485
G01 X6.1250 Y-43.7350
G01 X6.1250 Y-42.7150
G01 X6.1245 Y-42.7039
G01 X6.1232 Y-42.6942
G01 X6.1209 Y-42.6847
G01 X6.1177 Y-42.6754
G01 X6.1137 Y-42.6665
G01 X6.1087 Y-42.6580
G01 X6.1030 Y-42.6501
G01 X6.0965 Y-42.6428
G01 X6.0902 Y-42.6369
G01 X6.0815 Y-42.6301
G01 X6.0742 Y-42.6256
G01 X6.0609 Y-42.6193
G01 X6.0528 Y-42.6166
G01 X6.0433 Y-42.6143
G01 X6.0348 Y-42.6131
G01 X6.0225 Y-42.6125
G00 Z2.0000
G00 X5.0725 Y-42.6125
G01 F60.00
G01 Z-0.2000
G01 F300.00
G01 X4.7775 Y-42.6125
G01 X4.7652 Y-42.6131
G01 X4.7567 Y-42.6143
G01 X4.7448 Y-42.6173
G01 X4.7368 Y-42.6202
G01 X4.7301 Y-42.6233
G01 X4.7195 Y-42.6295
G01 X4.7098 Y-42.6369
G01 X4.7044 Y-42.6419
G01 X4.6986 Y-42.6482
G01 X4.6913 Y-42.6580
G01 X4.6869 Y-42.6654
G01 X4.6832 Y-42.6731
G01 X4.6791 Y-42.6847
G01 X4.6770 Y-42.6930
G01 X4.6757 Y-42.7015
G01 X4.6750 Y-42.7150
G01 X4.6750 Y-43.7350
G01 X4.6754 Y-43.7448
G01 X4.6773 Y-43.7582
G01 X4.6794 Y-43.7665
G01 X4.6823 Y-43.7746
G01 X4.6881 Y-43.7867
G01 X4.6920 Y-43.7930
G01 X4.6978 Y-43.8009
G01 X4.7062 Y-43.8098
G01 X4.7116 Y-43.8147
G01 X4.7195 Y-43.8205
G01 X4.7279 Y-43.8256
G01 X4.7345 Y-43.8288
G01 X4.7472 Y-43.8334
G01 X4.7555 Y-43.8355
G01 X4.7640 Y-43.8368
G01 X4.7775 Y-43.8375
G01 X5.0725 Y-43.8375
G01 X5.0836 Y-43.8370
G01 X5.0921 Y-43.8359
G01 X5.1040 Y-43.8331
G01 X5.1155 Y-43.8288
G01 X5.1221 Y-43.8256
G01 X5.1295 Y-43.8212
G01 X5.1402 Y-43.8131
G01 X5.1456 Y-43.8081
G01 X5.1514 Y-43.8018
G01 X5.1587 Y-43.7920
G01 X5.1631 Y-43.7846
G01 X5.1668 Y-43.7769
G01 X5.1709 Y-43.7653
G01 X5.1730 Y-43.7570
G01 X5.1743 Y-43.7485
G01 X5.1750 Y-43.7350
G01 X5.1750 Y-42.7150
G01 X5.1745 Y-42.7039
G01 X5.1732 Y-42.6942
G01 X5.1709 Y-42.6847
G01 X5.1677 Y-42.6754
G01 X5.1637 Y-42.6665
G01 X5.1587 Y-42.6580
G01 X5.1530 Y-42.6501
G01 X5.1465 Y-42.6428
G01 X5.1402 Y-42.6369
G01 X5.1315 Y-42.6301
G01 X5.1242 Y-42.6256
G01 X5.1109 Y-42.6193
G01 X5.1028 Y-42.6166
G01 X5.0933 Y-42.6143
G01 X5.0848 Y-42.6131
G01 X5.0725 Y-42.6125
G00 Z2.0000
G00 X4.1225 Y-42.6125
G01 F60.00
G01 Z-0.2000
G01 F300.00
G01 X3.8275 Y-42.6125
G01 X3.8152 Y-42.6131
G01 X3.8067 Y-42.6143
G01 X3.7948 Y-42.6173
G01 X3.7868 Y-42.6202
G01 X3.7801 Y-42.6233
G01 X3.7695 Y-42.6295
G01 X3.7598 Y-42.6369
G01 X3.7544 Y-42.6419
G01 X3.7486 Y-42.6482
G01 X3.7413 Y-42.6580
G01 X3.7369 Y-42.6654
G01 X3.7332 Y-42.6731
G01 X3.7291 Y-42.6847
G01 X3.7270 Y-42.6930
G01 X3.7257 Y-42.7015
G01 X3.7250 Y-42.7150
G01 X3.7250 Y-43.7350
G01 X3.7254 Y-43.7448
G01 X3.7273 Y-43.7582
G01 X3.7294 Y-43.7665
G01 X3.7323 Y-43.7746
G01 X3.7381 Y-43.7867
G01 X3.7420 Y-43.7930
G01 X3.7478 Y-43.8009
G01 X3.7562 Y-43.8098
G01 X3.7616 Y-43.8147
G01 X3.7695 Y-43.8205
G01 X3.7779 Y-43.8256
G01 X3.7845 Y-43.8288
G01 X3.7972 Y-43.8334
G01 X3.8055 Y-43.8355
G01 X3.8140 Y-43.8368
G01 X3.8275 Y-43.8375
G01 X4.1225 Y-43.8375
G01 X4.1336 Y-43.8370
G01 X4.1421 Y-43.8359
G01 X4.1540 Y-43.8331
G01 X4.1655 Y-43.8288
G01 X4.1721 Y-43.8256
G01 X4.1795 Y-43.8212
G01 X4.1902 Y-43.8131
G01 X4.1956 Y-43.8081
G01 X4.2014 Y-43.8018
G01 X4.2087 Y-43.7920
G01 X4.2131 Y-43.7846
G01 X4.2168 Y-43.7769
G01 X4.2209 Y-43.7653
G01 X4.2230 Y-43.7570
G01 X4.2243 Y-43.7485
G01 X4.2250 Y-43.7350
G01 X4.2250 Y-42.7150
G01 X4.2245 Y-42.7039
G01 X4.2232 Y-42.6942
G01 X4.2209 Y-42.6847
G01 X4.2177 Y-42.6754
G01 X4.2137 Y-42.6665
G01 X4.2087 Y-42.6580
G01 X4.2030 Y-42.6501
G01 X4.1965 Y-42.6428
G01 X4.1902 Y-42.6369
G01 X4.1815 Y-42.6301
G01 X4.1742 Y-42.6256
G01 X4.1609 Y-42.6193
G01 X4.1528 Y-42.6166
G01 X4.1433 Y-42.6143
G01 X4.1348 Y-42.6131
G01 X4.1225 Y-42.6125
G00 Z2.0000
G00 X4.1225 Y-44.8875
G01 F60.00
G01 Z-0.2000
G01 F300.00
G01 X3.8275 Y-44.8875
G01 X3.8152 Y-44.8881
G01 X3.8067 Y-44.8893
G01 X3.7948 Y-44.8923
G01 X3.7868 Y-44.8952
G01 X3.7801 Y-44.8983
G01 X3.7695 Y-44.9045
G01 X3.7598 Y-44.9119
G01 X3.7544 Y-44.9169
G01 X3.7486 Y-44.9232
G01 X3.7413 Y-44.9330
G01 X3.7369 Y-44.9404
G01 X3.7332 Y-44.9481
G01 X3.7291 Y-44.9597
G01 X3.7270 Y-44.9680
G01 X3.7257 Y-44.9765
G01 X3.7250 Y-44.9900
G01 X3.7250 Y-46.0100
G01 X3.7254 Y-46.0198
G01 X3.7273 Y-46.0332
G01 X3.7294 Y-46.0415
G01 X3.7323 Y-46.0496
G01 X3.7381 Y-46.0617
G01 X3.7420 Y-46.0680
G01 X3.7478 Y-46.0759
G01 X3.7562 Y-46.0848
G01 X3.7616 Y-46.0897
G01 X3.7695 Y-46.0955
G01 X3.7779 Y-46.1006
G01 X3.7845 Y-46.1038
G01 X3.7972 Y-46.1084
G01 X3.8055 Y-46.1105
G01 X3.8140 Y-46.1118
G01 X3.8275 Y-46.1125
G01 X4.1225 Y-46.1125
G01 X4.1336 Y-46.1120
G01 X4.1421 Y-46.1109
G01 X4.1540 Y-46.1081
G01 X4.1655 Y-46.1038
G01 X4.1721 Y-46.1006
G01 X4.1795 Y-46.0962
G01 X4.1902 Y-46.0881
G01 X4.1956 Y-46.0831
G01 X4.2014 Y-46.0768
G01 X4.2087 Y-46.0670
G01 X4.2131 Y-46.0596
G01 X4.2168 Y-46.0519
G01 X4.2209 Y-46.0403
G01 X4.2230 Y-46.0320
G01 X4.2243 Y-46.0235
G01 X4.2250 Y-46.0100
G01 X4.2250 Y-44.9900
G01 X4.2245 Y-44.9789
G01 X4.2232 Y-44.9692
G01 X4.2209 Y-44.9597
G01 X4.2177 Y-44.9504
G01 X4.2137 Y-44.9415
G01 X4.2087 Y-44.9330
G01 X4.2030 Y-44.9251
G01 X4.1965 Y-44.9178
G01 X4.1902 Y-44.9119
G01 X4.1815 Y-44.9051
G01 X4.1742 Y-44.9006
G01 X4.1609 Y-44.8943
G01 X4.1528 Y-44.8916
G01 X4.1433 Y-44.8893
G01 X4.1348 Y-44.8881
G01 X4.1225 Y-44.8875
G00 Z2.0000
G00 X6.0225 Y-44.8875
G01 F60.00
G01 Z-0.2000
G01 F300.00
G01 X5.7275 Y-44.8875
G01 X5.7152 Y-44.8881
G01 X5.7067 Y-44.8893
G01 X5.6948 Y-44.8923
G01 X5.6868 Y-44.8952
G01 X5.6801 Y-44.8983
G01 X5.6695 Y-44.9045
G01 X5.6598 Y-44.9119
G01 X5.6544 Y-44.9169
G01 X5.6486 Y-44.9232
G01 X5.6413 Y-44.9330
G01 X5.6369 Y-44.9404
G01 X5.6332 Y-44.9481
G01 X5.6291 Y-44.9597
G01 X5.6270 Y-44.9680
G01 X5.6257 Y-44.9765
G01 X5.6250 Y-44.9900
G01 X5.6250 Y-46.0100
G01 X5.6254 Y-46.0198
G01 X5.6273 Y-46.0332
G01 X5.6294 Y-46.0415
G01 X5.6323 Y-46.0496
G01 X5.6381 Y-46.0617
G01 X5.6420 Y-46.0680
G01 X5.6478 Y-46.0759
G01 X5.6562 Y-46.0848
G01 X5.6616 Y-46.0897
G01 X5.6695 Y-46.0955
G01 X5.6779 Y-46.1006
G01 X5.6845 Y-46.1038
G01 X5.6972 Y-46.1084
G01 X5.7055 Y-46.1105
G01 X5.7140 Y-46.1118
G01 X5.7275 Y-46.1125
G01 X6.0225 Y-46.1125
G01 X6.0336 Y-46.1120
G01 X6.0421 Y-46.1109
G01 X6.0540 Y-46.1081
G01 X6.0655 Y-46.1038
G01 X6.0721 Y-46.1006
G01 X6.0795 Y-46.0962
G01 X6.0902 Y-46.0881
G01 X6.0956 Y-46.0831
G01 X6.1014 Y-46.0768
G01 X6.1087 Y-46.0670
G01 X6.1131 Y-46.0596
G01 X6.1168 Y-46.0519
G01 X6.1209 Y-46.0403
G01 X6.1230 Y-46.0320
G01 X6.1243 Y-46.0235
G01 X6.1250 Y-46.0100
G01 X6.1250 Y-44.9900
G01 X6.1245 Y-44.9789
G01 X6.1232 Y-44.9692
G01 X6.1209 Y-44.9597
G01 X6.1177 Y-44.9504
G01 X6.1137 Y-44.9415
G01 X6.1087 Y-44.9330
G01 X6.1030 Y-44.9251
G01 X6.0965 Y-44.9178
G01 X6.0902 Y-44.9119
G01 X6.0815 Y-44.9051
G01 X6.0742 Y-44.9006
G01 X6.0609 Y-44.8943
G01 X6.0528 Y-44.8916
G01 X6.0433 Y-44.8893
G01 X6.0348 Y-44.8881
G01 X6.0225 Y-44.8875
G00 Z2.0000
G00 X6.1375 Y-47.8525
G01 F60.00
G01 Z-0.2000
G01 F300.00
G01 X6.1375 Y-49.1488
G01 X6.1386 Y-49.1696
G01 X6.1410 Y-49.1866
G01 X6.1470 Y-49.2104
G01 X6.1528 Y-49.2265
G01 X6.1612 Y-49.2442
G01 X6.1713 Y-49.2610
G01 X6.1822 Y-49.2758
G01 X6.1962 Y-49.2913
G01 X6.2107 Y-49.3045
G01 X6.2265 Y-49.3162
G01 X6.2455 Y-49.3274
G01 X6.2610 Y-49.3347
G01 X6.2771 Y-49.3405
G01 X6.2961 Y-49.3455
G01 X6.3179 Y-49.3489
G01 X6.3387 Y-49.3500
G01 X7.1625 Y-49.3499
G01 X7.1821 Y-49.3489
G01 X7.1991 Y-49.3465
G01 X7.2229 Y-49.3405
G01 X7.2390 Y-49.3347
G01 X7.2567 Y-49.3263
G01 X7.2735 Y-49.3162
G01 X7.2883 Y-49.3053
G01 X7.3038 Y-49.2913
G01 X7.3170 Y-49.2768
G01 X7.3287 Y-49.2610
G01 X7.3399 Y-49.2420
G01 X7.3480 Y-49.2242
G01 X7.3538 Y-49.2080
G01 X7.3580 Y-49.1914
G01 X7.3614 Y-49.1696
G01 X7.3625 Y-49.1488
G01 X7.3625 Y-47.8512
G01 X7.3614 Y-47.8304
G01 X7.3590 Y-47.8134
G01 X7.3530 Y-47.7896
G01 X7.3472 Y-47.7735
G01 X7.3388 Y-47.7558
G01 X7.3287 Y-47.7390
G01 X7.3178 Y-47.7242
G01 X7.3038 Y-47.7087
G01 X7.2893 Y-47.6955
G01 X7.2735 Y-47.6838
G01 X7.2567 Y-47.6737
G01 X7.2390 Y-47.6653
G01 X7.2205 Y-47.6587
G01 X7.2015 Y-47.6540
G01 X7.1809 Y-47.6510
G01 X7.1600 Y-47.6500
G01 X6.3400 Y-47.6500
G01 X6.3179 Y-47.6511
G01 X6.2985 Y-47.6540
G01 X6.2795 Y-47.6587
G01 X6.2610 Y-47.6653
G01 X6.2433 Y-47.6737
G01 X6.2265 Y-47.6838
G01 X6.2107 Y-47.6955
G01 X6.1962 Y-47.7087
G01 X6.1846 Y-47.7213
G01 X6.1720 Y-47.7379
G01 X6.1624 Y-47.7536
G01 X6.1520 Y-47.7758
G01 X6.1462 Y-47.7920
G01 X6.1415 Y-47.8110
G01 X6.1386 Y-47.8304
G01 X6.1375 Y-47.8525
G00 Z2.0000
G00 X9.2625 Y-47.8525
G01 F60.00
G01 Z-0.2000
G01 F300.00
G01 X9.2625 Y-49.1488
G01 X9.2636 Y-49.1696
G01 X9.2660 Y-49.1866
G01 X9.2720 Y-49.2104
G01 X9.2778 Y-49.2265
G01 X9.2862 Y-49.2442
G01 X9.2963 Y-49.2610
G01 X9.3072 Y-49.2758
G01 X9.3212 Y-49.2913
G01 X9.3357 Y-49.3045
G01 X9.3515 Y-49.3162
G01 X9.3705 Y-49.3274
G01 X9.3860 Y-49.3347
G01 X9.4021 Y-49.3405
G01 X9.4211 Y-49.3455
G01 X9.4429 Y-49.3489
G01 X9.4637 Y-49.3500
G01 X10.2875 Y-49.3499
G01 X10.3071 Y-49.3489
G01 X10.3241 Y-49.3465
G01 X10.3479 Y-49.3405
G01 X10.3640 Y-49.3347
G01 X10.3817 Y-49.3263
G01 X10.3985 Y-49.3162
G01 X10.4133 Y-49.3053
G01 X10.4288 Y-49.2913
G01 X10.4420 Y-49.2768
G01 X10.4537 Y-49.2610
G01 X10.4649 Y-49.2420
G01 X10.4730 Y-49.2242
G01 X10.4788 Y-49.2080
G01 X10.4830 Y-49.1914
G01 X10.4864 Y-49.1696
G01 X10.4875 Y-49.1488
G01 X10.4875 Y-47.8512
G01 X10.4864 Y-47.8304
G01 X10.4840 Y-47.8134
G01 X10.4780 Y-47.7896
G01 X10.4722 Y-47.7735
G01 X10.4638 Y-47.7558
G01 X10.4537 Y-47.7390
G01 X10.4428 Y-47.7242
G01 X10.4288 Y-47.7087
G01 X10.4143 Y-47.6955
G01 X10.3985 Y-47.6838
G01 X10.3817 Y-47.6737
G01 X10.3640 Y-47.6653
G01 X10.3455 Y-47.6587
G01 X10.3265 Y-47.6540
G01 X10.3059 Y-47.6510
G01 X10.2850 Y-47.6500
G01 X9.4650 Y-47.6500
G01 X9.4429 Y-47.6511
G01 X9.4235 Y-47.6540
G01 X9.4045 Y-47.6587
G01 X9.3860 Y-47.6653
G01 X9.3683 Y-47.6737
G01 X9.3515 Y-47.6838
G01 X9.3357 Y-47.6955
G01 X9.3212 Y-47.7087
G01 X9.3096 Y-47.7213
G01 X9.2970 Y-47.7379
G01 X9.2874 Y-47.7536
G01 X9.2770 Y-47.7758
G01 X9.2712 Y-47.7920
G01 X9.2665 Y-47.8110
G01 X9.2636 Y-47.8304
G01 X9.2625 Y-47.8525
G00 Z2.0000
G00 X12.3250 Y-47.5525
G01 F60.00
G01 Z-0.2000
G01 F300.00
G01 X12.3250 Y-48.4475
G01 X12.3259 Y-48.4671
G01 X12.3295 Y-48.4914
G01 X12.3341 Y-48.5092
G01 X12.3413 Y-48.5287
G01 X12.3487 Y-48.5442
G01 X12.3588 Y-48.5610
G01 X12.3705 Y-48.5768
G01 X12.3837 Y-48.5913
G01 X12.3982 Y-48.6045
G01 X12.4140 Y-48.6162
G01 X12.4308 Y-48.6263
G01 X12.4463 Y-48.6337
G01 X12.4693 Y-48.6419
G01 X12.4860 Y-48.6460
G01 X12.5066 Y-48.6490
G01 X12.5275 Y-48.6500
G01 X13.2225 Y-48.6500
G01 X13.2446 Y-48.6489
G01 X13.2640 Y-48.6460
G01 X13.2830 Y-48.6413
G01 X13.3015 Y-48.6347
G01 X13.3192 Y-48.6263
G01 X13.3360 Y-48.6162
G01 X13.3518 Y-48.6045
G01 X13.3663 Y-48.5913
G01 X13.3795 Y-48.5768
G01 X13.3912 Y-48.5610
G01 X13.4013 Y-48.5442
G01 X13.4087 Y-48.5287
G01 X13.4159 Y-48.5092
G01 X13.4205 Y-48.4914
G01 X13.4241 Y-48.4671
G01 X13.4250 Y-48.4475
G01 X13.4250 Y-47.5525
G01 X13.4239 Y-47.5304
G01 X13.4210 Y-47.5110
G01 X13.4163 Y-47.4920
G01 X13.4097 Y-47.4735
G01 X13.4013 Y-47.4558
G01 X13.3912 Y-47.4390
G01 X13.3795 Y-47.4232
G01 X13.3663 Y-47.4087
G01 X13.3518 Y-47.3955
G01 X13.3360 Y-47.3838
G01 X13.3192 Y-47.3737
G01 X13.3037 Y-47.3663
G01 X13.2807 Y-47.3581
G01 X13.2640 Y-47.3540
G01 X13.2434 Y-47.3510
G01 X13.2225 Y-47.3500
G01 X12.5275 Y-47.3500
G01 X12.5030 Y-47.3514
G01 X12.4860 Y-47.3540
G01 X12.4670 Y-47.3587
G01 X12.4485 Y-47.3653
G01 X12.4308 Y-47.3737
G01 X12.4140 Y-47.3838
G01 X12.3982 Y-47.3955
G01 X12.3837 Y-47.4087
G01 X12.3721 Y-47.4213
G01 X12.3595 Y-47.4379
G01 X12.3499 Y-47.4536
G01 X12.3395 Y-47.4758
G01 X12.3337 Y-47.4920
G01 X12.3290 Y-47.5110
G01 X12.3261 Y-47.5304
G01 X12.3250 Y-47.5525
G00 Z2.0000
G00 X14.3250 Y-47.5525
G01 F60.00
G01 Z-0.2000
G01 F300.00
G01 X14.3250 Y-48.4475
G01 X14.3259 Y-48.4671
G01 X14.3295 Y-48.4914
G01 X14.3341 Y-48.5092
G01 X14.3413 Y-48.5287
G01 X14.3487 Y-48.5442
G01 X14.3588 Y-48.5610
G01 X14.3705 Y-48.5768
G01 X14.3837 Y-48.5913
G01 X14.3982 Y-48.6045
G01 X14.4140 Y-48.6162
G01 X14.4308 Y-48.6263
G01 X14.4463 Y-48.6337
G01 X14.4693 Y-48.6419
G01 X14.4860 Y-48.6460
G01 X14.5066 Y-48.6490
G01 X14.5275 Y-48.6500
G01 X15.2225 Y-48.6500
G01 X15.2446 Y-48.6489
G01 X15.2640 Y-48.6460
G01 X15.2830 Y-48.6413
G01 X15.3015 Y-48.6347
G01 X15.3192 Y-48.6263
G01 X15.3360 Y-48.6162
G01 X15.3518 Y-48.6045
G01 X15.3663 Y-48.5913
G01 X15.3795 Y-48.5768
G01 X15.3912 Y-48.5610
G01 X15.4013 Y-48.5442
G01 X15.4087 Y-48.5287
G01 X15.4159 Y-48.5092
G01 X15.4205 Y-48.4914
G01 X15.4241 Y-48.4671
G01 X15.4250 Y-48.4475
G01 X15.4250 Y-47.5525
G01 X15.4239 Y-47.5304
G01 X15.4210 Y-47.5110
G01 X15.4163 Y-47.4920
G01 X15.4097 Y-47.4735
G01 X15.4013 Y-47.4558
G01 X15.3912 Y-47.4390
G01 X15.3795 Y-47.4232
G01 X15.3663 Y-47.4087
G01 X15.3518 Y-47.3955
G01 X15.3360 Y-47.3838
G01 X15.3192 Y-47.3737
G01 X15.3037 Y-47.3663
G01 X15.2807 Y-47.3581
G01 X15.2640 Y-47.3540
G01 X15.2434 Y-47.3510
G01 X15.2225 Y-47.3500
G01 X14.5275 Y-47.3500
G01 X14.5030 Y-47.3514
G01 X14.4860 Y-47.3540
G01 X14.4670 Y-47.3587
G01 X14.4485 Y-47.3653
G01 X14.4308 Y-47.3737
G01 X14.4140 Y-47.3838
G01 X14.3982 Y-47.3955
G01 X14.3837 Y-47.4087
G01 X14.3721 Y-47.4213
G01 X14.3595 Y-47.4379
G01 X14.3499 Y-47.4536
G01 X14.3395 Y-47.4758
G01 X14.3337 Y-47.4920
G01 X14.3290 Y-47.5110
G01 X14.3261 Y-47.5304
G01 X14.3250 Y-47.5525
G00 Z2.0000
G00 X15.3225 Y-43.9500
G01 F60.00
G01 Z-0.2000
G01 F300.00
G01 X14.4275 Y-43.9500
G01 X14.4079 Y-43.9509
G01 X14.3836 Y-43.9545
G01 X14.3658 Y-43.9591
G01 X14.3463 Y-43.9663
G01 X14.3308 Y-43.9737
G01 X14.3140 Y-43.9838
G01 X14.2982 Y-43.9955
G01 X14.2837 Y-44.0087
G01 X14.2705 Y-44.0232
G01 X14.2588 Y-44.0390
G01 X14.2487 Y-44.0558
G01 X14.2413 Y-44.0713
G01 X14.2331 Y-44.0943
G01 X14.2290 Y-44.1110
G01 X14.2260 Y-44.1316
G01 X14.2250 Y-44.1525
G01 X14.2250 Y-44.8475
G01 X14.2261 Y-44.8696
G01 X14.2290 Y-44.8890
G01 X14.2337 Y-44.9080
G01 X14.2403 Y-44.9265
G01 X14.2487 Y-44.9442
G01 X14.2588 Y-44.9610
G01 X14.2705 Y-44.9768
G01 X14.2837 Y-44.9913
G01 X14.2982 Y-45.0045
G01 X14.3140 Y-45.0162
G01 X14.3308 Y-45.0263
G01 X14.3463 Y-45.0337
G01 X14.3658 Y-45.0409
G01 X14.3836 Y-45.0455
G01 X14.4079 Y-45.0491
G01 X14.4275 Y-45.0500
G01 X15.3225 Y-45.0500
G01 X15.3446 Y-45.0489
G01 X15.3640 Y-45.0460
G01 X15.3830 Y-45.0413
G01 X15.4015 Y-45.0347
G01 X15.4192 Y-45.0263
G01 X15.4360 Y-45.0162
G01 X15.4518 Y-45.0045
G01 X15.4663 Y-44.9913
G01 X15.4795 Y-44.9768
G01 X15.4912 Y-44.9610
G01 X15.5013 Y-44.9442
G01 X15.5087 Y-44.9287
G01 X15.5169 Y-44.9057
G01 X15.5210 Y-44.8890
G01 X15.5240 Y-44.8684
G01 X15.5250 Y-44.8475
G01 X15.5250 Y-44.1525
G01 X15.5236 Y-44.1280
G01 X15.5210 Y-44.1110
G01 X15.5163 Y-44.0920
G01 X15.5097 Y-44.0735
G01 X15.5013 Y-44.0558
G01 X15.4912 Y-44.0390
G01 X15.4795 Y-44.0232
G01 X15.4663 Y-44.0087
G01 X15.4537 Y-43.9971
G01 X15.4371 Y-43.9845
G01 X15.4214 Y-43.9749
G01 X15.3992 Y-43.9645
G01 X15.3830 Y-43.9587
G01 X15.3640 Y-43.9540
G01 X15.3446 Y-43.9511
G01 X15.3225 Y-43.9500
G00 Z2.0000
G00 X15.3225 Y-41.9500
G01 F60.00
G01 Z-0.2000
G01 F300.00
G01 X14.4275 Y-41.9500
G01 X14.4079 Y-41.9509
G01 X14.3836 Y-41.9545
G01 X14.3658 Y-41.9591
G01 X14.3463 Y-41.9663
G01 X14.3308 Y-41.9737
G01 X14.3140 Y-41.9838
G01 X14.2982 Y-41.9955
G01 X14.2837 Y-42.0087
G01 X14.2705 Y-42.0232
G01 X14.2588 Y-42.0390
G01 X14.2487 Y-42.0558
G01 X14.2413 Y-42.0713
G01 X14.2331 Y-42.0943
G01 X14.2290 Y-42.1110
G01 X14.2260 Y-42.1316
G01 X14.2250 Y-42.1525
G01 X14.2250 Y-42.8475
G01 X14.2261 Y-42.8696
G01 X14.2290 Y-42.8890
G01 X14.2337 Y-42.9080
G01 X14.2403 Y-42.9265
G01 X14.2487 Y-42.9442
G01 X14.2588 Y-42.9610
G01 X14.2705 Y-42.9768
G01 X14.2837 Y-42.9913
G01 X14.2982 Y-43.0045
G01 X14.3140 Y-43.0162
G01 X14.3308 Y-43.0263
G01 X14.3463 Y-43.0337
G01 X14.3658 Y-43.0409
G01 X14.3836 Y-43.0455
G01 X14.4079 Y-43.0491
G01 X14.4275 Y-43.0500
G01 X15.3225 Y-43.0500
G01 X15.3446 Y-43.0489
G01 X15.3640 Y-43.0460
G01 X15.3830 Y-43.0413
G01 X15.4015 Y-43.0347
G01 X15.4192 Y-43.0263
G01 X15.4360 Y-43.0162
G01 X15.4518 Y-43.0045
G01 X15.4663 Y-42.9913
G01 X15.4795 Y-42.9768
G01 X15.4912 Y-42.9610
G01 X15.5013 Y-42.9442
G01 X15.5087 Y-42.9287
G01 X15.5169 Y-42.9057
G01 X15.5210 Y-42.8890
G01 X15.5240 Y-42.8684
G01 X15.5250 Y-42.8475
G01 X15.5250 Y-42.1525
G01 X15.5236 Y-42.1280
G01 X15.5210 Y-42.1110
G01 X15.5163 Y-42.0920
G01 X15.5097 Y-42.0735
G01 X15.5013 Y-42.0558
G01 X15.4912 Y-42.0390
G01 X15.4795 Y-42.0232
G01 X15.4663 Y-42.0087
G01 X15.4537 Y-41.9971
G01 X15.4371 Y-41.9845
G01 X15.4214 Y-41.9749
G01 X15.3992 Y-41.9645
G01 X15.3830 Y-41.9587
G01 X15.3640 Y-41.9540
G01 X15.3446 Y-41.9511
G01 X15.3225 Y-41.9500
G00 Z2.0000
G00 X12.0000 Y-42.6975
G01 F60.00
G01 Z-0.2000
G01 F300.00
G01 X12.0000 Y-42.4025
G01 X11.9994 Y-42.3902
G01 X11.9980 Y-42.3805
G01 X11.9956 Y-42.3710
G01 X11.9932 Y-42.3641
G01 X11.9881 Y-42.3529
G01 X11.9816 Y-42.3425
G01 X11.9772 Y-42.3366
G01 X11.9706 Y-42.3294
G01 X11.9614 Y-42.3213
G01 X11.9555 Y-42.3170
G01 X11.9471 Y-42.3119
G01 X11.9359 Y-42.3068
G01 X11.9290 Y-42.3044
G01 X11.9207 Y-42.3023
G01 X11.9098 Y-42.3006
G01 X11.8975 Y-42.3000
G01 X10.7275 Y-42.3000
G01 X10.7177 Y-42.3004
G01 X10.7043 Y-42.3023
G01 X10.6960 Y-42.3044
G01 X10.6868 Y-42.3077
G01 X10.6779 Y-42.3119
G01 X10.6716 Y-42.3156
G01 X10.6607 Y-42.3236
G01 X10.6544 Y-42.3294
G01 X10.6486 Y-42.3357
G01 X10.6406 Y-42.3466
G01 X10.6369 Y-42.3529
G01 X10.6327 Y-42.3618
G01 X10.6294 Y-42.3710
G01 X10.6273 Y-42.3793
G01 X10.6256 Y-42.3902
G01 X10.6250 Y-42.4025
G01 X10.6250 Y-42.6975
G01 X10.6256 Y-42.7098
G01 X10.6268 Y-42.7183
G01 X10.6298 Y-42.7302
G01 X10.6327 Y-42.7382
G01 X10.6363 Y-42.7460
G01 X10.6426 Y-42.7565
G01 X10.6478 Y-42.7634
G01 X10.6535 Y-42.7697
G01 X10.6626 Y-42.7780
G01 X10.6695 Y-42.7830
G01 X10.6768 Y-42.7875
G01 X10.6879 Y-42.7927
G01 X10.6960 Y-42.7956
G01 X10.7043 Y-42.7977
G01 X10.7152 Y-42.7994
G01 X10.7275 Y-42.8000
G01 X11.8975 Y-42.8000
G01 X11.9086 Y-42.7995
G01 X11.9183 Y-42.7982
G01 X11.9278 Y-42.7959
G01 X11.9371 Y-42.7927
G01 X11.9460 Y-42.7887
G01 X11.9545 Y-42.7837
G01 X11.9624 Y-42.7780
G01 X11.9697 Y-42.7715
G01 X11.9756 Y-42.7652
G01 X11.9824 Y-42.7565
G01 X11.9869 Y-42.7492
G01 X11.9932 Y-42.7359
G01 X11.9959 Y-42.7278
G01 X11.9982 Y-42.7183
G01 X11.9994 Y-42.7098
G01 X12.0000 Y-42.6975
G00 Z2.0000
G00 X12.0000 Y-44.5975
G01 F60.00
G01 Z-0.2000
G01 F300.00
G01 X12.0000 Y-44.3025
G01 X11.9994 Y-44.2902
G01 X11.9980 Y-44.2805
G01 X11.9956 Y-44.2710
G01 X11.9932 Y-44.2641
G01 X11.9881 Y-44.2529
G01 X11.9816 Y-44.2425
G01 X11.9772 Y-44.2366
G01 X11.9706 Y-44.2294
G01 X11.9614 Y-44.2213
G01 X11.9555 Y-44.2170
G01 X11.9471 Y-44.2119
G01 X11.9359 Y-44.2068
G01 X11.9290 Y-44.2044
G01 X11.9207 Y-44.2023
G01 X11.9098 Y-44.2006
G01 X11.8975 Y-44.2000
G01 X10.7275 Y-44.2000
G01 X10.7177 Y-44.2004
G01 X10.7043 Y-44.2023
G01 X10.6960 Y-44.2044
G01 X10.6868 Y-44.2077
G01 X10.6779 Y-44.2119
G01 X10.6716 Y-44.2156
G01 X10.6607 Y-44.2236
G01 X10.6544 Y-44.2294
G01 X10.6486 Y-44.2357
G01 X10.6406 Y-44.2466
G01 X10.6369 Y-44.2529
G01 X10.6327 Y-44.2618
G01 X10.6294 Y-44.2710
G01 X10.6273 Y-44.2793
G01 X10.6256 Y-44.2902
G01 X10.6250 Y-44.3025
G01 X10.6250 Y-44.5975
G01 X10.6256 Y-44.6098
G01 X10.6268 Y-44.6183
G01 X10.6298 Y-44.6302
G01 X10.6327 Y-44.6382
G01 X10.6363 Y-44.6460
G01 X10.6426 Y-44.6565
G01 X10.6478 Y-44.6634
G01 X10.6535 Y-44.6697
G01 X10.6626 Y-44.6780
G01 X10.6695 Y-44.6830
G01 X10.6768 Y-44.6875
G01 X10.6879 Y-44.6927
G01 X10.6960 Y-44.6956
G01 X10.7043 Y-44.6977
G01 X10.7152 Y-44.6994
G01 X10.7275 Y-44.7000
G01 X11.8975 Y-44.7000
G01 X11.9086 Y-44.6995
G01 X11.9183 Y-44.6982
G01 X11.9278 Y-44.6959
G01 X11.9371 Y-44.6927
G01 X11.9460 Y-44.6887
G01 X11.9545 Y-44.6837
G01 X11.9624 Y-44.6780
G01 X11.9697 Y-44.6715
G01 X11.9756 Y-44.6652
G01 X11.9824 Y-44.6565
G01 X11.9869 Y-44.6492
G01 X11.9932 Y-44.6359
G01 X11.9959 Y-44.6278
G01 X11.9982 Y-44.6183
G01 X11.9994 Y-44.6098
G01 X12.0000 Y-44.5975
G00 Z2.0000
G00 X10.1250 Y-43.6475
G01 F60.00
G01 Z-0.2000
G01 F300.00
G01 X10.1250 Y-43.3525
G01 X10.1244 Y-43.3402
G01 X10.1230 Y-43.3305
G01 X10.1206 Y-43.3210
G01 X10.1182 Y-43.3141
G01 X10.1131 Y-43.3029
G01 X10.1066 Y-43.2925
G01 X10.1022 Y-43.2866
G01 X10.0956 Y-43.2794
G01 X10.0864 Y-43.2713
G01 X10.0805 Y-43.2670
G01 X10.0721 Y-43.2619
G01 X10.0609 Y-43.2568
G01 X10.0540 Y-43.2544
G01 X10.0457 Y-43.2523
G01 X10.0348 Y-43.2506
G01 X10.0225 Y-43.2500
G01 X8.8525 Y-43.2500
G01 X8.8427 Y-43.2504
G01 X8.8293 Y-43.2523
G01 X8.8210 Y-43.2544
G01 X8.8118 Y-43.2577
G01 X8.8029 Y-43.2619
G01 X8.7966 Y-43.2656
G01 X8.7857 Y-43.2736
G01 X8.7794 Y-43.2794
G01 X8.7736 Y-43.2857
G01 X8.7656 Y-43.2966
G01 X8.7619 Y-43.3029
G01 X8.7577 Y-43.3118
G01 X8.7544 Y-43.3210
G01 X8.7523 Y-43.3293
G01 X8.7506 Y-43.3402
G01 X8.7500 Y-43.3525
G01 X8.7500 Y-43.6475
G01 X8.7506 Y-43.6598
G01 X8.7518 Y-43.6683
G01 X8.7548 Y-43.6802
G01 X8.7577 Y-43.6882
G01 X8.7613 Y-43.6960
G01 X8.7676 Y-43.7065
G01 X8.7728 Y-43.7134
G01 X8.7785 Y-43.7197
G01 X8.7876 Y-43.7280
G01 X8.7945 Y-43.7330
G01 X8.8018 Y-43.7375
G01 X8.8129 Y-43.7427
G01 X8.8210 Y-43.7456
G01 X8.8293 Y-43.7477
G01 X8.8402 Y-43.7494
G01 X8.8525 Y-43.7500
G01 X10.0225 Y-43.7500
G01 X10.0336 Y-43.7495
G01 X10.0433 Y-43.7482
G01 X10.0528 Y-43.7459
G01 X10.0621 Y-43.7427
G01 X10.0710 Y-43.7387
G01 X10.0795 Y-43.7337
G01 X10.0874 Y-43.7280
G01 X10.0947 Y-43.7215
G01 X10.1006 Y-43.7152
G01 X10.1074 Y-43.7065
G01 X10.1119 Y-43.6992
G01 X10.1182 Y-43.6859
G01 X10.1209 Y-43.6778
G01 X10.1232 Y-43.6683
G01 X10.1244 Y-43.6598
G01 X10.1250 Y-43.6475
G00 Z2.0000
G00 X3.3625 Y-39.6475
G01 F60.00
G01 Z-0.2000
G01 F300.00
G01 X3.3625 Y-38.3512
G01 X3.3614 Y-38.3304
G01 X3.3590 Y-38.3134
G01 X3.3530 Y-38.2896
G01 X3.3472 Y-38.2735
G01 X3.3388 Y-38.2558
G01 X3.3287 Y-38.2390
G01 X3.3178 Y-38.2242
G01 X3.3038 Y-38.2087
G01 X3.2893 Y-38.1955
G01 X3.2735 Y-38.1838
G01 X3.2545 Y-38.1726
G01 X3.2390 Y-38.1653
G01 X3.2229 Y-38.1595
G01 X3.2039 Y-38.1545
G01 X3.1821 Y-38.1511
G01 X3.1613 Y-38.1500
G01 X2.3375 Y-38.1501
G01 X2.3179 Y-38.1511
G01 X2.3009 Y-38.1535
G01 X2.2771 Y-38.1595
G01 X2.2610 Y-38.1653
G01 X2.2433 Y-38.1737
G01 X2.2265 Y-38.1838
G01 X2.2117 Y-38.1947
G01 X2.1962 Y-38.2087
G01 X2.1830 Y-38.2232
G01 X2.1713 Y-38.2390
G01 X2.1601 Y-38.2580
G01 X2.1520 Y-38.2758
G01 X2.1462 Y-38.2920
G01 X2.1420 Y-38.3086
G01 X2.1386 Y-38.3304
G01 X2.1375 Y-38.3512
G01 X2.1375 Y-39.6488
G01 X2.1386 Y-39.6696
G01 X2.1410 Y-39.6866
G01 X2.1470 Y-39.7104
G01 X2.1528 Y-39.7265
G01 X2.1612 Y-39.7442
G01 X2.1713 Y-39.7610
G01 X2.1822 Y-39.7758
G01 X2.1962 Y-39.7913
G01 X2.2107 Y-39.8045
G01 X2.2265 Y-39.8162
G01 X2.2433 Y-39.8263
G01 X2.2610 Y-39.8347
G01 X2.2795 Y-39.8413
G01 X2.2985 Y-39.8460
G01 X2.3191 Y-39.8490
G01 X2.3400 Y-39.8500
G01 X3.1600 Y-39.8500
G01 X3.1821 Y-39.8489
G01 X3.2015 Y-39.8460
G01 X3.2205 Y-39.8413
G01 X3.2390 Y-39.8347
G01 X3.2567 Y-39.8263
G01 X3.2735 Y-39.8162
G01 X3.2893 Y-39.8045
G01 X3.3038 Y-39.7913
G01 X3.3154 Y-39.7787
G01 X3.3280 Y-39.7621
G01 X3.3376 Y-39.7464
G01 X3.3480 Y-39.7242
G01 X3.3538 Y-39.7080
G01 X3.3585 Y-39.6890
G01 X3.3614 Y-39.6696
G01 X3.3625 Y-39.6475
G00 Z2.0000
G00 X18.6875 Y-44.1975
G01 F60.00
G01 Z-0.2000
G01 F300.00
G01 X18.6875 Y-43.9025
G01 X18.6869 Y-43.8902
G01 X18.6855 Y-43.8805
G01 X18.6823 Y-43.8687
G01 X18.6798 Y-43.8618
G01 X18.6756 Y-43.8529
G01 X18.6705 Y-43.8445
G01 X18.6662 Y-43.8386
G01 X18.6581 Y-43.8294
G01 X18.6509 Y-43.8228
G01 X18.6450 Y-43.8184
G01 X18.6346 Y-43.8119
G01 X18.6234 Y-43.8068
G01 X18.6165 Y-43.8044
G01 X18.6082 Y-43.8023
G01 X18.5973 Y-43.8006
G01 X18.5850 Y-43.8000
G01 X17.4150 Y-43.8000
G01 X17.4052 Y-43.8004
G01 X17.3918 Y-43.8023
G01 X17.3835 Y-43.8044
G01 X17.3743 Y-43.8077
G01 X17.3654 Y-43.8119
G01 X17.3591 Y-43.8156
G01 X17.3482 Y-43.8236
G01 X17.3419 Y-43.8294
G01 X17.3361 Y-43.8357
G01 X17.3281 Y-43.8466
G01 X17.3244 Y-43.8529
G01 X17.3202 Y-43.8618
G01 X17.3169 Y-43.8710
G01 X17.3148 Y-43.8793
G01 X17.3131 Y-43.8902
G01 X17.3125 Y-43.9025
G01 X17.3125 Y-44.1975
G01 X17.3131 Y-44.2098
G01 X17.3143 Y-44.2183
G01 X17.3173 Y-44.2302
G01 X17.3202 Y-44.2382
G01 X17.3238 Y-44.2460
G01 X17.3301 Y-44.2565
G01 X17.3353 Y-44.2634
G01 X17.3410 Y-44.2697
G01 X17.3501 Y-44.2780
G01 X17.3570 Y-44.2830
G01 X17.3643 Y-44.2875
G01 X17.3754 Y-44.2927
G01 X17.3835 Y-44.2956
G01 X17.3918 Y-44.2977
G01 X17.4027 Y-44.2994
G01 X17.4150 Y-44.3000
G01 X18.5850 Y-44.3000
G01 X18.5961 Y-44.2995
G01 X18.6058 Y-44.2982
G01 X18.6153 Y-44.2959
G01 X18.6246 Y-44.2927
G01 X18.6335 Y-44.2887
G01 X18.6420 Y-44.2837
G01 X18.6499 Y-44.2780
G01 X18.6572 Y-44.2715
G01 X18.6631 Y-44.2652
G01 X18.6699 Y-44.2565
G01 X18.6744 Y-44.2492
G01 X18.6807 Y-44.2359
G01 X18.6834 Y-44.2278
G01 X18.6857 Y-44.2183
G01 X18.6869 Y-44.2098
G01 X18.6875 Y-44.1975
G00 Z2.0000
G00 X20.5625 Y-43.2475
G01 F60.00
G01 Z-0.2000
G01 F300.00
G01 X20.5625 Y-42.9525
G01 X20.5619 Y-42.9402
G01 X20.5605 Y-42.9305
G01 X20.5573 Y-42.9187
G01 X20.5548 Y-42.9118
G01 X20.5506 Y-42.9029
G01 X20.5455 Y-42.8945
G01 X20.5412 Y-42.8886
G01 X20.5331 Y-42.8794
G01 X20.5259 Y-42.8728
G01 X20.5200 Y-42.8684
G01 X20.5096 Y-42.8619
G01 X20.4984 Y-42.8568
G01 X20.4915 Y-42.8544
G01 X20.4832 Y-42.8523
G01 X20.4723 Y-42.8506
G01 X20.4600 Y-42.8500
G01 X19.2900 Y-42.8500
G01 X19.2802 Y-42.8504
G01 X19.2668 Y-42.8523
G01 X19.2585 Y-42.8544
G01 X19.2493 Y-42.8577
G01 X19.2404 Y-42.8619
G01 X19.2341 Y-42.8656
G01 X19.2232 Y-42.8736
G01 X19.2169 Y-42.8794
G01 X19.2111 Y-42.8857
G01 X19.2031 Y-42.8966
G01 X19.1994 Y-42.9029
G01 X19.1952 Y-42.9118
G01 X19.1919 Y-42.9210
G01 X19.1898 Y-42.9293
G01 X19.1881 Y-42.9402
G01 X19.1875 Y-42.9525
G01 X19.1875 Y-43.2475
G01 X19.1881 Y-43.2598
G01 X19.1893 Y-43.2683
G01 X19.1923 Y-43.2802
G01 X19.1952 Y-43.2882
G01 X19.1988 Y-43.2960
G01 X19.2051 Y-43.3065
G01 X19.2103 Y-43.3134
G01 X19.2160 Y-43.3197
G01 X19.2251 Y-43.3280
G01 X19.2320 Y-43.3330
G01 X19.2393 Y-43.3375
G01 X19.2504 Y-43.3427
G01 X19.2585 Y-43.3456
G01 X19.2668 Y-43.3477
G01 X19.2777 Y-43.3494
G01 X19.2900 Y-43.3500
G01 X20.4600 Y-43.3500
G01 X20.4711 Y-43.3495
G01 X20.4808 Y-43.3482
G01 X20.4903 Y-43.3459
G01 X20.4996 Y-43.3427
G01 X20.5085 Y-43.3387
G01 X20.5170 Y-43.3337
G01 X20.5249 Y-43.3280
G01 X20.5322 Y-43.3215
G01 X20.5381 Y-43.3152
G01 X20.5449 Y-43.3065
G01 X20.5494 Y-43.2992
G01 X20.5557 Y-43.2859
G01 X20.5584 Y-43.2778
G01 X20.5607 Y-43.2683
G01 X20.5619 Y-43.2598
G01 X20.5625 Y-43.2475
G00 Z2.0000
G00 X20.5625 Y-45.1475
G01 F60.00
G01 Z-0.2000
G01 F300.00
G01 X20.5625 Y-44.8525
G01 X20.5619 Y-44.8402
G01 X20.5605 Y-44.8305
G01 X20.5573 Y-44.8187
G01 X20.5548 Y-44.8118
G01 X20.5506 Y-44.8029
G01 X20.5455 Y-44.7945
G01 X20.5412 Y-44.7886
G01 X20.5331 Y-44.7794
G01 X20.5259 Y-44.7728
G01 X20.5200 Y-44.7684
G01 X20.5096 Y-44.7619
G01 X20.4984 Y-44.7568
G01 X20.4915 Y-44.7544
G01 X20.4832 Y-44.7523
G01 X20.4723 Y-44.7506
G01 X20.4600 Y-44.7500
G01 X19.2900 Y-44.7500
G01 X19.2802 Y-44.7504
G01 X19.2668 Y-44.7523
G01 X19.2585 Y-44.7544
G01 X19.2493 Y-44.7577
G01 X19.2404 Y-44.7619
G01 X19.2341 Y-44.7656
G01 X19.2232 Y-44.7736
G01 X19.2169 Y-44.7794
G01 X19.2111 Y-44.7857
G01 X19.2031 Y-44.7966
G01 X19.1994 Y-44.8029
G01 X19.1952 Y-44.8118
G01 X19.1919 Y-44.8210
G01 X19.1898 Y-44.8293
G01 X19.1881 Y-44.8402
G01 X19.1875 Y-44.8525
G01 X19.1875 Y-45.1475
G01 X19.1881 Y-45.1598
G01 X19.1893 Y-45.1683
G01 X19.1923 Y-45.1802
G01 X19.1952 Y-45.1882
G01 X19.1988 Y-45.1960
G01 X19.2051 Y-45.2065
G01 X19.2103 Y-45.2134
G01 X19.2160 Y-45.2197
G01 X19.2251 Y-45.2280
G01 X19.2320 Y-45.2330
G01 X19.2393 Y-45.2375
G01 X19.2504 Y-45.2427
G01 X19.2585 Y-45.2456
G01 X19.2668 Y-45.2477
G01 X19.2777 Y-45.2494
G01 X19.2900 Y-45.2500
G01 X20.4600 Y-45.2500
G01 X20.4711 Y-45.2495
G01 X20.4808 Y-45.2482
G01 X20.4903 Y-45.2459
G01 X20.4996 Y-45.2427
G01 X20.5085 Y-45.2387
G01 X20.5170 Y-45.2337
G01 X20.5249 Y-45.2280
G01 X20.5322 Y-45.2215
G01 X20.5381 Y-45.2152
G01 X20.5449 Y-45.2065
G01 X20.5494 Y-45.1992
G01 X20.5557 Y-45.1859
G01 X20.5584 Y-45.1778
G01 X20.5607 Y-45.1683
G01 X20.5619 Y-45.1598
G01 X20.5625 Y-45.1475
G00 Z2.0000
G00 X20.4250 Y-48.4475
G01 F60.00
G01 Z-0.2000
G01 F300.00
G01 X20.4250 Y-47.5525
G01 X20.4241 Y-47.5329
G01 X20.4205 Y-47.5086
G01 X20.4159 Y-47.4908
G01 X20.4087 Y-47.4713
G01 X20.4013 Y-47.4558
G01 X20.3912 Y-47.4390
G01 X20.3795 Y-47.4232
G01 X20.3663 Y-47.4087
G01 X20.3518 Y-47.3955
G01 X20.3360 Y-47.3838
G01 X20.3192 Y-47.3737
G01 X20.3037 Y-47.3663
G01 X20.2807 Y-47.3581
G01 X20.2640 Y-47.3540
G01 X20.2434 Y-47.3510
G01 X20.2225 Y-47.3500
G01 X19.5275 Y-47.3500
G01 X19.5054 Y-47.3511
G01 X19.4860 Y-47.3540
G01 X19.4670 Y-47.3587
G01 X19.4485 Y-47.3653
G01 X19.4308 Y-47.3737
G01 X19.4140 Y-47.3838
G01 X19.3982 Y-47.3955
G01 X19.3837 Y-47.4087
G01 X19.3705 Y-47.4232
G01 X19.3588 Y-47.4390
G01 X19.3487 Y-47.4558
G01 X19.3413 Y-47.4713
G01 X19.3341 Y-47.4908
G01 X19.3295 Y-47.5086
G01 X19.3259 Y-47.5329
G01 X19.3250 Y-47.5525
G01 X19.3250 Y-48.4475
G01 X19.3261 Y-48.4696
G01 X19.3290 Y-48.4890
G01 X19.3337 Y-48.5080
G01 X19.3403 Y-48.5265
G01 X19.3487 Y-48.5442
G01 X19.3588 Y-48.5610
G01 X19.3705 Y-48.5768
G01 X19.3837 Y-48.5913
G01 X19.3982 Y-48.6045
G01 X19.4140 Y-48.6162
G01 X19.4308 Y-48.6263
G01 X19.4463 Y-48.6337
G01 X19.4693 Y-48.6419
G01 X19.4860 Y-48.6460
G01 X19.5066 Y-48.6490
G01 X19.5275 Y-48.6500
G01 X20.2225 Y-48.6500
G01 X20.2470 Y-48.6486
G01 X20.2640 Y-48.6460
G01 X20.2830 Y-48.6413
G01 X20.3015 Y-48.6347
G01 X20.3192 Y-48.6263
G01 X20.3360 Y-48.6162
G01 X20.3518 Y-48.6045
G01 X20.3663 Y-48.5913
G01 X20.3779 Y-48.5787
G01 X20.3905 Y-48.5621
G01 X20.4001 Y-48.5464
G01 X20.4105 Y-48.5242
G01 X20.4163 Y-48.5080
G01 X20.4210 Y-48.4890
G01 X20.4239 Y-48.4696
G01 X20.4250 Y-48.4475
G00 Z2.0000
G00 X18.4250 Y-48.4475
G01 F60.00
G01 Z-0.2000
G01 F300.00
G01 X18.4250 Y-47.5525
G01 X18.4241 Y-47.5329
G01 X18.4205 Y-47.5086
G01 X18.4159 Y-47.4908
G01 X18.4087 Y-47.4713
G01 X18.4013 Y-47.4558
G01 X18.3912 Y-47.4390
G01 X18.3795 Y-47.4232
G01 X18.3663 Y-47.4087
G01 X18.3518 Y-47.3955
G01 X18.3360 Y-47.3838
G01 X18.3192 Y-47.3737
G01 X18.3037 Y-47.3663
G01 X18.2807 Y-47.3581
G01 X18.2640 Y-47.3540
G01 X18.2434 Y-47.3510
G01 X18.2225 Y-47.3500
G01 X17.5275 Y-47.3500
G01 X17.5054 Y-47.3511
G01 X17.4860 Y-47.3540
G01 X17.4670 Y-47.3587
G01 X17.4485 Y-47.3653
G01 X17.4308 Y-47.3737
G01 X17.4140 Y-47.3838
G01 X17.3982 Y-47.3955
G01 X17.3837 Y-47.4087
G01 X17.3705 Y-47.4232
G01 X17.3588 Y-47.4390
G01 X17.3487 Y-47.4558
G01 X17.3413 Y-47.4713
G01 X17.3341 Y-47.4908
G01 X17.3295 Y-47.5086
G01 X17.3259 Y-47.5329
G01 X17.3250 Y-47.5525
G01 X17.3250 Y-48.4475
G01 X17.3261 Y-48.4696
G01 X17.3290 Y-48.4890
G01 X17.3337 Y-48.5080
G01 X17.3403 Y-48.5265
G01 X17.3487 Y-48.5442
G01 X17.3588 Y-48.5610
G01 X17.3705 Y-48.5768
G01 X17.3837 Y-48.5913
G01 X17.3982 Y-48.6045
G01 X17.4140 Y-48.6162
G01 X17.4308 Y-48.6263
G01 X17.4463 Y-48.6337
G01 X17.4693 Y-48.6419
G01 X17.4860 Y-48.6460
G01 X17.5066 Y-48.6490
G01 X17.5275 Y-48.6500
G01 X18.2225 Y-48.6500
G01 X18.2470 Y-48.6486
G01 X18.2640 Y-48.6460
G01 X18.2830 Y-48.6413
G01 X18.3015 Y-48.6347
G01 X18.3192 Y-48.6263
G01 X18.3360 Y-48.6162
G01 X18.3518 Y-48.6045
G01 X18.3663 Y-48.5913
G01 X18.3779 Y-48.5787
G01 X18.3905 Y-48.5621
G01 X18.4001 Y-48.5464
G01 X18.4105 Y-48.5242
G01 X18.4163 Y-48.5080
G01 X18.4210 Y-48.4890
G01 X18.4239 Y-48.4696
G01 X18.4250 Y-48.4475
G00 Z2.0000
G00 X26.3000 Y-49.4475
G01 F60.00
G01 Z-0.2000
G01 F300.00
G01 X26.3000 Y-48.5525
G01 X26.2991 Y-48.5329
G01 X26.2955 Y-48.5086
G01 X26.2909 Y-48.4908
G01 X26.2837 Y-48.4713
G01 X26.2763 Y-48.4558
G01 X26.2662 Y-48.4390
G01 X26.2545 Y-48.4232
G01 X26.2413 Y-48.4087
G01 X26.2268 Y-48.3955
G01 X26.2110 Y-48.3838
G01 X26.1942 Y-48.3737
G01 X26.1787 Y-48.3663
G01 X26.1557 Y-48.3581
G01 X26.1390 Y-48.3540
G01 X26.1184 Y-48.3510
G01 X26.0975 Y-48.3500
G01 X25.4025 Y-48.3500
G01 X25.3804 Y-48.3511
G01 X25.3610 Y-48.3540
G01 X25.3420 Y-48.3587
G01 X25.3235 Y-48.3653
G01 X25.3058 Y-48.3737
G01 X25.2890 Y-48.3838
G01 X25.2732 Y-48.3955
G01 X25.2587 Y-48.4087
G01 X25.2455 Y-48.4232
G01 X25.2338 Y-48.4390
G01 X25.2237 Y-48.4558
G01 X25.2163 Y-48.4713
G01 X25.2091 Y-48.4908
G01 X25.2045 Y-48.5086
G01 X25.2009 Y-48.5329
G01 X25.2000 Y-48.5525
G01 X25.2000 Y-49.4475
G01 X25.2011 Y-49.4696
G01 X25.2040 Y-49.4890
G01 X25.2087 Y-49.5080
G01 X25.2153 Y-49.5265
G01 X25.2237 Y-49.5442
G01 X25.2338 Y-49.5610
G01 X25.2455 Y-49.5768
G01 X25.2587 Y-49.5913
G01 X25.2732 Y-49.6045
G01 X25.2890 Y-49.6162
G01 X25.3058 Y-49.6263
G01 X25.3213 Y-49.6337
G01 X25.3443 Y-49.6419
G01 X25.3610 Y-49.6460
G01 X25.3816 Y-49.6490
G01 X25.4025 Y-49.6500
G01 X26.0975 Y-49.6500
G01 X26.1220 Y-49.6486
G01 X26.1390 Y-49.6460
G01 X26.1580 Y-49.6413
G01 X26.1765 Y-49.6347
G01 X26.1942 Y-49.6263
G01 X26.2110 Y-49.6162
G01 X26.2268 Y-49.6045
G01 X26.2413 Y-49.5913
G01 X26.2529 Y-49.5787
G01 X26.2655 Y-49.5621
G01 X26.2751 Y-49.5464
G01 X26.2855 Y-49.5242
G01 X26.2913 Y-49.5080
G01 X26.2960 Y-49.4890
G01 X26.2989 Y-49.4696
G01 X26.3000 Y-49.4475
G00 Z2.0000
G00 X28.3000 Y-49.4475
G01 F60.00
G01 Z-0.2000
G01 F300.00
G01 X28.3000 Y-48.5525
G01 X28.2991 Y-48.5329
G01 X28.2955 Y-48.5086
G01 X28.2909 Y-48.4908
G01 X28.2837 Y-48.4713
G01 X28.2763 Y-48.4558
G01 X28.2662 Y-48.4390
G01 X28.2545 Y-48.4232
G01 X28.2413 Y-48.4087
G01 X28.2268 Y-48.3955
G01 X28.2110 Y-48.3838
G01 X28.1942 Y-48.3737
G01 X28.1787 Y-48.3663
G01 X28.1557 Y-48.3581
G01 X28.1390 Y-48.3540
G01 X28.1184 Y-48.3510
G01 X28.0975 Y-48.3500
G01 X27.4025 Y-48.3500
G01 X27.3804 Y-48.3511
G01 X27.3610 Y-48.3540
G01 X27.3420 Y-48.3587
G01 X27.3235 Y-48.3653
G01 X27.3058 Y-48.3737
G01 X27.2890 Y-48.3838
G01 X27.2732 Y-48.3955
G01 X27.2587 Y-48.4087
G01 X27.2455 Y-48.4232
G01 X27.2338 Y-48.4390
G01 X27.2237 Y-48.4558
G01 X27.2163 Y-48.4713
G01 X27.2091 Y-48.4908
G01 X27.2045 Y-48.5086
G01 X27.2009 Y-48.5329
G01 X27.2000 Y-48.5525
G01 X27.2000 Y-49.4475
G01 X27.2011 Y-49.4696
G01 X27.2040 Y-49.4890
G01 X27.2087 Y-49.5080
G01 X27.2153 Y-49.5265
G01 X27.2237 Y-49.5442
G01 X27.2338 Y-49.5610
G01 X27.2455 Y-49.5768
G01 X27.2587 Y-49.5913
G01 X27.2732 Y-49.6045
G01 X27.2890 Y-49.6162
G01 X27.3058 Y-49.6263
G01 X27.3213 Y-49.6337
G01 X27.3443 Y-49.6419
G01 X27.3610 Y-49.6460
G01 X27.3816 Y-49.6490
G01 X27.4025 Y-49.6500
G01 X28.0975 Y-49.6500
G01 X28.1220 Y-49.6486
G01 X28.1390 Y-49.6460
G01 X28.1580 Y-49.6413
G01 X28.1765 Y-49.6347
G01 X28.1942 Y-49.6263
G01 X28.2110 Y-49.6162
G01 X28.2268 Y-49.6045
G01 X28.2413 Y-49.5913
G01 X28.2529 Y-49.5787
G01 X28.2655 Y-49.5621
G01 X28.2751 Y-49.5464
G01 X28.2855 Y-49.5242
G01 X28.2913 Y-49.5080
G01 X28.2960 Y-49.4890
G01 X28.2989 Y-49.4696
G01 X28.3000 Y-49.4475
G00 Z2.0000
G00 X29.7025 Y-49.6875
G01 F60.00
G01 Z-0.2000
G01 F300.00
G01 X29.9975 Y-49.6875
G01 X30.0098 Y-49.6869
G01 X30.0195 Y-49.6855
G01 X30.0313 Y-49.6823
G01 X30.0382 Y-49.6798
G01 X30.0471 Y-49.6756
G01 X30.0575 Y-49.6691
G01 X30.0634 Y-49.6647
G01 X30.0706 Y-49.6581
G01 X30.0787 Y-49.6489
G01 X30.0830 Y-49.6430
G01 X30.0881 Y-49.6346
G01 X30.0932 Y-49.6234
G01 X30.0956 Y-49.6165
G01 X30.0977 Y-49.6082
G01 X30.0994 Y-49.5973
G01 X30.1000 Y-49.5850
G01 X30.1000 Y-48.4150
G01 X30.0996 Y-48.4052
G01 X30.0977 Y-48.3918
G01 X30.0956 Y-48.3835
G01 X30.0923 Y-48.3743
G01 X30.0881 Y-48.3654
G01 X30.0844 Y-48.3591
G01 X30.0764 Y-48.3482
G01 X30.0706 Y-48.3419
G01 X30.0634 Y-48.3353
G01 X30.0555 Y-48.3295
G01 X30.0492 Y-48.3256
G01 X30.0371 Y-48.3198
G01 X30.0290 Y-48.3169
G01 X30.0207 Y-48.3148
G01 X30.0098 Y-48.3131
G01 X29.9975 Y-48.3125
G01 X29.7025 Y-48.3125
G01 X29.6902 Y-48.3131
G01 X29.6817 Y-48.3143
G01 X29.6698 Y-48.3173
G01 X29.6618 Y-48.3202
G01 X29.6540 Y-48.3238
G01 X29.6435 Y-48.3301
G01 X29.6366 Y-48.3353
G01 X29.6303 Y-48.3410
G01 X29.6220 Y-48.3501
G01 X29.6170 Y-48.3570
G01 X29.6125 Y-48.3643
G01 X29.6073 Y-48.3754
G01 X29.6044 Y-48.3835
G01 X29.6023 Y-48.3918
G01 X29.6006 Y-48.4027
G01 X29.6000 Y-48.4150
G01 X29.6000 Y-49.5850
G01 X29.6005 Y-49.5961
G01 X29.6018 Y-49.6058
G01 X29.6041 Y-49.6153
G01 X29.6073 Y-49.6246
G01 X29.6113 Y-49.6335
G01 X29.6163 Y-49.6420
G01 X29.6220 Y-49.6499
G01 X29.6285 Y-49.6572
G01 X29.6348 Y-49.6631
G01 X29.6466 Y-49.6719
G01 X29.6540 Y-49.6762
G01 X29.6641 Y-49.6807
G01 X29.6722 Y-49.6834
G01 X29.6817 Y-49.6857
G01 X29.6902 Y-49.6869
G01 X29.7025 Y-49.6875
G00 Z2.0000
G00 X31.6025 Y-49.6875
G01 F60.00
G01 Z-0.2000
G01 F300.00
G01 X31.8975 Y-49.6875
G01 X31.9098 Y-49.6869
G01 X31.9195 Y-49.6855
G01 X31.9313 Y-49.6823
G01 X31.9382 Y-49.6798
G01 X31.9471 Y-49.6756
G01 X31.9575 Y-49.6691
G01 X31.9634 Y-49.6647
G01 X31.9706 Y-49.6581
G01 X31.9787 Y-49.6489
G01 X31.9830 Y-49.6430
G01 X31.9881 Y-49.6346
G01 X31.9932 Y-49.6234
G01 X31.9956 Y-49.6165
G01 X31.9977 Y-49.6082
G01 X31.9994 Y-49.5973
G01 X32.0000 Y-49.5850
G01 X32.0000 Y-48.4150
G01 X31.9996 Y-48.4052
G01 X31.9977 Y-48.3918
G01 X31.9956 Y-48.3835
G01 X31.9923 Y-48.3743
G01 X31.9881 Y-48.3654
G01 X31.9844 Y-48.3591
G01 X31.9764 Y-48.3482
G01 X31.9706 Y-48.3419
G01 X31.9634 Y-48.3353
G01 X31.9555 Y-48.3295
G01 X31.9492 Y-48.3256
G01 X31.9371 Y-48.3198
G01 X31.9290 Y-48.3169
G01 X31.9207 Y-48.3148
G01 X31.9098 Y-48.3131
G01 X31.8975 Y-48.3125
G01 X31.6025 Y-48.3125
G01 X31.5902 Y-48.3131
G01 X31.5817 Y-48.3143
G01 X31.5698 Y-48.3173
G01 X31.5618 Y-48.3202
G01 X31.5540 Y-48.3238
G01 X31.5435 Y-48.3301
G01 X31.5366 Y-48.3353
G01 X31.5303 Y-48.3410
G01 X31.5220 Y-48.3501
G01 X31.5170 Y-48.3570
G01 X31.5125 Y-48.3643
G01 X31.5073 Y-48.3754
G01 X31.5044 Y-48.3835
G01 X31.5023 Y-48.3918
G01 X31.5006 Y-48.4027
G01 X31.5000 Y-48.4150
G01 X31.5000 Y-49.5850
G01 X31.5005 Y-49.5961
G01 X31.5018 Y-49.6058
G01 X31.5041 Y-49.6153
G01 X31.5073 Y-49.6246
G01 X31.5113 Y-49.6335
G01 X31.5163 Y-49.6420
G01 X31.5220 Y-49.6499
G01 X31.5285 Y-49.6572
G01 X31.5348 Y-49.6631
G01 X31.5466 Y-49.6719
G01 X31.5540 Y-49.6762
G01 X31.5641 Y-49.6807
G01 X31.5722 Y-49.6834
G01 X31.5817 Y-49.6857
G01 X31.5902 Y-49.6869
G01 X31.6025 Y-49.6875
G00 Z2.0000
G00 X30.6525 Y-47.8125
G01 F60.00
G01 Z-0.2000
G01 F300.00
G01 X30.9475 Y-47.8125
G01 X30.9598 Y-47.8119
G01 X30.9695 Y-47.8105
G01 X30.9813 Y-47.8073
G01 X30.9882 Y-47.8048
G01 X30.9971 Y-47.8006
G01 X31.0075 Y-47.7941
G01 X31.0134 Y-47.7897
G01 X31.0206 Y-47.7831
G01 X31.0287 Y-47.7739
G01 X31.0330 Y-47.7680
G01 X31.0381 Y-47.7596
G01 X31.0432 Y-47.7484
G01 X31.0456 Y-47.7415
G01 X31.0477 Y-47.7332
G01 X31.0494 Y-47.7223
G01 X31.0500 Y-47.7100
G01 X31.0500 Y-46.5400
G01 X31.0496 Y-46.5302
G01 X31.0477 Y-46.5168
G01 X31.0456 Y-46.5085
G01 X31.0423 Y-46.4993
G01 X31.0381 Y-46.4904
G01 X31.0344 Y-46.4841
G01 X31.0264 Y-46.4732
G01 X31.0206 Y-46.4669
G01 X31.0134 Y-46.4603
G01 X31.0055 Y-46.4545
G01 X30.9992 Y-46.4506
G01 X30.9871 Y-46.4448
G01 X30.9790 Y-46.4419
G01 X30.9707 Y-46.4398
G01 X30.9598 Y-46.4381
G01 X30.9475 Y-46.4375
G01 X30.6525 Y-46.4375
G01 X30.6402 Y-46.4381
G01 X30.6317 Y-46.4393
G01 X30.6198 Y-46.4423
G01 X30.6118 Y-46.4452
G01 X30.6040 Y-46.4488
G01 X30.5935 Y-46.4551
G01 X30.5866 Y-46.4603
G01 X30.5803 Y-46.4660
G01 X30.5720 Y-46.4751
G01 X30.5670 Y-46.4820
G01 X30.5625 Y-46.4893
G01 X30.5573 Y-46.5004
G01 X30.5544 Y-46.5085
G01 X30.5523 Y-46.5168
G01 X30.5506 Y-46.5277
G01 X30.5500 Y-46.5400
G01 X30.5500 Y-47.7100
G01 X30.5505 Y-47.7211
G01 X30.5518 Y-47.7308
G01 X30.5541 Y-47.7403
G01 X30.5573 Y-47.7496
G01 X30.5613 Y-47.7585
G01 X30.5663 Y-47.7670
G01 X30.5720 Y-47.7749
G01 X30.5785 Y-47.7822
G01 X30.5848 Y-47.7881
G01 X30.5966 Y-47.7969
G01 X30.6040 Y-47.8012
G01 X30.6141 Y-47.8057
G01 X30.6222 Y-47.8084
G01 X30.6317 Y-47.8107
G01 X30.6402 Y-47.8119
G01 X30.6525 Y-47.8125
G00 Z2.0000
G00 X36.6525 Y-48.4375
G01 F60.00
G01 Z-0.2000
G01 F300.00
G01 X37.9488 Y-48.4375
G01 X37.9696 Y-48.4364
G01 X37.9866 Y-48.4340
G01 X38.0104 Y-48.4280
G01 X38.0265 Y-48.4222
G01 X38.0442 Y-48.4138
G01 X38.0610 Y-48.4037
G01 X38.0758 Y-48.3928
G01 X38.0913 Y-48.3788
G01 X38.1045 Y-48.3643
G01 X38.1162 Y-48.3485
G01 X38.1274 Y-48.3295
G01 X38.1347 Y-48.3140
G01 X38.1405 Y-48.2979
G01 X38.1455 Y-48.2789
G01 X38.1489 Y-48.2571
G01 X38.1500 Y-48.2363
G01 X38.1499 Y-47.4125
G01 X38.1489 Y-47.3929
G01 X38.1465 Y-47.3759
G01 X38.1405 Y-47.3521
G01 X38.1347 Y-47.3360
G01 X38.1263 Y-47.3183
G01 X38.1162 Y-47.3015
G01 X38.1053 Y-47.2867
G01 X38.0913 Y-47.2712
G01 X38.0768 Y-47.2580
G01 X38.0610 Y-47.2463
G01 X38.0420 Y-47.2351
G01 X38.0242 Y-47.2270
G01 X38.0080 Y-47.2212
G01 X37.9914 Y-47.2170
G01 X37.9696 Y-47.2136
G01 X37.9488 Y-47.2125
G01 X36.6512 Y-47.2125
G01 X36.6304 Y-47.2136
G01 X36.6134 Y-47.2160
G01 X36.5896 Y-47.2220
G01 X36.5735 Y-47.2278
G01 X36.5558 Y-47.2362
G01 X36.5390 Y-47.2463
G01 X36.5242 Y-47.2572
G01 X36.5087 Y-47.2712
G01 X36.4955 Y-47.2857
G01 X36.4838 Y-47.3015
G01 X36.4737 Y-47.3183
G01 X36.4653 Y-47.3360
G01 X36.4587 Y-47.3545
G01 X36.4540 Y-47.3735
G01 X36.4510 Y-47.3941
G01 X36.4500 Y-47.4150
G01 X36.4500 Y-48.2350
G01 X36.4511 Y-48.2571
G01 X36.4540 Y-48.2765
G01 X36.4587 Y-48.2955
G01 X36.4653 Y-48.3140
G01 X36.4737 Y-48.3317
G01 X36.4838 Y-48.3485
G01 X36.4955 Y-48.3643
G01 X36.5087 Y-48.3788
G01 X36.5213 Y-48.3904
G01 X36.5379 Y-48.4030
G01 X36.5536 Y-48.4126
G01 X36.5758 Y-48.4230
G01 X36.5920 Y-48.4288
G01 X36.6110 Y-48.4335
G01 X36.6304 Y-48.4364
G01 X36.6525 Y-48.4375
G00 Z2.0000
G00 X36.6525 Y-45.3125
G01 F60.00
G01 Z-0.2000
G01 F300.00
G01 X37.9488 Y-45.3125
G01 X37.9696 Y-45.3114
G01 X37.9866 Y-45.3090
G01 X38.0104 Y-45.3030
G01 X38.0265 Y-45.2972
G01 X38.0442 Y-45.2888
G01 X38.0610 Y-45.2787
G01 X38.0758 Y-45.2678
G01 X38.0913 Y-45.2538
G01 X38.1045 Y-45.2393
G01 X38.1162 Y-45.2235
G01 X38.1274 Y-45.2045
G01 X38.1347 Y-45.1890
G01 X38.1405 Y-45.1729
G01 X38.1455 Y-45.1539
G01 X38.1489 Y-45.1321
G01 X38.1500 Y-45.1113
G01 X38.1499 Y-44.2875
G01 X38.1489 Y-44.2679
G01 X38.1465 Y-44.2509
G01 X38.1405 Y-44.2271
G01 X38.1347 Y-44.2110
G01 X38.1263 Y-44.1933
G01 X38.1162 Y-44.1765
G01 X38.1053 Y-44.1617
G01 X38.0913 Y-44.1462
G01 X38.0768 Y-44.1330
G01 X38.0610 Y-44.1213
G01 X38.0420 Y-44.1101
G01 X38.0242 Y-44.1020
G01 X38.0080 Y-44.0962
G01 X37.9914 Y-44.0920
G01 X37.9696 Y-44.0886
G01 X37.9488 Y-44.0875
G01 X36.6512 Y-44.0875
G01 X36.6304 Y-44.0886
G01 X36.6134 Y-44.0910
G01 X36.5896 Y-44.0970
G01 X36.5735 Y-44.1028
G01 X36.5558 Y-44.1112
G01 X36.5390 Y-44.1213
G01 X36.5242 Y-44.1322
G01 X36.5087 Y-44.1462
G01 X36.4955 Y-44.1607
G01 X36.4838 Y-44.1765
G01 X36.4737 Y-44.1933
G01 X36.4653 Y-44.2110
G01 X36.4587 Y-44.2295
G01 X36.4540 Y-44.2485
G01 X36.4510 Y-44.2691
G01 X36.4500 Y-44.2900
G01 X36.4500 Y-45.1100
G01 X36.4511 Y-45.1321
G01 X36.4540 Y-45.1515
G01 X36.4587 Y-45.1705
G01 X36.4653 Y-45.1890
G01 X36.4737 Y-45.2067
G01 X36.4838 Y-45.2235
G01 X36.4955 Y-45.2393
G01 X36.5087 Y-45.2538
G01 X36.5213 Y-45.2654
G01 X36.5379 Y-45.2780
G01 X36.5536 Y-45.2876
G01 X36.5758 Y-45.2980
G01 X36.5920 Y-45.3038
G01 X36.6110 Y-45.3085
G01 X36.6304 Y-45.3114
G01 X36.6525 Y-45.3125
G00 Z2.0000
G00 X38.3025 Y-41.3000
G01 F60.00
G01 Z-0.2000
G01 F300.00
G01 X39.1975 Y-41.3000
G01 X39.2171 Y-41.2991
G01 X39.2414 Y-41.2955
G01 X39.2592 Y-41.2909
G01 X39.2787 Y-41.2837
G01 X39.2942 Y-41.2763
G01 X39.3110 Y-41.2662
G01 X39.3268 Y-41.2545
G01 X39.3413 Y-41.2413
G01 X39.3545 Y-41.2268
G01 X39.3662 Y-41.2110
G01 X39.3763 Y-41.1942
G01 X39.3837 Y-41.1787
G01 X39.3919 Y-41.1557
G01 X39.3960 Y-41.1390
G01 X39.3990 Y-41.1184
G01 X39.4000 Y-41.0975
G01 X39.4000 Y-40.4025
G01 X39.3989 Y-40.3804
G01 X39.3960 Y-40.3610
G01 X39.3913 Y-40.3420
G01 X39.3847 Y-40.3235
G01 X39.3763 Y-40.3058
G01 X39.3662 Y-40.2890
G01 X39.3545 Y-40.2732
G01 X39.3413 Y-40.2587
G01 X39.3268 Y-40.2455
G01 X39.3110 Y-40.2338
G01 X39.2942 Y-40.2237
G01 X39.2787 Y-40.2163
G01 X39.2592 Y-40.2091
G01 X39.2414 Y-40.2045
G01 X39.2171 Y-40.2009
G01 X39.1975 Y-40.2000
G01 X38.3025 Y-40.2000
G01 X38.2804 Y-40.2011
G01 X38.2610 Y-40.2040
G01 X38.2420 Y-40.2087
G01 X38.2235 Y-40.2153
G01 X38.2058 Y-40.2237
G01 X38.1890 Y-40.2338
G01 X38.1732 Y-40.2455
G01 X38.1587 Y-40.2587
G01 X38.1455 Y-40.2732
G01 X38.1338 Y-40.2890
G01 X38.1237 Y-40.3058
G01 X38.1163 Y-40.3213
G01 X38.1081 Y-40.3443
G01 X38.1040 Y-40.3610
G01 X38.1010 Y-40.3816
G01 X38.1000 Y-40.4025
G01 X38.1000 Y-41.0975
G01 X38.1014 Y-41.1220
G01 X38.1040 Y-41.1390
G01 X38.1087 Y-41.1580
G01 X38.1153 Y-41.1765
G01 X38.1237 Y-41.1942
G01 X38.1338 Y-41.2110
G01 X38.1455 Y-41.2268
G01 X38.1587 Y-41.2413
G01 X38.1713 Y-41.2529
G01 X38.1910 Y-41.2675
G01 X38.2069 Y-41.2768
G01 X38.2258 Y-41.2855
G01 X38.2420 Y-41.2913
G01 X38.2610 Y-41.2960
G01 X38.2804 Y-41.2989
G01 X38.3025 Y-41.3000
G00 Z2.0000
G00 X38.3025 Y-39.3000
G01 F60.00
G01 Z-0.2000
G01 F300.00
G01 X39.1975 Y-39.3000
G01 X39.2171 Y-39.2991
G01 X39.2414 Y-39.2955
G01 X39.2592 Y-39.2909
G01 X39.2787 Y-39.2837
G01 X39.2942 Y-39.2763
G01 X39.3110 Y-39.2662
G01 X39.3268 Y-39.2545
G01 X39.3413 Y-39.2413
G01 X39.3545 Y-39.2268
G01 X39.3662 Y-39.2110
G01 X39.3763 Y-39.1942
G01 X39.3837 Y-39.1787
G01 X39.3919 Y-39.1557
G01 X39.3960 Y-39.1390
G01 X39.3990 Y-39.1184
G01 X39.4000 Y-39.0975
G01 X39.4000 Y-38.4025
G01 X39.3989 Y-38.3804
G01 X39.3960 Y-38.3610
G01 X39.3913 Y-38.3420
G01 X39.3847 Y-38.3235
G01 X39.3763 Y-38.3058
G01 X39.3662 Y-38.2890
G01 X39.3545 Y-38.2732
G01 X39.3413 Y-38.2587
G01 X39.3268 Y-38.2455
G01 X39.3110 Y-38.2338
G01 X39.2942 Y-38.2237
G01 X39.2787 Y-38.2163
G01 X39.2592 Y-38.2091
G01 X39.2414 Y-38.2045
G01 X39.2171 Y-38.2009
G01 X39.1975 Y-38.2000
G01 X38.3025 Y-38.2000
G01 X38.2804 Y-38.2011
G01 X38.2610 Y-38.2040
G01 X38.2420 Y-38.2087
G01 X38.2235 Y-38.2153
G01 X38.2058 Y-38.2237
G01 X38.1890 Y-38.2338
G01 X38.1732 Y-38.2455
G01 X38.1587 Y-38.2587
G01 X38.1455 Y-38.2732
G01 X38.1338 Y-38.2890
G01 X38.1237 Y-38.3058
G01 X38.1163 Y-38.3213
G01 X38.1081 Y-38.3443
G01 X38.1040 Y-38.3610
G01 X38.1010 Y-38.3816
G01 X38.1000 Y-38.4025
G01 X38.1000 Y-39.0975
G01 X38.1014 Y-39.1220
G01 X38.1040 Y-39.1390
G01 X38.1087 Y-39.1580
G01 X38.1153 Y-39.1765
G01 X38.1237 Y-39.1942
G01 X38.1338 Y-39.2110
G01 X38.1455 Y-39.2268
G01 X38.1587 Y-39.2413
G01 X38.1713 Y-39.2529
G01 X38.1910 Y-39.2675
G01 X38.2069 Y-39.2768
G01 X38.2258 Y-39.2855
G01 X38.2420 Y-39.2913
G01 X38.2610 Y-39.2960
G01 X38.2804 Y-39.2989
G01 X38.3025 Y-39.3000
G00 Z2.0000
G00 X39.1025 Y-35.9375
G01 F60.00
G01 Z-0.2000
G01 F300.00
G01 X39.3975 Y-35.9375
G01 X39.4098 Y-35.9369
G01 X39.4195 Y-35.9355
G01 X39.4290 Y-35.9331
G01 X39.4359 Y-35.9307
G01 X39.4471 Y-35.9256
G01 X39.4555 Y-35.9205
G01 X39.4614 Y-35.9162
G01 X39.4706 Y-35.9081
G01 X39.4787 Y-35.8989
G01 X39.4830 Y-35.8930
G01 X39.4881 Y-35.8846
G01 X39.4932 Y-35.8734
G01 X39.4956 Y-35.8665
G01 X39.4977 Y-35.8582
G01 X39.4994 Y-35.8473
G01 X39.5000 Y-35.8350
G01 X39.5000 Y-34.6650
G01 X39.4996 Y-34.6552
G01 X39.4977 Y-34.6418
G01 X39.4956 Y-34.6335
G01 X39.4923 Y-34.6243
G01 X39.4881 Y-34.6154
G01 X39.4844 Y-34.6091
G01 X39.4764 Y-34.5982
G01 X39.4706 Y-34.5919
G01 X39.4643 Y-34.5861
G01 X39.4534 Y-34.5781
G01 X39.4471 Y-34.5744
G01 X39.4382 Y-34.5702
G01 X39.4290 Y-34.5669
G01 X39.4207 Y-34.5648
G01 X39.4098 Y-34.5631
G01 X39.3975 Y-34.5625
G01 X39.1025 Y-34.5625
G01 X39.0902 Y-34.5631
G01 X39.0817 Y-34.5643
G01 X39.0698 Y-34.5673
G01 X39.0618 Y-34.5702
G01 X39.0540 Y-34.5738
G01 X39.0435 Y-34.5801
G01 X39.0366 Y-34.5853
G01 X39.0303 Y-34.5910
G01 X39.0220 Y-34.6001
G01 X39.0170 Y-34.6070
G01 X39.0125 Y-34.6143
G01 X39.0073 Y-34.6254
G01 X39.0044 Y-34.6335
G01 X39.0023 Y-34.6418
G01 X39.0006 Y-34.6527
G01 X39.0000 Y-34.6650
G01 X39.0000 Y-35.8350
G01 X39.0005 Y-35.8461
G01 X39.0018 Y-35.8558
G01 X39.0041 Y-35.8653
G01 X39.0073 Y-35.8746
G01 X39.0113 Y-35.8835
G01 X39.0163 Y-35.8920
G01 X39.0220 Y-35.8999
G01 X39.0285 Y-35.9072
G01 X39.0348 Y-35.9131
G01 X39.0466 Y-35.9219
G01 X39.0540 Y-35.9262
G01 X39.0641 Y-35.9307
G01 X39.0722 Y-35.9334
G01 X39.0817 Y-35.9357
G01 X39.0902 Y-35.9369
G01 X39.1025 Y-35.9375
G00 Z2.0000
G00 X37.2025 Y-35.9375
G01 F60.00
G01 Z-0.2000
G01 F300.00
G01 X37.4975 Y-35.9375
G01 X37.5098 Y-35.9369
G01 X37.5195 Y-35.9355
G01 X37.5290 Y-35.9331
G01 X37.5359 Y-35.9307
G01 X37.5471 Y-35.9256
G01 X37.5555 Y-35.9205
G01 X37.5614 Y-35.9162
G01 X37.5706 Y-35.9081
G01 X37.5787 Y-35.8989
G01 X37.5830 Y-35.8930
G01 X37.5881 Y-35.8846
G01 X37.5932 Y-35.8734
G01 X37.5956 Y-35.8665
G01 X37.5977 Y-35.8582
G01 X37.5994 Y-35.8473
G01 X37.6000 Y-35.8350
G01 X37.6000 Y-34.6650
G01 X37.5996 Y-34.6552
G01 X37.5977 Y-34.6418
G01 X37.5956 Y-34.6335
G01 X37.5923 Y-34.6243
G01 X37.5881 Y-34.6154
G01 X37.5844 Y-34.6091
G01 X37.5764 Y-34.5982
G01 X37.5706 Y-34.5919
G01 X37.5643 Y-34.5861
G01 X37.5534 Y-34.5781
G01 X37.5471 Y-34.5744
G01 X37.5382 Y-34.5702
G01 X37.5290 Y-34.5669
G01 X37.5207 Y-34.5648
G01 X37.5098 Y-34.5631
G01 X37.4975 Y-34.5625
G01 X37.2025 Y-34.5625
G01 X37.1902 Y-34.5631
G01 X37.1817 Y-34.5643
G01 X37.1698 Y-34.5673
G01 X37.1618 Y-34.5702
G01 X37.1540 Y-34.5738
G01 X37.1435 Y-34.5801
G01 X37.1366 Y-34.5853
G01 X37.1303 Y-34.5910
G01 X37.1220 Y-34.6001
G01 X37.1170 Y-34.6070
G01 X37.1125 Y-34.6143
G01 X37.1073 Y-34.6254
G01 X37.1044 Y-34.6335
G01 X37.1023 Y-34.6418
G01 X37.1006 Y-34.6527
G01 X37.1000 Y-34.6650
G01 X37.1000 Y-35.8350
G01 X37.1005 Y-35.8461
G01 X37.1018 Y-35.8558
G01 X37.1041 Y-35.8653
G01 X37.1073 Y-35.8746
G01 X37.1113 Y-35.8835
G01 X37.1163 Y-35.8920
G01 X37.1220 Y-35.8999
G01 X37.1285 Y-35.9072
G01 X37.1348 Y-35.9131
G01 X37.1466 Y-35.9219
G01 X37.1540 Y-35.9262
G01 X37.1641 Y-35.9307
G01 X37.1722 Y-35.9334
G01 X37.1817 Y-35.9357
G01 X37.1902 Y-35.9369
G01 X37.2025 Y-35.9375
G00 Z2.0000
G00 X38.1525 Y-34.0625
G01 F60.00
G01 Z-0.2000
G01 F300.00
G01 X38.4475 Y-34.0625
G01 X38.4598 Y-34.0619
G01 X38.4695 Y-34.0605
G01 X38.4790 Y-34.0581
G01 X38.4859 Y-34.0557
G01 X38.4971 Y-34.0506
G01 X38.5055 Y-34.0455
G01 X38.5114 Y-34.0412
G01 X38.5206 Y-34.0331
G01 X38.5287 Y-34.0239
G01 X38.5330 Y-34.0180
G01 X38.5381 Y-34.0096
G01 X38.5432 Y-33.9984
G01 X38.5456 Y-33.9915
G01 X38.5477 Y-33.9832
G01 X38.5494 Y-33.9723
G01 X38.5500 Y-33.9600
G01 X38.5500 Y-32.7900
G01 X38.5496 Y-32.7802
G01 X38.5477 Y-32.7668
G01 X38.5456 Y-32.7585
G01 X38.5423 Y-32.7493
G01 X38.5381 Y-32.7404
G01 X38.5344 Y-32.7341
G01 X38.5264 Y-32.7232
G01 X38.5206 Y-32.7169
G01 X38.5143 Y-32.7111
G01 X38.5034 Y-32.7031
G01 X38.4971 Y-32.6994
G01 X38.4882 Y-32.6952
G01 X38.4790 Y-32.6919
G01 X38.4707 Y-32.6898
G01 X38.4598 Y-32.6881
G01 X38.4475 Y-32.6875
G01 X38.1525 Y-32.6875
G01 X38.1402 Y-32.6881
G01 X38.1317 Y-32.6893
G01 X38.1198 Y-32.6923
G01 X38.1118 Y-32.6952
G01 X38.1040 Y-32.6988
G01 X38.0935 Y-32.7051
G01 X38.0866 Y-32.7103
G01 X38.0803 Y-32.7160
G01 X38.0720 Y-32.7251
G01 X38.0670 Y-32.7320
G01 X38.0625 Y-32.7393
G01 X38.0573 Y-32.7504
G01 X38.0544 Y-32.7585
G01 X38.0523 Y-32.7668
G01 X38.0506 Y-32.7777
G01 X38.0500 Y-32.7900
G01 X38.0500 Y-33.9600
G01 X38.0505 Y-33.9711
G01 X38.0518 Y-33.9808
G01 X38.0541 Y-33.9903
G01 X38.0573 Y-33.9996
G01 X38.0613 Y-34.0085
G01 X38.0663 Y-34.0170
G01 X38.0720 Y-34.0249
G01 X38.0785 Y-34.0322
G01 X38.0848 Y-34.0381
G01 X38.0966 Y-34.0469
G01 X38.1040 Y-34.0512
G01 X38.1141 Y-34.0557
G01 X38.1222 Y-34.0584
G01 X38.1317 Y-34.0607
G01 X38.1402 Y-34.0619
G01 X38.1525 Y-34.0625
G00 Z2.0000
G00 X39.2000 Y-29.8025
G01 F60.00
G01 Z-0.2000
G01 F300.00
G01 X39.2000 Y-30.6975
G01 X39.2009 Y-30.7171
G01 X39.2045 Y-30.7414
G01 X39.2091 Y-30.7592
G01 X39.2163 Y-30.7787
G01 X39.2237 Y-30.7942
G01 X39.2338 Y-30.8110
G01 X39.2455 Y-30.8268
G01 X39.2587 Y-30.8413
G01 X39.2732 Y-30.8545
G01 X39.2890 Y-30.8662
G01 X39.3058 Y-30.8763
G01 X39.3213 Y-30.8837
G01 X39.3443 Y-30.8919
G01 X39.3610 Y-30.8960
G01 X39.3816 Y-30.8990
G01 X39.4025 Y-30.9000
G01 X40.0975 Y-30.9000
G01 X40.1196 Y-30.8989
G01 X40.1390 Y-30.8960
G01 X40.1580 Y-30.8913
G01 X40.1765 Y-30.8847
G01 X40.1942 Y-30.8763
G01 X40.2110 Y-30.8662
G01 X40.2268 Y-30.8545
G01 X40.2413 Y-30.8413
G01 X40.2545 Y-30.8268
G01 X40.2662 Y-30.8110
G01 X40.2763 Y-30.7942
G01 X40.2837 Y-30.7787
G01 X40.2919 Y-30.7557
G01 X40.2963 Y-30.7378
G01 X40.2991 Y-30.7171
G01 X40.3000 Y-30.6975
G01 X40.3000 Y-29.8025
G01 X40.2989 Y-29.7804
G01 X40.2960 Y-29.7610
G01 X40.2913 Y-29.7420
G01 X40.2847 Y-29.7235
G01 X40.2763 Y-29.7058
G01 X40.2662 Y-29.6890
G01 X40.2545 Y-29.6732
G01 X40.2413 Y-29.6587
G01 X40.2268 Y-29.6455
G01 X40.2110 Y-29.6338
G01 X40.1942 Y-29.6237
G01 X40.1787 Y-29.6163
G01 X40.1557 Y-29.6081
G01 X40.1390 Y-29.6040
G01 X40.1184 Y-29.6010
G01 X40.0975 Y-29.6000
G01 X39.4025 Y-29.6000
G01 X39.3780 Y-29.6014
G01 X39.3610 Y-29.6040
G01 X39.3420 Y-29.6087
G01 X39.3235 Y-29.6153
G01 X39.3058 Y-29.6237
G01 X39.2890 Y-29.6338
G01 X39.2732 Y-29.6455
G01 X39.2587 Y-29.6587
G01 X39.2471 Y-29.6713
G01 X39.2325 Y-29.6910
G01 X39.2232 Y-29.7069
G01 X39.2145 Y-29.7258
G01 X39.2087 Y-29.7420
G01 X39.2040 Y-29.7610
G01 X39.2011 Y-29.7804
G01 X39.2000 Y-29.8025
G00 Z2.0000
G00 X41.2000 Y-29.8025
G01 F60.00
G01 Z-0.2000
G01 F300.00
G01 X41.2000 Y-30.6975
G01 X41.2009 Y-30.7171
G01 X41.2037 Y-30.7378
G01 X41.2081 Y-30.7557
G01 X41.2163 Y-30.7787
G01 X41.2237 Y-30.7942
G01 X41.2338 Y-30.8110
G01 X41.2455 Y-30.8268
G01 X41.2587 Y-30.8413
G01 X41.2732 Y-30.8545
G01 X41.2890 Y-30.8662
G01 X41.3058 Y-30.8763
G01 X41.3213 Y-30.8837
G01 X41.3443 Y-30.8919
G01 X41.3610 Y-30.8960
G01 X41.3816 Y-30.8990
G01 X41.4025 Y-30.9000
G01 X42.0975 Y-30.9000
G01 X42.1196 Y-30.8989
G01 X42.1390 Y-30.8960
G01 X42.1580 Y-30.8913
G01 X42.1765 Y-30.8847
G01 X42.1942 Y-30.8763
G01 X42.2110 Y-30.8662
G01 X42.2268 Y-30.8545
G01 X42.2413 Y-30.8413
G01 X42.2545 Y-30.8268
G01 X42.2662 Y-30.8110
G01 X42.2763 Y-30.7942
G01 X42.2837 Y-30.7787
G01 X42.2919 Y-30.7557
G01 X42.2963 Y-30.7378
G01 X42.2991 Y-30.7171
G01 X42.3000 Y-30.6975
G01 X42.3000 Y-29.8025
G01 X42.2989 Y-29.7804
G01 X42.2960 Y-29.7610
G01 X42.2913 Y-29.7420
G01 X42.2847 Y-29.7235
G01 X42.2763 Y-29.7058
G01 X42.2662 Y-29.6890
G01 X42.2545 Y-29.6732
G01 X42.2413 Y-29.6587
G01 X42.2268 Y-29.6455
G01 X42.2110 Y-29.6338
G01 X42.1942 Y-29.6237
G01 X42.1787 Y-29.6163
G01 X42.1557 Y-29.6081
G01 X42.1390 Y-29.6040
G01 X42.1184 Y-29.6010
G01 X42.0975 Y-29.6000
G01 X41.4025 Y-29.6000
G01 X41.3780 Y-29.6014
G01 X41.3610 Y-29.6040
G01 X41.3420 Y-29.6087
G01 X41.3235 Y-29.6153
G01 X41.3058 Y-29.6237
G01 X41.2890 Y-29.6338
G01 X41.2732 Y-29.6455
G01 X41.2587 Y-29.6587
G01 X41.2471 Y-29.6713
G01 X41.2325 Y-29.6910
G01 X41.2232 Y-29.7069
G01 X41.2145 Y-29.7258
G01 X41.2087 Y-29.7420
G01 X41.2040 Y-29.7610
G01 X41.2011 Y-29.7804
G01 X41.2000 Y-29.8025
G00 Z2.0000
G00 X43.8975 Y-32.5125
G01 F60.00
G01 Z-0.2000
G01 F300.00
G01 X42.6012 Y-32.5125
G01 X42.5804 Y-32.5136
G01 X42.5634 Y-32.5160
G01 X42.5396 Y-32.5220
G01 X42.5235 Y-32.5278
G01 X42.5058 Y-32.5362
G01 X42.4890 Y-32.5463
G01 X42.4742 Y-32.5572
G01 X42.4587 Y-32.5712
G01 X42.4455 Y-32.5857
G01 X42.4338 Y-32.6015
G01 X42.4226 Y-32.6205
G01 X42.4145 Y-32.6383
G01 X42.4087 Y-32.6545
G01 X42.4045 Y-32.6711
G01 X42.4011 Y-32.6929
G01 X42.4000 Y-32.7137
G01 X42.4001 Y-33.5375
G01 X42.4011 Y-33.5571
G01 X42.4035 Y-33.5741
G01 X42.4095 Y-33.5979
G01 X42.4153 Y-33.6140
G01 X42.4237 Y-33.6317
G01 X42.4338 Y-33.6485
G01 X42.4447 Y-33.6633
G01 X42.4587 Y-33.6788
G01 X42.4732 Y-33.6920
G01 X42.4890 Y-33.7037
G01 X42.5080 Y-33.7149
G01 X42.5258 Y-33.7230
G01 X42.5420 Y-33.7288
G01 X42.5586 Y-33.7330
G01 X42.5804 Y-33.7364
G01 X42.6012 Y-33.7375
G01 X43.8988 Y-33.7375
G01 X43.9196 Y-33.7364
G01 X43.9366 Y-33.7340
G01 X43.9604 Y-33.7280
G01 X43.9765 Y-33.7222
G01 X43.9942 Y-33.7138
G01 X44.0110 Y-33.7037
G01 X44.0258 Y-33.6928
G01 X44.0413 Y-33.6788
G01 X44.0545 Y-33.6643
G01 X44.0662 Y-33.6485
G01 X44.0763 Y-33.6317
G01 X44.0847 Y-33.6140
G01 X44.0913 Y-33.5955
G01 X44.0960 Y-33.5765
G01 X44.0990 Y-33.5559
G01 X44.1000 Y-33.5350
G01 X44.1000 Y-32.7150
G01 X44.0989 Y-32.6929
G01 X44.0960 Y-32.6735
G01 X44.0913 Y-32.6545
G01 X44.0847 Y-32.6360
G01 X44.0763 Y-32.6183
G01 X44.0662 Y-32.6015
G01 X44.0545 Y-32.5857
G01 X44.0413 Y-32.5712
G01 X44.0287 Y-32.5596
G01 X44.0121 Y-32.5470
G01 X43.9964 Y-32.5374
G01 X43.9742 Y-32.5270
G01 X43.9580 Y-32.5212
G01 X43.9390 Y-32.5165
G01 X43.9196 Y-32.5136
G01 X43.8975 Y-32.5125
G00 Z2.0000
G00 X43.8975 Y-35.6375
G01 F60.00
G01 Z-0.2000
G01 F300.00
G01 X42.6012 Y-35.6375
G01 X42.5804 Y-35.6386
G01 X42.5634 Y-35.6410
G01 X42.5396 Y-35.6470
G01 X42.5235 Y-35.6528
G01 X42.5058 Y-35.6612
G01 X42.4890 Y-35.6713
G01 X42.4742 Y-35.6822
G01 X42.4587 Y-35.6962
G01 X42.4455 Y-35.7107
G01 X42.4338 Y-35.7265
G01 X42.4226 Y-35.7455
G01 X42.4145 Y-35.7633
G01 X42.4087 Y-35.7795
G01 X42.4045 Y-35.7961
G01 X42.4011 Y-35.8179
G01 X42.4000 Y-35.8387
G01 X42.4001 Y-36.6625
G01 X42.4011 Y-36.6821
G01 X42.4035 Y-36.6991
G01 X42.4095 Y-36.7229
G01 X42.4153 Y-36.7390
G01 X42.4237 Y-36.7567
G01 X42.4338 Y-36.7735
G01 X42.4447 Y-36.7883
G01 X42.4587 Y-36.8038
G01 X42.4732 Y-36.8170
G01 X42.4890 Y-36.8287
G01 X42.5080 Y-36.8399
G01 X42.5258 Y-36.8480
G01 X42.5420 Y-36.8538
G01 X42.5586 Y-36.8580
G01 X42.5804 Y-36.8614
G01 X42.6012 Y-36.8625
G01 X43.8988 Y-36.8625
G01 X43.9196 Y-36.8614
G01 X43.9366 Y-36.8590
G01 X43.9604 Y-36.8530
G01 X43.9765 Y-36.8472
G01 X43.9942 Y-36.8388
G01 X44.0110 Y-36.8287
G01 X44.0258 Y-36.8178
G01 X44.0413 Y-36.8038
G01 X44.0545 Y-36.7893
G01 X44.0662 Y-36.7735
G01 X44.0763 Y-36.7567
G01 X44.0847 Y-36.7390
G01 X44.0913 Y-36.7205
G01 X44.0960 Y-36.7015
G01 X44.0990 Y-36.6809
G01 X44.1000 Y-36.6600
G01 X44.1000 Y-35.8400
G01 X44.0989 Y-35.8179
G01 X44.0960 Y-35.7985
G01 X44.0913 Y-35.7795
G01 X44.0847 Y-35.7610
G01 X44.0763 Y-35.7433
G01 X44.0662 Y-35.7265
G01 X44.0545 Y-35.7107
G01 X44.0413 Y-35.6962
G01 X44.0287 Y-35.6846
G01 X44.0121 Y-35.6720
G01 X43.9964 Y-35.6624
G01 X43.9742 Y-35.6520
G01 X43.9580 Y-35.6462
G01 X43.9390 Y-35.6415
G01 X43.9196 Y-35.6386
G01 X43.8975 Y-35.6375
G00 Z2.0000
G00 X43.6975 Y-38.2000
G01 F60.00
G01 Z-0.2000
G01 F300.00
G01 X42.8025 Y-38.2000
G01 X42.7829 Y-38.2009
G01 X42.7586 Y-38.2045
G01 X42.7408 Y-38.2091
G01 X42.7213 Y-38.2163
G01 X42.7058 Y-38.2237
G01 X42.6890 Y-38.2338
G01 X42.6732 Y-38.2455
G01 X42.6587 Y-38.2587
G01 X42.6455 Y-38.2732
G01 X42.6338 Y-38.2890
G01 X42.6237 Y-38.3058
G01 X42.6163 Y-38.3213
G01 X42.6081 Y-38.3443
G01 X42.6040 Y-38.3610
G01 X42.6010 Y-38.3816
G01 X42.6000 Y-38.4025
G01 X42.6000 Y-39.0975
G01 X42.6011 Y-39.1196
G01 X42.6040 Y-39.1390
G01 X42.6087 Y-39.1580
G01 X42.6153 Y-39.1765
G01 X42.6237 Y-39.1942
G01 X42.6338 Y-39.2110
G01 X42.6455 Y-39.2268
G01 X42.6587 Y-39.2413
G01 X42.6732 Y-39.2545
G01 X42.6890 Y-39.2662
G01 X42.7058 Y-39.2763
G01 X42.7213 Y-39.2837
G01 X42.7408 Y-39.2909
G01 X42.7586 Y-39.2955
G01 X42.7829 Y-39.2991
G01 X42.8025 Y-39.3000
G01 X43.6975 Y-39.3000
G01 X43.7196 Y-39.2989
G01 X43.7390 Y-39.2960
G01 X43.7580 Y-39.2913
G01 X43.7765 Y-39.2847
G01 X43.7942 Y-39.2763
G01 X43.8110 Y-39.2662
G01 X43.8268 Y-39.2545
G01 X43.8413 Y-39.2413
G01 X43.8545 Y-39.2268
G01 X43.8662 Y-39.2110
G01 X43.8763 Y-39.1942
G01 X43.8837 Y-39.1787
G01 X43.8919 Y-39.1557
G01 X43.8960 Y-39.1390
G01 X43.8990 Y-39.1184
G01 X43.9000 Y-39.0975
G01 X43.9000 Y-38.4025
G01 X43.8986 Y-38.3780
G01 X43.8960 Y-38.3610
G01 X43.8913 Y-38.3420
G01 X43.8847 Y-38.3235
G01 X43.8763 Y-38.3058
G01 X43.8662 Y-38.2890
G01 X43.8545 Y-38.2732
G01 X43.8413 Y-38.2587
G01 X43.8287 Y-38.2471
G01 X43.8090 Y-38.2325
G01 X43.7931 Y-38.2232
G01 X43.7742 Y-38.2145
G01 X43.7580 Y-38.2087
G01 X43.7390 Y-38.2040
G01 X43.7196 Y-38.2011
G01 X43.6975 Y-38.2000
G00 Z2.0000
G00 X43.6975 Y-40.2000
G01 F60.00
G01 Z-0.2000
G01 F300.00
G01 X42.8025 Y-40.2000
G01 X42.7829 Y-40.2009
G01 X42.7586 Y-40.2045
G01 X42.7408 Y-40.2091
G01 X42.7213 Y-40.2163
G01 X42.7058 Y-40.2237
G01 X42.6890 Y-40.2338
G01 X42.6732 Y-40.2455
G01 X42.6587 Y-40.2587
G01 X42.6455 Y-40.2732
G01 X42.6338 Y-40.2890
G01 X42.6237 Y-40.3058
G01 X42.6163 Y-40.3213
G01 X42.6081 Y-40.3443
G01 X42.6040 Y-40.3610
G01 X42.6010 Y-40.3816
G01 X42.6000 Y-40.4025
G01 X42.6000 Y-41.0975
G01 X42.6011 Y-41.1196
G01 X42.6040 Y-41.1390
G01 X42.6087 Y-41.1580
G01 X42.6153 Y-41.1765
G01 X42.6237 Y-41.1942
G01 X42.6338 Y-41.2110
G01 X42.6455 Y-41.2268
G01 X42.6587 Y-41.2413
G01 X42.6732 Y-41.2545
G01 X42.6890 Y-41.2662
G01 X42.7058 Y-41.2763
G01 X42.7213 Y-41.2837
G01 X42.7408 Y-41.2909
G01 X42.7586 Y-41.2955
G01 X42.7829 Y-41.2991
G01 X42.8025 Y-41.3000
G01 X43.6975 Y-41.3000
G01 X43.7196 Y-41.2989
G01 X43.7390 Y-41.2960
G01 X43.7580 Y-41.2913
G01 X43.7765 Y-41.2847
G01 X43.7942 Y-41.2763
G01 X43.8110 Y-41.2662
G01 X43.8268 Y-41.2545
G01 X43.8413 Y-41.2413
G01 X43.8545 Y-41.2268
G01 X43.8662 Y-41.2110
G01 X43.8763 Y-41.1942
G01 X43.8837 Y-41.1787
G01 X43.8919 Y-41.1557
G01 X43.8960 Y-41.1390
G01 X43.8990 Y-41.1184
G01 X43.9000 Y-41.0975
G01 X43.9000 Y-40.4025
G01 X43.8986 Y-40.3780
G01 X43.8960 Y-40.3610
G01 X43.8913 Y-40.3420
G01 X43.8847 Y-40.3235
G01 X43.8763 Y-40.3058
G01 X43.8662 Y-40.2890
G01 X43.8545 Y-40.2732
G01 X43.8413 Y-40.2587
G01 X43.8287 Y-40.2471
G01 X43.8090 Y-40.2325
G01 X43.7931 Y-40.2232
G01 X43.7742 Y-40.2145
G01 X43.7580 Y-40.2087
G01 X43.7390 Y-40.2040
G01 X43.7196 Y-40.2011
G01 X43.6975 Y-40.2000
G00 Z2.0000
G00 X47.3025 Y-39.3000
G01 F60.00
G01 Z-0.2000
G01 F300.00
G01 X48.1975 Y-39.3000
G01 X48.2171 Y-39.2991
G01 X48.2414 Y-39.2955
G01 X48.2592 Y-39.2909
G01 X48.2787 Y-39.2837
G01 X48.2942 Y-39.2763
G01 X48.3110 Y-39.2662
G01 X48.3268 Y-39.2545
G01 X48.3413 Y-39.2413
G01 X48.3545 Y-39.2268
G01 X48.3662 Y-39.2110
G01 X48.3763 Y-39.1942
G01 X48.3837 Y-39.1787
G01 X48.3919 Y-39.1557
G01 X48.3960 Y-39.1390
G01 X48.3990 Y-39.1184
G01 X48.4000 Y-39.0975
G01 X48.4000 Y-38.4025
G01 X48.3989 Y-38.3804
G01 X48.3960 Y-38.3610
G01 X48.3913 Y-38.3420
G01 X48.3847 Y-38.3235
G01 X48.3763 Y-38.3058
G01 X48.3662 Y-38.2890
G01 X48.3545 Y-38.2732
G01 X48.3413 Y-38.2587
G01 X48.3268 Y-38.2455
G01 X48.3110 Y-38.2338
G01 X48.2942 Y-38.2237
G01 X48.2787 Y-38.2163
G01 X48.2592 Y-38.2091
G01 X48.2414 Y-38.2045
G01 X48.2171 Y-38.2009
G01 X48.1975 Y-38.2000
G01 X47.3025 Y-38.2000
G01 X47.2804 Y-38.2011
G01 X47.2610 Y-38.2040
G01 X47.2420 Y-38.2087
G01 X47.2235 Y-38.2153
G01 X47.2058 Y-38.2237
G01 X47.1890 Y-38.2338
G01 X47.1732 Y-38.2455
G01 X47.1587 Y-38.2587
G01 X47.1455 Y-38.2732
G01 X47.1338 Y-38.2890
G01 X47.1237 Y-38.3058
G01 X47.1163 Y-38.3213
G01 X47.1081 Y-38.3443
G01 X47.1040 Y-38.3610
G01 X47.1010 Y-38.3816
G01 X47.1000 Y-38.4025
G01 X47.1000 Y-39.0975
G01 X47.1014 Y-39.1220
G01 X47.1040 Y-39.1390
G01 X47.1087 Y-39.1580
G01 X47.1153 Y-39.1765
G01 X47.1237 Y-39.1942
G01 X47.1338 Y-39.2110
G01 X47.1455 Y-39.2268
G01 X47.1587 Y-39.2413
G01 X47.1713 Y-39.2529
G01 X47.1910 Y-39.2675
G01 X47.2069 Y-39.2768
G01 X47.2258 Y-39.2855
G01 X47.2420 Y-39.2913
G01 X47.2610 Y-39.2960
G01 X47.2804 Y-39.2989
G01 X47.3025 Y-39.3000
G00 Z2.0000
G00 X47.3025 Y-41.3000
G01 F60.00
G01 Z-0.2000
G01 F300.00
G01 X48.1975 Y-41.3000
G01 X48.2171 Y-41.2991
G01 X48.2414 Y-41.2955
G01 X48.2592 Y-41.2909
G01 X48.2787 Y-41.2837
G01 X48.2942 Y-41.2763
G01 X48.3110 Y-41.2662
G01 X48.3268 Y-41.2545
G01 X48.3413 Y-41.2413
G01 X48.3545 Y-41.2268
G01 X48.3662 Y-41.2110
G01 X48.3763 Y-41.1942
G01 X48.3837 Y-41.1787
G01 X48.3919 Y-41.1557
G01 X48.3960 Y-41.1390
G01 X48.3990 Y-41.1184
G01 X48.4000 Y-41.0975
G01 X48.4000 Y-40.4025
G01 X48.3989 Y-40.3804
G01 X48.3960 Y-40.3610
G01 X48.3913 Y-40.3420
G01 X48.3847 Y-40.3235
G01 X48.3763 Y-40.3058
G01 X48.3662 Y-40.2890
G01 X48.3545 Y-40.2732
G01 X48.3413 Y-40.2587
G01 X48.3268 Y-40.2455
G01 X48.3110 Y-40.2338
G01 X48.2942 Y-40.2237
G01 X48.2787 Y-40.2163
G01 X48.2592 Y-40.2091
G01 X48.2414 Y-40.2045
G01 X48.2171 Y-40.2009
G01 X48.1975 Y-40.2000
G01 X47.3025 Y-40.2000
G01 X47.2804 Y-40.2011
G01 X47.2610 Y-40.2040
G01 X47.2420 Y-40.2087
G01 X47.2235 Y-40.2153
G01 X47.2058 Y-40.2237
G01 X47.1890 Y-40.2338
G01 X47.1732 Y-40.2455
G01 X47.1587 Y-40.2587
G01 X47.1455 Y-40.2732
G01 X47.1338 Y-40.2890
G01 X47.1237 Y-40.3058
G01 X47.1163 Y-40.3213
G01 X47.1081 Y-40.3443
G01 X47.1040 Y-40.3610
G01 X47.1010 Y-40.3816
G01 X47.1000 Y-40.4025
G01 X47.1000 Y-41.0975
G01 X47.1014 Y-41.1220
G01 X47.1040 Y-41.1390
G01 X47.1087 Y-41.1580
G01 X47.1153 Y-41.1765
G01 X47.1237 Y-41.1942
G01 X47.1338 Y-41.2110
G01 X47.1455 Y-41.2268
G01 X47.1587 Y-41.2413
G01 X47.1713 Y-41.2529
G01 X47.1910 Y-41.2675
G01 X47.2069 Y-41.2768
G01 X47.2258 Y-41.2855
G01 X47.2420 Y-41.2913
G01 X47.2610 Y-41.2960
G01 X47.2804 Y-41.2989
G01 X47.3025 Y-41.3000
G00 Z2.0000
G00 X45.8525 Y-45.7500
G01 F60.00
G01 Z-0.2000
G01 F300.00
G01 X46.7475 Y-45.7500
G01 X46.7671 Y-45.7491
G01 X46.7914 Y-45.7455
G01 X46.8092 Y-45.7409
G01 X46.8287 Y-45.7337
G01 X46.8442 Y-45.7263
G01 X46.8610 Y-45.7162
G01 X46.8768 Y-45.7045
G01 X46.8913 Y-45.6913
G01 X46.9045 Y-45.6768
G01 X46.9162 Y-45.6610
G01 X46.9263 Y-45.6442
G01 X46.9337 Y-45.6287
G01 X46.9419 Y-45.6057
G01 X46.9460 Y-45.5890
G01 X46.9490 Y-45.5684
G01 X46.9500 Y-45.5475
G01 X46.9500 Y-44.8525
G01 X46.9489 Y-44.8304
G01 X46.9460 Y-44.8110
G01 X46.9413 Y-44.7920
G01 X46.9347 Y-44.7735
G01 X46.9263 Y-44.7558
G01 X46.9162 Y-44.7390
G01 X46.9045 Y-44.7232
G01 X46.8913 Y-44.7087
G01 X46.8768 Y-44.6955
G01 X46.8610 Y-44.6838
G01 X46.8442 Y-44.6737
G01 X46.8287 Y-44.6663
G01 X46.8092 Y-44.6591
G01 X46.7914 Y-44.6545
G01 X46.7671 Y-44.6509
G01 X46.7475 Y-44.6500
G01 X45.8525 Y-44.6500
G01 X45.8304 Y-44.6511
G01 X45.8110 Y-44.6540
G01 X45.7920 Y-44.6587
G01 X45.7735 Y-44.6653
G01 X45.7558 Y-44.6737
G01 X45.7390 Y-44.6838
G01 X45.7232 Y-44.6955
G01 X45.7087 Y-44.7087
G01 X45.6955 Y-44.7232
G01 X45.6838 Y-44.7390
G01 X45.6737 Y-44.7558
G01 X45.6663 Y-44.7713
G01 X45.6581 Y-44.7943
G01 X45.6540 Y-44.8110
G01 X45.6510 Y-44.8316
G01 X45.6500 Y-44.8525
G01 X45.6500 Y-45.5475
G01 X45.6514 Y-45.5720
G01 X45.6540 Y-45.5890
G01 X45.6587 Y-45.6080
G01 X45.6653 Y-45.6265
G01 X45.6737 Y-45.6442
G01 X45.6838 Y-45.6610
G01 X45.6955 Y-45.6768
G01 X45.7087 Y-45.6913
G01 X45.7213 Y-45.7029
G01 X45.7410 Y-45.7175
G01 X45.7569 Y-45.7268
G01 X45.7758 Y-45.7355
G01 X45.7920 Y-45.7413
G01 X45.8110 Y-45.7460
G01 X45.8304 Y-45.7489
G01 X45.8525 Y-45.7500
G00 Z2.0000
G00 X45.8525 Y-47.7500
G01 F60.00
G01 Z-0.2000
G01 F300.00
G01 X46.7475 Y-47.7500
G01 X46.7671 Y-47.7491
G01 X46.7914 Y-47.7455
G01 X46.8092 Y-47.7409
G01 X46.8287 Y-47.7337
G01 X46.8442 Y-47.7263
G01 X46.8610 Y-47.7162
G01 X46.8768 Y-47.7045
G01 X46.8913 Y-47.6913
G01 X46.9045 Y-47.6768
G01 X46.9162 Y-47.6610
G01 X46.9263 Y-47.6442
G01 X46.9337 Y-47.6287
G01 X46.9419 Y-47.6057
G01 X46.9460 Y-47.5890
G01 X46.9490 Y-47.5684
G01 X46.9500 Y-47.5475
G01 X46.9500 Y-46.8525
G01 X46.9489 Y-46.8304
G01 X46.9460 Y-46.8110
G01 X46.9413 Y-46.7920
G01 X46.9347 Y-46.7735
G01 X46.9263 Y-46.7558
G01 X46.9162 Y-46.7390
G01 X46.9045 Y-46.7232
G01 X46.8913 Y-46.7087
G01 X46.8768 Y-46.6955
G01 X46.8610 Y-46.6838
G01 X46.8442 Y-46.6737
G01 X46.8287 Y-46.6663
G01 X46.8092 Y-46.6591
G01 X46.7914 Y-46.6545
G01 X46.7671 Y-46.6509
G01 X46.7475 Y-46.6500
G01 X45.8525 Y-46.6500
G01 X45.8304 Y-46.6511
G01 X45.8110 Y-46.6540
G01 X45.7920 Y-46.6587
G01 X45.7735 Y-46.6653
G01 X45.7558 Y-46.6737
G01 X45.7390 Y-46.6838
G01 X45.7232 Y-46.6955
G01 X45.7087 Y-46.7087
G01 X45.6955 Y-46.7232
G01 X45.6838 Y-46.7390
G01 X45.6737 Y-46.7558
G01 X45.6663 Y-46.7713
G01 X45.6581 Y-46.7943
G01 X45.6540 Y-46.8110
G01 X45.6510 Y-46.8316
G01 X45.6500 Y-46.8525
G01 X45.6500 Y-47.5475
G01 X45.6514 Y-47.5720
G01 X45.6540 Y-47.5890
G01 X45.6587 Y-47.6080
G01 X45.6653 Y-47.6265
G01 X45.6737 Y-47.6442
G01 X45.6838 Y-47.6610
G01 X45.6955 Y-47.6768
G01 X45.7087 Y-47.6913
G01 X45.7213 Y-47.7029
G01 X45.7410 Y-47.7175
G01 X45.7569 Y-47.7268
G01 X45.7758 Y-47.7355
G01 X45.7920 Y-47.7413
G01 X45.8110 Y-47.7460
G01 X45.8304 Y-47.7489
G01 X45.8525 Y-47.7500
G00 Z2.0000
G00 X42.2475 Y-46.6500
G01 F60.00
G01 Z-0.2000
G01 F300.00
G01 X41.3525 Y-46.6500
G01 X41.3329 Y-46.6509
G01 X41.3086 Y-46.6545
G01 X41.2908 Y-46.6591
G01 X41.2713 Y-46.6663
G01 X41.2558 Y-46.6737
G01 X41.2390 Y-46.6838
G01 X41.2232 Y-46.6955
G01 X41.2087 Y-46.7087
G01 X41.1955 Y-46.7232
G01 X41.1838 Y-46.7390
G01 X41.1737 Y-46.7558
G01 X41.1663 Y-46.7713
G01 X41.1581 Y-46.7943
G01 X41.1540 Y-46.8110
G01 X41.1510 Y-46.8316
G01 X41.1500 Y-46.8525
G01 X41.1500 Y-47.5475
G01 X41.1511 Y-47.5696
G01 X41.1540 Y-47.5890
G01 X41.1587 Y-47.6080
G01 X41.1653 Y-47.6265
G01 X41.1737 Y-47.6442
G01 X41.1838 Y-47.6610
G01 X41.1955 Y-47.6768
G01 X41.2087 Y-47.6913
G01 X41.2232 Y-47.7045
G01 X41.2390 Y-47.7162
G01 X41.2558 Y-47.7263
G01 X41.2713 Y-47.7337
G01 X41.2908 Y-47.7409
G01 X41.3086 Y-47.7455
G01 X41.3329 Y-47.7491
G01 X41.3525 Y-47.7500
G01 X42.2475 Y-47.7500
G01 X42.2696 Y-47.7489
G01 X42.2890 Y-47.7460
G01 X42.3080 Y-47.7413
G01 X42.3265 Y-47.7347
G01 X42.3442 Y-47.7263
G01 X42.3610 Y-47.7162
G01 X42.3768 Y-47.7045
G01 X42.3913 Y-47.6913
G01 X42.4045 Y-47.6768
G01 X42.4162 Y-47.6610
G01 X42.4263 Y-47.6442
G01 X42.4337 Y-47.6287
G01 X42.4419 Y-47.6057
G01 X42.4460 Y-47.5890
G01 X42.4490 Y-47.5684
G01 X42.4500 Y-47.5475
G01 X42.4500 Y-46.8525
G01 X42.4486 Y-46.8280
G01 X42.4460 Y-46.8110
G01 X42.4413 Y-46.7920
G01 X42.4347 Y-46.7735
G01 X42.4263 Y-46.7558
G01 X42.4162 Y-46.7390
G01 X42.4045 Y-46.7232
G01 X42.3913 Y-46.7087
G01 X42.3787 Y-46.6971
G01 X42.3590 Y-46.6825
G01 X42.3431 Y-46.6732
G01 X42.3242 Y-46.6645
G01 X42.3080 Y-46.6587
G01 X42.2890 Y-46.6540
G01 X42.2696 Y-46.6511
G01 X42.2475 Y-46.6500
G00 Z2.0000
G00 X42.2475 Y-44.6500
G01 F60.00
G01 Z-0.2000
G01 F300.00
G01 X41.3525 Y-44.6500
G01 X41.3329 Y-44.6509
G01 X41.3086 Y-44.6545
G01 X41.2908 Y-44.6591
G01 X41.2713 Y-44.6663
G01 X41.2558 Y-44.6737
G01 X41.2390 Y-44.6838
G01 X41.2232 Y-44.6955
G01 X41.2087 Y-44.7087
G01 X41.1955 Y-44.7232
G01 X41.1838 Y-44.7390
G01 X41.1737 Y-44.7558
G01 X41.1663 Y-44.7713
G01 X41.1581 Y-44.7943
G01 X41.1540 Y-44.8110
G01 X41.1510 Y-44.8316
G01 X41.1500 Y-44.8525
G01 X41.1500 Y-45.5475
G01 X41.1511 Y-45.5696
G01 X41.1540 Y-45.5890
G01 X41.1587 Y-45.6080
G01 X41.1653 Y-45.6265
G01 X41.1737 Y-45.6442
G01 X41.1838 Y-45.6610
G01 X41.1955 Y-45.6768
G01 X41.2087 Y-45.6913
G01 X41.2232 Y-45.7045
G01 X41.2390 Y-45.7162
G01 X41.2558 Y-45.7263
G01 X41.2713 Y-45.7337
G01 X41.2908 Y-45.7409
G01 X41.3086 Y-45.7455
G01 X41.3329 Y-45.7491
G01 X41.3525 Y-45.7500
G01 X42.2475 Y-45.7500
G01 X42.2696 Y-45.7489
G01 X42.2890 Y-45.7460
G01 X42.3080 Y-45.7413
G01 X42.3265 Y-45.7347
G01 X42.3442 Y-45.7263
G01 X42.3610 Y-45.7162
G01 X42.3768 Y-45.7045
G01 X42.3913 Y-45.6913
G01 X42.4045 Y-45.6768
G01 X42.4162 Y-45.6610
G01 X42.4263 Y-45.6442
G01 X42.4337 Y-45.6287
G01 X42.4419 Y-45.6057
G01 X42.4460 Y-45.5890
G01 X42.4490 Y-45.5684
G01 X42.4500 Y-45.5475
G01 X42.4500 Y-44.8525
G01 X42.4486 Y-44.8280
G01 X42.4460 Y-44.8110
G01 X42.4413 Y-44.7920
G01 X42.4347 Y-44.7735
G01 X42.4263 Y-44.7558
G01 X42.4162 Y-44.7390
G01 X42.4045 Y-44.7232
G01 X42.3913 Y-44.7087
G01 X42.3787 Y-44.6971
G01 X42.3590 Y-44.6825
G01 X42.3431 Y-44.6732
G01 X42.3242 Y-44.6645
G01 X42.3080 Y-44.6587
G01 X42.2890 Y-44.6540
G01 X42.2696 Y-44.6511
G01 X42.2475 Y-44.6500
G00 Z2.0000
G00 X51.2475 Y-44.6500
G01 F60.00
G01 Z-0.2000
G01 F300.00
G01 X50.3525 Y-44.6500
G01 X50.3329 Y-44.6509
G01 X50.3086 Y-44.6545
G01 X50.2908 Y-44.6591
G01 X50.2713 Y-44.6663
G01 X50.2558 Y-44.6737
G01 X50.2390 Y-44.6838
G01 X50.2232 Y-44.6955
G01 X50.2087 Y-44.7087
G01 X50.1955 Y-44.7232
G01 X50.1838 Y-44.7390
G01 X50.1737 Y-44.7558
G01 X50.1663 Y-44.7713
G01 X50.1581 Y-44.7943
G01 X50.1540 Y-44.8110
G01 X50.1510 Y-44.8316
G01 X50.1500 Y-44.8525
G01 X50.1500 Y-45.5475
G01 X50.1511 Y-45.5696
G01 X50.1540 Y-45.5890
G01 X50.1587 Y-45.6080
G01 X50.1653 Y-45.6265
G01 X50.1737 Y-45.6442
G01 X50.1838 Y-45.6610
G01 X50.1955 Y-45.6768
G01 X50.2087 Y-45.6913
G01 X50.2232 Y-45.7045
G01 X50.2390 Y-45.7162
G01 X50.2558 Y-45.7263
G01 X50.2713 Y-45.7337
G01 X50.2908 Y-45.7409
G01 X50.3086 Y-45.7455
G01 X50.3329 Y-45.7491
G01 X50.3525 Y-45.7500
G01 X51.2475 Y-45.7500
G01 X51.2696 Y-45.7489
G01 X51.2890 Y-45.7460
G01 X51.3080 Y-45.7413
G01 X51.3265 Y-45.7347
G01 X51.3442 Y-45.7263
G01 X51.3610 Y-45.7162
G01 X51.3768 Y-45.7045
G01 X51.3913 Y-45.6913
G01 X51.4045 Y-45.6768
G01 X51.4162 Y-45.6610
G01 X51.4263 Y-45.6442
G01 X51.4337 Y-45.6287
G01 X51.4419 Y-45.6057
G01 X51.4460 Y-45.5890
G01 X51.4490 Y-45.5684
G01 X51.4500 Y-45.5475
G01 X51.4500 Y-44.8525
G01 X51.4486 Y-44.8280
G01 X51.4460 Y-44.8110
G01 X51.4413 Y-44.7920
G01 X51.4347 Y-44.7735
G01 X51.4263 Y-44.7558
G01 X51.4162 Y-44.7390
G01 X51.4045 Y-44.7232
G01 X51.3913 Y-44.7087
G01 X51.3787 Y-44.6971
G01 X51.3590 Y-44.6825
G01 X51.3431 Y-44.6732
G01 X51.3242 Y-44.6645
G01 X51.3080 Y-44.6587
G01 X51.2890 Y-44.6540
G01 X51.2696 Y-44.6511
G01 X51.2475 Y-44.6500
G00 Z2.0000
G00 X51.2475 Y-46.6500
G01 F60.00
G01 Z-0.2000
G01 F300.00
G01 X50.3525 Y-46.6500
G01 X50.3329 Y-46.6509
G01 X50.3086 Y-46.6545
G01 X50.2908 Y-46.6591
G01 X50.2713 Y-46.6663
G01 X50.2558 Y-46.6737
G01 X50.2390 Y-46.6838
G01 X50.2232 Y-46.6955
G01 X50.2087 Y-46.7087
G01 X50.1955 Y-46.7232
G01 X50.1838 Y-46.7390
G01 X50.1737 Y-46.7558
G01 X50.1663 Y-46.7713
G01 X50.1581 Y-46.7943
G01 X50.1540 Y-46.8110
G01 X50.1510 Y-46.8316
G01 X50.1500 Y-46.8525
G01 X50.1500 Y-47.5475
G01 X50.1511 Y-47.5696
G01 X50.1540 Y-47.5890
G01 X50.1587 Y-47.6080
G01 X50.1653 Y-47.6265
G01 X50.1737 Y-47.6442
G01 X50.1838 Y-47.6610
G01 X50.1955 Y-47.6768
G01 X50.2087 Y-47.6913
G01 X50.2232 Y-47.7045
G01 X50.2390 Y-47.7162
G01 X50.2558 Y-47.7263
G01 X50.2713 Y-47.7337
G01 X50.2908 Y-47.7409
G01 X50.3086 Y-47.7455
G01 X50.3329 Y-47.7491
G01 X50.3525 Y-47.7500
G01 X51.2475 Y-47.7500
G01 X51.2696 Y-47.7489
G01 X51.2890 Y-47.7460
G01 X51.3080 Y-47.7413
G01 X51.3265 Y-47.7347
G01 X51.3442 Y-47.7263
G01 X51.3610 Y-47.7162
G01 X51.3768 Y-47.7045
G01 X51.3913 Y-47.6913
G01 X51.4045 Y-47.6768
G01 X51.4162 Y-47.6610
G01 X51.4263 Y-47.6442
G01 X51.4337 Y-47.6287
G01 X51.4419 Y-47.6057
G01 X51.4460 Y-47.5890
G01 X51.4490 Y-47.5684
G01 X51.4500 Y-47.5475
G01 X51.4500 Y-46.8525
G01 X51.4486 Y-46.8280
G01 X51.4460 Y-46.8110
G01 X51.4413 Y-46.7920
G01 X51.4347 Y-46.7735
G01 X51.4263 Y-46.7558
G01 X51.4162 Y-46.7390
G01 X51.4045 Y-46.7232
G01 X51.3913 Y-46.7087
G01 X51.3787 Y-46.6971
G01 X51.3590 Y-46.6825
G01 X51.3431 Y-46.6732
G01 X51.3242 Y-46.6645
G01 X51.3080 Y-46.6587
G01 X51.2890 Y-46.6540
G01 X51.2696 Y-46.6511
G01 X51.2475 Y-46.6500
G00 Z2.0000
G00 X52.6975 Y-40.2000
G01 F60.00
G01 Z-0.2000
G01 F300.00
G01 X51.8025 Y-40.2000
G01 X51.7829 Y-40.2009
G01 X51.7586 Y-40.2045
G01 X51.7408 Y-40.2091
G01 X51.7213 Y-40.2163
G01 X51.7058 Y-40.2237
G01 X51.6890 Y-40.2338
G01 X51.6732 Y-40.2455
G01 X51.6587 Y-40.2587
G01 X51.6455 Y-40.2732
G01 X51.6338 Y-40.2890
G01 X51.6237 Y-40.3058
G01 X51.6163 Y-40.3213
G01 X51.6081 Y-40.3443
G01 X51.6040 Y-40.3610
G01 X51.6010 Y-40.3816
G01 X51.6000 Y-40.4025
G01 X51.6000 Y-41.0975
G01 X51.6011 Y-41.1196
G01 X51.6040 Y-41.1390
G01 X51.6087 Y-41.1580
G01 X51.6153 Y-41.1765
G01 X51.6237 Y-41.1942
G01 X51.6338 Y-41.2110
G01 X51.6455 Y-41.2268
G01 X51.6587 Y-41.2413
G01 X51.6732 Y-41.2545
G01 X51.6890 Y-41.2662
G01 X51.7058 Y-41.2763
G01 X51.7213 Y-41.2837
G01 X51.7408 Y-41.2909
G01 X51.7586 Y-41.2955
G01 X51.7829 Y-41.2991
G01 X51.8025 Y-41.3000
G01 X52.6975 Y-41.3000
G01 X52.7196 Y-41.2989
G01 X52.7390 Y-41.2960
G01 X52.7580 Y-41.2913
G01 X52.7765 Y-41.2847
G01 X52.7942 Y-41.2763
G01 X52.8110 Y-41.2662
G01 X52.8268 Y-41.2545
G01 X52.8413 Y-41.2413
G01 X52.8545 Y-41.2268
G01 X52.8662 Y-41.2110
G01 X52.8763 Y-41.1942
G01 X52.8837 Y-41.1787
G01 X52.8919 Y-41.1557
G01 X52.8960 Y-41.1390
G01 X52.8990 Y-41.1184
G01 X52.9000 Y-41.0975
G01 X52.9000 Y-40.4025
G01 X52.8986 Y-40.3780
G01 X52.8960 Y-40.3610
G01 X52.8913 Y-40.3420
G01 X52.8847 Y-40.3235
G01 X52.8763 Y-40.3058
G01 X52.8662 Y-40.2890
G01 X52.8545 Y-40.2732
G01 X52.8413 Y-40.2587
G01 X52.8287 Y-40.2471
G01 X52.8090 Y-40.2325
G01 X52.7931 Y-40.2232
G01 X52.7742 Y-40.2145
G01 X52.7580 Y-40.2087
G01 X52.7390 Y-40.2040
G01 X52.7196 Y-40.2011
G01 X52.6975 Y-40.2000
G00 Z2.0000
G00 X52.6975 Y-38.2000
G01 F60.00
G01 Z-0.2000
G01 F300.00
G01 X51.8025 Y-38.2000
G01 X51.7829 Y-38.2009
G01 X51.7586 Y-38.2045
G01 X51.7408 Y-38.2091
G01 X51.7213 Y-38.2163
G01 X51.7058 Y-38.2237
G01 X51.6890 Y-38.2338
G01 X51.6732 Y-38.2455
G01 X51.6587 Y-38.2587
G01 X51.6455 Y-38.2732
G01 X51.6338 Y-38.2890
G01 X51.6237 Y-38.3058
G01 X51.6163 Y-38.3213
G01 X51.6081 Y-38.3443
G01 X51.6040 Y-38.3610
G01 X51.6010 Y-38.3816
G01 X51.6000 Y-38.4025
G01 X51.6000 Y-39.0975
G01 X51.6011 Y-39.1196
G01 X51.6040 Y-39.1390
G01 X51.6087 Y-39.1580
G01 X51.6153 Y-39.1765
G01 X51.6237 Y-39.1942
G01 X51.6338 Y-39.2110
G01 X51.6455 Y-39.2268
G01 X51.6587 Y-39.2413
G01 X51.6732 Y-39.2545
G01 X51.6890 Y-39.2662
G01 X51.7058 Y-39.2763
G01 X51.7213 Y-39.2837
G01 X51.7408 Y-39.2909
G01 X51.7586 Y-39.2955
G01 X51.7829 Y-39.2991
G01 X51.8025 Y-39.3000
G01 X52.6975 Y-39.3000
G01 X52.7196 Y-39.2989
G01 X52.7390 Y-39.2960
G01 X52.7580 Y-39.2913
G01 X52.7765 Y-39.2847
G01 X52.7942 Y-39.2763
G01 X52.8110 Y-39.2662
G01 X52.8268 Y-39.2545
G01 X52.8413 Y-39.2413
G01 X52.8545 Y-39.2268
G01 X52.8662 Y-39.2110
G01 X52.8763 Y-39.1942
G01 X52.8837 Y-39.1787
G01 X52.8919 Y-39.1557
G01 X52.8960 Y-39.1390
G01 X52.8990 Y-39.1184
G01 X52.9000 Y-39.0975
G01 X52.9000 Y-38.4025
G01 X52.8986 Y-38.3780
G01 X52.8960 Y-38.3610
G01 X52.8913 Y-38.3420
G01 X52.8847 Y-38.3235
G01 X52.8763 Y-38.3058
G01 X52.8662 Y-38.2890
G01 X52.8545 Y-38.2732
G01 X52.8413 Y-38.2587
G01 X52.8287 Y-38.2471
G01 X52.8090 Y-38.2325
G01 X52.7931 Y-38.2232
G01 X52.7742 Y-38.2145
G01 X52.7580 Y-38.2087
G01 X52.7390 Y-38.2040
G01 X52.7196 Y-38.2011
G01 X52.6975 Y-38.2000
G00 Z2.0000
G00 X53.6025 Y-35.9375
G01 F60.00
G01 Z-0.2000
G01 F300.00
G01 X53.8975 Y-35.9375
G01 X53.9098 Y-35.9369
G01 X53.9195 Y-35.9355
G01 X53.9290 Y-35.9331
G01 X53.9359 Y-35.9307
G01 X53.9471 Y-35.9256
G01 X53.9555 Y-35.9205
G01 X53.9614 Y-35.9162
G01 X53.9706 Y-35.9081
G01 X53.9787 Y-35.8989
G01 X53.9830 Y-35.8930
G01 X53.9881 Y-35.8846
G01 X53.9932 Y-35.8734
G01 X53.9956 Y-35.8665
G01 X53.9977 Y-35.8582
G01 X53.9994 Y-35.8473
G01 X54.0000 Y-35.8350
G01 X54.0000 Y-34.6650
G01 X53.9996 Y-34.6552
G01 X53.9977 Y-34.6418
G01 X53.9956 Y-34.6335
G01 X53.9923 Y-34.6243
G01 X53.9881 Y-34.6154
G01 X53.9844 Y-34.6091
G01 X53.9764 Y-34.5982
G01 X53.9706 Y-34.5919
G01 X53.9643 Y-34.5861
G01 X53.9534 Y-34.5781
G01 X53.9471 Y-34.5744
G01 X53.9382 Y-34.5702
G01 X53.9290 Y-34.5669
G01 X53.9207 Y-34.5648
G01 X53.9098 Y-34.5631
G01 X53.8975 Y-34.5625
G01 X53.6025 Y-34.5625
G01 X53.5902 Y-34.5631
G01 X53.5817 Y-34.5643
G01 X53.5698 Y-34.5673
G01 X53.5618 Y-34.5702
G01 X53.5540 Y-34.5738
G01 X53.5435 Y-34.5801
G01 X53.5366 Y-34.5853
G01 X53.5303 Y-34.5910
G01 X53.5220 Y-34.6001
G01 X53.5170 Y-34.6070
G01 X53.5125 Y-34.6143
G01 X53.5073 Y-34.6254
G01 X53.5044 Y-34.6335
G01 X53.5023 Y-34.6418
G01 X53.5006 Y-34.6527
G01 X53.5000 Y-34.6650
G01 X53.5000 Y-35.8350
G01 X53.5005 Y-35.8461
G01 X53.5018 Y-35.8558
G01 X53.5041 Y-35.8653
G01 X53.5073 Y-35.8746
G01 X53.5113 Y-35.8835
G01 X53.5163 Y-35.8920
G01 X53.5220 Y-35.8999
G01 X53.5285 Y-35.9072
G01 X53.5348 Y-35.9131
G01 X53.5435 Y-35.9199
G01 X53.5508 Y-35.9244
G01 X53.5641 Y-35.9307
G01 X53.5722 Y-35.9334
G01 X53.5817 Y-35.9357
G01 X53.5902 Y-35.9369
G01 X53.6025 Y-35.9375
G00 Z2.0000
G00 X51.7025 Y-35.9375
G01 F60.00
G01 Z-0.2000
G01 F300.00
G01 X51.9975 Y-35.9375
G01 X52.0098 Y-35.9369
G01 X52.0195 Y-35.9355
G01 X52.0290 Y-35.9331
G01 X52.0359 Y-35.9307
G01 X52.0471 Y-35.9256
G01 X52.0555 Y-35.9205
G01 X52.0614 Y-35.9162
G01 X52.0706 Y-35.9081
G01 X52.0787 Y-35.8989
G01 X52.0830 Y-35.8930
G01 X52.0881 Y-35.8846
G01 X52.0932 Y-35.8734
G01 X52.0956 Y-35.8665
G01 X52.0977 Y-35.8582
G01 X52.0994 Y-35.8473
G01 X52.1000 Y-35.8350
G01 X52.1000 Y-34.6650
G01 X52.0996 Y-34.6552
G01 X52.0977 Y-34.6418
G01 X52.0956 Y-34.6335
G01 X52.0923 Y-34.6243
G01 X52.0881 Y-34.6154
G01 X52.0844 Y-34.6091
G01 X52.0764 Y-34.5982
G01 X52.0706 Y-34.5919
G01 X52.0643 Y-34.5861
G01 X52.0534 Y-34.5781
G01 X52.0471 Y-34.5744
G01 X52.0382 Y-34.5702
G01 X52.0290 Y-34.5669
G01 X52.0207 Y-34.5648
G01 X52.0098 Y-34.5631
G01 X51.9975 Y-34.5625
G01 X51.7025 Y-34.5625
G01 X51.6902 Y-34.5631
G01 X51.6817 Y-34.5643
G01 X51.6698 Y-34.5673
G01 X51.6618 Y-34.5702
G01 X51.6540 Y-34.5738
G01 X51.6435 Y-34.5801
G01 X51.6366 Y-34.5853
G01 X51.6303 Y-34.5910
G01 X51.6220 Y-34.6001
G01 X51.6170 Y-34.6070
G01 X51.6125 Y-34.6143
G01 X51.6073 Y-34.6254
G01 X51.6044 Y-34.6335
G01 X51.6023 Y-34.6418
G01 X51.6006 Y-34.6527
G01 X51.6000 Y-34.6650
G01 X51.6000 Y-35.8350
G01 X51.6005 Y-35.8461
G01 X51.6018 Y-35.8558
G01 X51.6041 Y-35.8653
G01 X51.6073 Y-35.8746
G01 X51.6113 Y-35.8835
G01 X51.6163 Y-35.8920
G01 X51.6220 Y-35.8999
G01 X51.6285 Y-35.9072
G01 X51.6348 Y-35.9131
G01 X51.6435 Y-35.9199
G01 X51.6508 Y-35.9244
G01 X51.6641 Y-35.9307
G01 X51.6722 Y-35.9334
G01 X51.6817 Y-35.9357
G01 X51.6902 Y-35.9369
G01 X51.7025 Y-35.9375
G00 Z2.0000
G00 X52.6525 Y-34.0625
G01 F60.00
G01 Z-0.2000
G01 F300.00
G01 X52.9475 Y-34.0625
G01 X52.9598 Y-34.0619
G01 X52.9695 Y-34.0605
G01 X52.9790 Y-34.0581
G01 X52.9859 Y-34.0557
G01 X52.9971 Y-34.0506
G01 X53.0055 Y-34.0455
G01 X53.0114 Y-34.0412
G01 X53.0206 Y-34.0331
G01 X53.0287 Y-34.0239
G01 X53.0330 Y-34.0180
G01 X53.0381 Y-34.0096
G01 X53.0432 Y-33.9984
G01 X53.0456 Y-33.9915
G01 X53.0477 Y-33.9832
G01 X53.0494 Y-33.9723
G01 X53.0500 Y-33.9600
G01 X53.0500 Y-32.7900
G01 X53.0496 Y-32.7802
G01 X53.0477 Y-32.7668
G01 X53.0456 Y-32.7585
G01 X53.0423 Y-32.7493
G01 X53.0381 Y-32.7404
G01 X53.0344 Y-32.7341
G01 X53.0264 Y-32.7232
G01 X53.0206 Y-32.7169
G01 X53.0143 Y-32.7111
G01 X53.0034 Y-32.7031
G01 X52.9971 Y-32.6994
G01 X52.9882 Y-32.6952
G01 X52.9790 Y-32.6919
G01 X52.9707 Y-32.6898
G01 X52.9598 Y-32.6881
G01 X52.9475 Y-32.6875
G01 X52.6525 Y-32.6875
G01 X52.6402 Y-32.6881
G01 X52.6317 Y-32.6893
G01 X52.6198 Y-32.6923
G01 X52.6118 Y-32.6952
G01 X52.6040 Y-32.6988
G01 X52.5935 Y-32.7051
G01 X52.5866 Y-32.7103
G01 X52.5803 Y-32.7160
G01 X52.5720 Y-32.7251
G01 X52.5670 Y-32.7320
G01 X52.5625 Y-32.7393
G01 X52.5573 Y-32.7504
G01 X52.5544 Y-32.7585
G01 X52.5523 Y-32.7668
G01 X52.5506 Y-32.7777
G01 X52.5500 Y-32.7900
G01 X52.5500 Y-33.9600
G01 X52.5505 Y-33.9711
G01 X52.5518 Y-33.9808
G01 X52.5541 Y-33.9903
G01 X52.5573 Y-33.9996
G01 X52.5613 Y-34.0085
G01 X52.5663 Y-34.0170
G01 X52.5720 Y-34.0249
G01 X52.5785 Y-34.0322
G01 X52.5848 Y-34.0381
G01 X52.5935 Y-34.0449
G01 X52.6008 Y-34.0494
G01 X52.6141 Y-34.0557
G01 X52.6222 Y-34.0584
G01 X52.6317 Y-34.0607
G01 X52.6402 Y-34.0619
G01 X52.6525 Y-34.0625
G00 Z2.0000
G00 X51.8000 Y-30.6975
G01 F60.00
G01 Z-0.2000
G01 F300.00
G01 X51.8000 Y-29.8025
G01 X51.7991 Y-29.7829
G01 X51.7963 Y-29.7622
G01 X51.7919 Y-29.7443
G01 X51.7837 Y-29.7213
G01 X51.7763 Y-29.7058
G01 X51.7662 Y-29.6890
G01 X51.7545 Y-29.6732
G01 X51.7413 Y-29.6587
G01 X51.7268 Y-29.6455
G01 X51.7110 Y-29.6338
G01 X51.6942 Y-29.6237
G01 X51.6787 Y-29.6163
G01 X51.6557 Y-29.6081
G01 X51.6390 Y-29.6040
G01 X51.6184 Y-29.6010
G01 X51.5975 Y-29.6000
G01 X50.9025 Y-29.6000
G01 X50.8804 Y-29.6011
G01 X50.8610 Y-29.6040
G01 X50.8420 Y-29.6087
G01 X50.8235 Y-29.6153
G01 X50.8058 Y-29.6237
G01 X50.7890 Y-29.6338
G01 X50.7732 Y-29.6455
G01 X50.7587 Y-29.6587
G01 X50.7455 Y-29.6732
