( Made using CamBam - http://www.cambam.co.uk )
( front_plate 6/10/2023 3:43:26 PM )
( Post processor: Matt )
( T0 : 0.0 )
G21 G90
G0 Z2.0
( T0 : 0.0 )
( Engrave1 )
G17
M3 S10000
G0 X80.8438 Y-98.0
G0 Z1.0
G1 F200.0 Z-0.7
G2 F350.0 X80.2598 Y-97.8867 I-0.0081 J1.5202
G2 X79.7813 Y-97.5762 I0.5762 J1.4118
G2 X79.459 Y-97.1113 I1.0583 J1.0778
G2 X79.3398 Y-96.5449 I1.2492 J0.5585
G2 X79.459 Y-95.9785 I1.3683 J0.0079
G2 X79.7813 Y-95.5156 I1.359 J-0.6025
G2 X80.2598 Y-95.2012 I1.0676 J-1.1033
G2 X80.8438 Y-95.084 I0.5764 J-1.3588
G2 X81.4277 Y-95.2012 I0.0094 J-1.467
G2 X81.9063 Y-95.5156 I-0.5727 J-1.3928
G2 X82.2285 Y-95.9785 I-1.0015 J-1.0409
G2 X82.3477 Y-96.5449 I-1.2492 J-0.5585
G2 X82.2285 Y-97.1113 I-1.3683 J-0.0079
G2 X81.9063 Y-97.5762 I-1.3443 J0.5878
G2 X81.4277 Y-97.8867 I-1.0387 J1.0766
G2 X80.8438 Y-98.0 I-0.5741 J1.3977
G2 X80.2598 Y-97.8867 I-0.0081 J1.5202
G2 X79.7813 Y-97.5762 I0.5762 J1.4118
G2 X79.459 Y-97.1113 I1.0583 J1.0778
G2 X79.3398 Y-96.5449 I1.2492 J0.5585
G2 X79.459 Y-95.9785 I1.3683 J0.0079
G2 X79.7813 Y-95.5156 I1.359 J-0.6025
G2 X80.2598 Y-95.2012 I1.0676 J-1.1033
G2 X80.8438 Y-95.084 I0.5764 J-1.3588
G2 X81.4277 Y-95.2012 I0.0094 J-1.467
G2 X81.9063 Y-95.5156 I-0.5727 J-1.3928
G2 X82.2285 Y-95.9785 I-1.0015 J-1.0409
G2 X82.3477 Y-96.5449 I-1.2492 J-0.5585
G2 X82.2285 Y-97.1113 I-1.3683 J-0.0079
G2 X81.9063 Y-97.5762 I-1.3443 J0.5878
G2 X81.4277 Y-97.8867 I-1.0387 J1.0766
G2 X80.8438 Y-98.0 I-0.5741 J1.3977
G0 Z2.0
G0 X83.5273 Y-97.9805
G0 Z1.0
G1 F200.0 Z-0.7
G1 F350.0 Y-95.084
G1 X86.1582 Y-98.0
G1 Y-95.1035
G1 Y-98.0
G1 X83.5273 Y-95.084
G1 Y-97.9805
G0 Z2.0
G0 X89.9347 Y-96.8006
G0 Z1.0
G1 F200.0 Z-0.7
G2 F350.0 X89.9121 Y-96.5449 I1.3457 J0.2478
G2 X90.0313 Y-95.9785 I1.3683 J0.0079
G2 X90.3535 Y-95.5156 I1.359 J-0.6025
G2 X90.832 Y-95.2012 I1.0676 J-1.1033
G2 X91.416 Y-95.084 I0.5764 J-1.3588
G2 X92.0 Y-95.2012 I0.0094 J-1.467
G2 X92.4785 Y-95.5156 I-0.5727 J-1.3928
G2 X92.8008 Y-95.9785 I-1.0015 J-1.0409
G2 X92.9199 Y-96.5449 I-1.2492 J-0.5585
G2 X92.8008 Y-97.1113 I-1.3683 J-0.0079
G2 X92.4785 Y-97.5762 I-1.3443 J0.5878
G2 X92.0 Y-97.8867 I-1.0387 J1.0766
G2 X91.416 Y-98.0 I-0.5741 J1.3977
G2 X90.832 Y-97.8867 I-0.0081 J1.5202
G2 X90.3535 Y-97.5762 I0.5762 J1.4118
G2 X90.0313 Y-97.1113 I1.0583 J1.0778
G2 X89.9347 Y-96.8006 I1.2492 J0.5585
G2 X89.9121 Y-96.5449 I1.3457 J0.2478
G2 X90.0313 Y-95.9785 I1.3683 J0.0079
G2 X90.3535 Y-95.5156 I1.359 J-0.6025
G2 X90.832 Y-95.2012 I1.0676 J-1.1033
G2 X91.416 Y-95.084 I0.5764 J-1.3588
G2 X92.0 Y-95.2012 I0.0094 J-1.467
G2 X92.4785 Y-95.5156 I-0.5727 J-1.3928
G2 X92.8008 Y-95.9785 I-1.0015 J-1.0409
G2 X92.9199 Y-96.5449 I-1.2492 J-0.5585
G2 X92.8008 Y-97.1113 I-1.3683 J-0.0079
G2 X92.4785 Y-97.5762 I-1.3443 J0.5878
G2 X92.0 Y-97.8867 I-1.0387 J1.0766
G2 X91.416 Y-98.0 I-0.5741 J1.3977
G2 X90.832 Y-97.8867 I-0.0081 J1.5202
G2 X90.3535 Y-97.5762 I0.5762 J1.4118
G2 X90.0313 Y-97.1113 I1.0583 J1.0778
G2 X89.9347 Y-96.8006 I1.2492 J0.5585
G0 Z2.0
G0 X94.0996 Y-96.4043
G0 Z1.0
G1 F200.0 Z-0.7
G1 F350.0 X95.123
G1 X94.0996
G1 Y-95.123
G1 X95.1719
G1 X94.0996
G1 Y-98.0
G1 Y-96.4043
G0 Z2.0
G0 X96.2715
G0 Z1.0
G1 F200.0 Z-0.7
G1 F350.0 X97.2949
G1 X96.2715
G1 Y-95.123
G1 X97.3438
G1 X96.2715
G1 Y-98.0
G1 Y-96.4043
G0 Z2.0
G0 X102.3398 Y-97.502
G0 Z1.0
G1 F200.0 Z-0.7
G3 F350.0 X102.4766 Y-97.7168 I0.9539 J0.4561
G3 X102.6484 Y-97.8633 I0.524 J0.4407
G3 X102.8691 Y-97.9512 I0.394 J0.6684
G3 X103.1621 Y-97.9844 I0.3096 J1.4225
G3 X103.4824 Y-97.9551 I0.0666 J1.038
G3 X103.752 Y-97.8301 I-0.2079 J0.8014
G3 X103.9434 Y-97.6191 I-0.3708 J0.5288
G3 X104.0234 Y-97.3223 I-0.5824 J0.3163
G3 X103.9844 Y-97.0391 I-0.7724 J0.0378
G3 X103.875 Y-96.8477 I-0.5194 J-0.1698
G3 X103.7305 Y-96.7285 I-0.4752 J-0.4293
G3 X103.5957 Y-96.6484 I-2.3706 J-3.8361
G1 X102.9434 Y-96.3125
G2 X102.7754 Y-96.2148 I0.7602 J1.5008
G2 X102.6426 Y-96.0957 I0.3896 J0.5679
G2 X102.5547 Y-95.9414 I0.4206 J0.3418
G2 X102.5195 Y-95.7383 I0.6429 J0.2159
G2 X102.5566 Y-95.5039 I0.64 J0.0188
G2 X102.6875 Y-95.2891 I0.5946 J-0.2149
G2 X102.9082 Y-95.1309 I0.5109 J-0.4797
G2 X103.2188 Y-95.0684 I0.2966 J-0.6707
G2 X103.5195 Y-95.1172 I0.0215 J-0.8185
G2 X103.7227 Y-95.2207 I-0.3771 J-0.9911
G2 X103.8711 Y-95.373 I-0.372 J-0.511
G3 X103.7227 Y-95.2207 I-0.5204 J-0.3586
G3 X103.5195 Y-95.1172 I-0.5801 J-0.8873
G3 X103.2188 Y-95.0684 I-0.2793 J-0.7696
G3 X102.9082 Y-95.1309 I-0.014 J-0.7333
G3 X102.6875 Y-95.2891 I0.2903 J-0.638
G3 X102.5566 Y-95.5039 I0.4637 J-0.4297
G3 X102.5195 Y-95.7383 I0.6028 J-0.2156
G3 X102.5547 Y-95.9414 I0.678 J0.0127
G3 X102.6426 Y-96.0957 I0.5086 J0.1875
G3 X102.7754 Y-96.2148 I0.5223 J0.4486
G3 X102.9434 Y-96.3125 I0.9294 J1.4053
G1 X103.5957 Y-96.6484
G2 X103.7305 Y-96.7285 I-2.1776 J-3.8182
G2 X103.875 Y-96.8477 I-0.3306 J-0.5483
G2 X103.9844 Y-97.0391 I-0.41 J-0.3612
G2 X104.0234 Y-97.3223 I-0.7334 J-0.2455
G2 X103.9434 Y-97.6191 I-0.6624 J0.0194
G2 X103.752 Y-97.8301 I-0.5623 J0.3179
G2 X103.4824 Y-97.9551 I-0.4775 J0.6764
G2 X103.1621 Y-97.9844 I-0.2538 J1.0087
G2 X102.8691 Y-97.9512 I0.0166 J1.456
G2 X102.6484 Y-97.8633 I0.1733 J0.7562
G2 X102.4766 Y-97.7168 I0.3521 J0.5872
G2 X102.3398 Y-97.502 I0.8174 J0.6711
G0 Z2.0
G0 X105.1563 Y-98.0
G0 Z1.0
G1 F200.0 Z-0.7
G1 F350.0 Y-96.4043
G1 X106.3242
G1 X105.1563
G1 Y-95.123
G1 X106.416
G1 X105.1563
G1 Y-98.0
G1 X106.416
G1 X105.1563
G0 Z2.0
G0 X108.4219
G0 Z1.0
G1 F200.0 Z-0.7
G1 F350.0 X107.5273
G1 Y-95.123
G1 Y-98.0
G1 X108.4219
G0 Z2.0
G0 X112.7305 Y-96.8933
G0 Z1.0
G1 F200.0 Z-0.7
G2 F350.0 X112.6875 Y-96.5449 I1.3253 J0.3404
G2 X112.8066 Y-95.9785 I1.3683 J0.0079
G2 X113.1289 Y-95.5156 I1.359 J-0.6025
G2 X113.6074 Y-95.2012 I1.0676 J-1.1033
G2 X114.1914 Y-95.084 I0.5764 J-1.3588
G2 X114.7754 Y-95.2012 I0.0094 J-1.467
G2 X115.2539 Y-95.5156 I-0.5727 J-1.3928
G2 X115.5762 Y-95.9785 I-1.0015 J-1.0409
G2 X115.6953 Y-96.5449 I-1.2492 J-0.5585
G2 X115.5762 Y-97.1113 I-1.3683 J-0.0079
G2 X115.2539 Y-97.5762 I-1.3443 J0.5878
G2 X114.7754 Y-97.8867 I-1.0387 J1.0766
G2 X114.1914 Y-98.0 I-0.5741 J1.3977
G2 X113.6074 Y-97.8867 I-0.0081 J1.5202
G2 X113.1289 Y-97.5762 I0.5762 J1.4118
G2 X112.8066 Y-97.1113 I1.0583 J1.0778
G2 X112.7305 Y-96.8933 I1.2492 J0.5585
G2 X112.6875 Y-96.5449 I1.3253 J0.3404
G2 X112.8066 Y-95.9785 I1.3683 J0.0079
G2 X113.1289 Y-95.5156 I1.359 J-0.6025
G2 X113.6074 Y-95.2012 I1.0676 J-1.1033
G2 X114.1914 Y-95.084 I0.5764 J-1.3588
G2 X114.7754 Y-95.2012 I0.0094 J-1.467
G2 X115.2539 Y-95.5156 I-0.5727 J-1.3928
G2 X115.5762 Y-95.9785 I-1.0015 J-1.0409
G2 X115.6953 Y-96.5449 I-1.2492 J-0.5585
G2 X115.5762 Y-97.1113 I-1.3683 J-0.0079
G2 X115.2539 Y-97.5762 I-1.3443 J0.5878
G2 X114.7754 Y-97.8867 I-1.0387 J1.0766
G2 X114.1914 Y-98.0 I-0.5741 J1.3977
G2 X113.6074 Y-97.8867 I-0.0081 J1.5202
G2 X113.1289 Y-97.5762 I0.5762 J1.4118
G2 X112.8066 Y-97.1113 I1.0583 J1.0778
G2 X112.7305 Y-96.8933 I1.2492 J0.5585
G0 Z2.0
G0 X116.875 Y-96.541
G0 Z1.0
G1 F200.0 Z-0.7
G1 F350.0 X118.4824 Y-98.0
G1 X116.875 Y-96.541
G1 X118.4746 Y-95.123
G1 X116.875 Y-96.541
G1 Y-95.123
G1 Y-98.0
G1 Y-96.541
G0 Z2.0
M5
M30
