( Made using CamBam - http://www.cambam.co.uk )
( front_plate 6/10/2023 2:25:59 PM )
( Post processor: Matt )
( T0 : 2.0 )
G21 G90
G0 Z2.0
( T0 : 2.0 )
( Profile1 )
G17
M3 S10000
G0 X154.9 Y-113.5
G0 Z1.0
G1 F200.0 Z-0.5
G1 F350.0 X153.9001
G1 X153.9
G1 X153.9001
G1 X139.8125 Y-113.4985
G1 X139.4025 Y-113.4677
G1 X139.01 Y-113.3985
G1 X138.6271 Y-113.2906
G1 X138.2556 Y-113.1448
G1 X137.9003 Y-112.9628
G1 X137.5657 Y-112.7469
G1 X137.2547 Y-112.4984
G1 X136.9686 Y-112.2195
G1 X136.7123 Y-111.9146
G1 X136.4884 Y-111.5852
G1 X136.2972 Y-111.235
G1 X136.143 Y-110.8681
G1 X136.0252 Y-110.4864
G1 X135.946 Y-110.0954
G1 X135.906 Y-109.6989
G1 Y-101.3011
G1 X135.946 Y-100.9046
G1 X136.0252 Y-100.5136
G1 X136.143 Y-100.1319
G1 X136.2972 Y-99.765
G1 X136.4884 Y-99.4148
G1 X136.7123 Y-99.0854
G1 X136.9686 Y-98.7805
G1 X137.2547 Y-98.5016
G1 X137.5657 Y-98.2531
G1 X137.9003 Y-98.0372
G1 X138.2556 Y-97.8552
G1 X138.6271 Y-97.7094
G1 X139.01 Y-97.6015
G1 X139.4025 Y-97.5323
G1 X139.8124 Y-97.5016
G1 X153.9001 Y-97.5
G1 X153.9
G1 X153.9001
G1 X154.9
G3 X155.9 Y-96.5 I0.0 J1.0
G1 Y0.3
G3 X154.9 Y1.3 I-1.0 J0.0
G1 X0.0
G3 X-1.0 Y0.3 I0.0 J-1.0
G1 Y-127.0
G3 X0.0 Y-128.0 I1.0 J0.0
G1 X154.9
G3 X155.9 Y-127.0 I0.0 J1.0
G1 Y-114.5
G3 X154.9 Y-113.5 I-1.0 J0.0
G1 F200.0 Z-1.0
G1 F350.0 X153.9001
G1 X153.9
G1 X153.9001
G1 X139.8125 Y-113.4985
G1 X139.4025 Y-113.4677
G1 X139.01 Y-113.3985
G1 X138.6271 Y-113.2906
G1 X138.2556 Y-113.1448
G1 X137.9003 Y-112.9628
G1 X137.5657 Y-112.7469
G1 X137.2547 Y-112.4984
G1 X136.9686 Y-112.2195
G1 X136.7123 Y-111.9146
G1 X136.4884 Y-111.5852
G1 X136.2972 Y-111.235
G1 X136.143 Y-110.8681
G1 X136.0252 Y-110.4864
G1 X135.946 Y-110.0954
G1 X135.906 Y-109.6989
G1 Y-101.3011
G1 X135.946 Y-100.9046
G1 X136.0252 Y-100.5136
G1 X136.143 Y-100.1319
G1 X136.2972 Y-99.765
G1 X136.4884 Y-99.4148
G1 X136.7123 Y-99.0854
G1 X136.9686 Y-98.7805
G1 X137.2547 Y-98.5016
G1 X137.5657 Y-98.2531
G1 X137.9003 Y-98.0372
G1 X138.2556 Y-97.8552
G1 X138.6271 Y-97.7094
G1 X139.01 Y-97.6015
G1 X139.4025 Y-97.5323
G1 X139.8124 Y-97.5016
G1 X153.9001 Y-97.5
G1 X153.9
G1 X153.9001
G1 X154.9
G3 X155.9 Y-96.5 I0.0 J1.0
G1 Y0.3
G3 X154.9 Y1.3 I-1.0 J0.0
G1 X0.0
G3 X-1.0 Y0.3 I0.0 J-1.0
G1 Y-127.0
G3 X0.0 Y-128.0 I1.0 J0.0
G1 X154.9
G3 X155.9 Y-127.0 I0.0 J1.0
G1 Y-114.5
G3 X154.9 Y-113.5 I-1.0 J0.0
G1 F200.0 Z-1.5
G1 F350.0 X153.9001
G1 X153.9
G1 X153.9001
G1 X139.8125 Y-113.4985
G1 X139.4025 Y-113.4677
G1 X139.01 Y-113.3985
G1 X138.6271 Y-113.2906
G1 X138.2556 Y-113.1448
G1 X137.9003 Y-112.9628
G1 X137.5657 Y-112.7469
G1 X137.2547 Y-112.4984
G1 X136.9686 Y-112.2195
G1 X136.7123 Y-111.9146
G1 X136.4884 Y-111.5852
G1 X136.2972 Y-111.235
G1 X136.143 Y-110.8681
G1 X136.0252 Y-110.4864
G1 X135.946 Y-110.0954
G1 X135.906 Y-109.6989
G1 Y-101.3011
G1 X135.946 Y-100.9046
G1 X136.0252 Y-100.5136
G1 X136.143 Y-100.1319
G1 X136.2972 Y-99.765
G1 X136.4884 Y-99.4148
G1 X136.7123 Y-99.0854
G1 X136.9686 Y-98.7805
G1 X137.2547 Y-98.5016
G1 X137.5657 Y-98.2531
G1 X137.9003 Y-98.0372
G1 X138.2556 Y-97.8552
G1 X138.6271 Y-97.7094
G1 X139.01 Y-97.6015
G1 X139.4025 Y-97.5323
G1 X139.8124 Y-97.5016
G1 X153.9001 Y-97.5
G1 X153.9
G1 X153.9001
G1 X154.9
G3 X155.9 Y-96.5 I0.0 J1.0
G1 Y0.3
G3 X154.9 Y1.3 I-1.0 J0.0
G1 X0.0
G3 X-1.0 Y0.3 I0.0 J-1.0
G1 Y-127.0
G3 X0.0 Y-128.0 I1.0 J0.0
G1 X154.9
G3 X155.9 Y-127.0 I0.0 J1.0
G1 Y-114.5
G3 X154.9 Y-113.5 I-1.0 J0.0
G1 F200.0 Z-2.0
G1 F350.0 X153.9001
G1 X153.9
G1 X153.9001
G1 X139.8125 Y-113.4985
G1 X139.4025 Y-113.4677
G1 X139.01 Y-113.3985
G1 X138.6271 Y-113.2906
G1 X138.2556 Y-113.1448
G1 X137.9003 Y-112.9628
G1 X137.5657 Y-112.7469
G1 X137.2547 Y-112.4984
G1 X136.9686 Y-112.2195
G1 X136.7123 Y-111.9146
G1 X136.4884 Y-111.5852
G1 X136.2972 Y-111.235
G1 X136.143 Y-110.8681
G1 X136.0252 Y-110.4864
G1 X135.946 Y-110.0954
G1 X135.906 Y-109.6989
G1 Y-101.3011
G1 X135.946 Y-100.9046
G1 X136.0252 Y-100.5136
G1 X136.143 Y-100.1319
G1 X136.2972 Y-99.765
G1 X136.4884 Y-99.4148
G1 X136.7123 Y-99.0854
G1 X136.9686 Y-98.7805
G1 X137.2547 Y-98.5016
G1 X137.5657 Y-98.2531
G1 X137.9003 Y-98.0372
G1 X138.2556 Y-97.8552
G1 X138.6271 Y-97.7094
G1 X139.01 Y-97.6015
G1 X139.4025 Y-97.5323
G1 X139.8124 Y-97.5016
G1 X153.9001 Y-97.5
G1 X153.9
G1 X153.9001
G1 X154.9
G3 X155.9 Y-96.5 I0.0 J1.0
G1 Y0.3
G3 X154.9 Y1.3 I-1.0 J0.0
G1 X0.0
G3 X-1.0 Y0.3 I0.0 J-1.0
G1 Y-127.0
G3 X0.0 Y-128.0 I1.0 J0.0
G1 X154.9
G3 X155.9 Y-127.0 I0.0 J1.0
G1 Y-114.5
G3 X154.9 Y-113.5 I-1.0 J0.0
G1 F200.0 Z-2.5
G1 F350.0 X153.9001
G1 X153.9
G1 X153.9001
G1 X139.8125 Y-113.4985
G1 X139.4025 Y-113.4677
G1 X139.01 Y-113.3985
G1 X138.6271 Y-113.2906
G1 X138.2556 Y-113.1448
G1 X137.9003 Y-112.9628
G1 X137.5657 Y-112.7469
G1 X137.2547 Y-112.4984
G1 X136.9686 Y-112.2195
G1 X136.7123 Y-111.9146
G1 X136.4884 Y-111.5852
G1 X136.2972 Y-111.235
G1 X136.143 Y-110.8681
G1 X136.0252 Y-110.4864
G1 X135.946 Y-110.0954
G1 X135.906 Y-109.6989
G1 Y-101.3011
G1 X135.946 Y-100.9046
G1 X136.0252 Y-100.5136
G1 X136.143 Y-100.1319
G1 X136.2972 Y-99.765
G1 X136.4884 Y-99.4148
G1 X136.7123 Y-99.0854
G1 X136.9686 Y-98.7805
G1 X137.2547 Y-98.5016
G1 X137.5657 Y-98.2531
G1 X137.9003 Y-98.0372
G1 X138.2556 Y-97.8552
G1 X138.6271 Y-97.7094
G1 X139.01 Y-97.6015
G1 X139.4025 Y-97.5323
G1 X139.8124 Y-97.5016
G1 X153.9001 Y-97.5
G1 X153.9
G1 X153.9001
G1 X154.9
G3 X155.9 Y-96.5 I0.0 J1.0
G1 Y0.3
G3 X154.9 Y1.3 I-1.0 J0.0
G1 X0.0
G3 X-1.0 Y0.3 I0.0 J-1.0
G1 Y-127.0
G3 X0.0 Y-128.0 I1.0 J0.0
G1 X154.9
G3 X155.9 Y-127.0 I0.0 J1.0
G1 Y-114.5
G3 X154.9 Y-113.5 I-1.0 J0.0
G1 F200.0 Z-3.0
G1 F350.0 X153.9001
G1 X153.9
G1 X153.9001
G1 X139.8125 Y-113.4985
G1 X139.4025 Y-113.4677
G1 X139.01 Y-113.3985
G1 X138.6271 Y-113.2906
G1 X138.2556 Y-113.1448
G1 X137.9003 Y-112.9628
G1 X137.5657 Y-112.7469
G1 X137.2547 Y-112.4984
G1 X136.9686 Y-112.2195
G1 X136.7123 Y-111.9146
G1 X136.4884 Y-111.5852
G1 X136.2972 Y-111.235
G1 X136.143 Y-110.8681
G1 X136.0252 Y-110.4864
G1 X135.946 Y-110.0954
G1 X135.906 Y-109.6989
G1 Y-101.3011
G1 X135.946 Y-100.9046
G1 X136.0252 Y-100.5136
G1 X136.143 Y-100.1319
G1 X136.2972 Y-99.765
G1 X136.4884 Y-99.4148
G1 X136.7123 Y-99.0854
G1 X136.9686 Y-98.7805
G1 X137.2547 Y-98.5016
G1 X137.5657 Y-98.2531
G1 X137.9003 Y-98.0372
G1 X138.2556 Y-97.8552
G1 X138.6271 Y-97.7094
G1 X139.01 Y-97.6015
G1 X139.4025 Y-97.5323
G1 X139.8124 Y-97.5016
G1 X153.9001 Y-97.5
G1 X153.9
G1 X153.9001
G1 X154.9
G3 X155.9 Y-96.5 I0.0 J1.0
G1 Y0.3
G3 X154.9 Y1.3 I-1.0 J0.0
G1 X0.0
G3 X-1.0 Y0.3 I0.0 J-1.0
G1 Y-127.0
G3 X0.0 Y-128.0 I1.0 J0.0
G1 X154.9
G3 X155.9 Y-127.0 I0.0 J1.0
G1 Y-114.5
G3 X154.9 Y-113.5 I-1.0 J0.0
G1 F200.0 Z-3.175
G1 F350.0 X153.9001
G1 X153.9
G1 X153.9001
G1 X139.8125 Y-113.4985
G1 X139.4025 Y-113.4677
G1 X139.01 Y-113.3985
G1 X138.6271 Y-113.2906
G1 X138.2556 Y-113.1448
G1 X137.9003 Y-112.9628
G1 X137.5657 Y-112.7469
G1 X137.2547 Y-112.4984
G1 X136.9686 Y-112.2195
G1 X136.7123 Y-111.9146
G1 X136.4884 Y-111.5852
G1 X136.2972 Y-111.235
G1 X136.143 Y-110.8681
G1 X136.0252 Y-110.4864
G1 X135.946 Y-110.0954
G1 X135.906 Y-109.6989
G1 Y-101.3011
G1 X135.946 Y-100.9046
G1 X136.0252 Y-100.5136
G1 X136.143 Y-100.1319
G1 X136.2972 Y-99.765
G1 X136.4884 Y-99.4148
G1 X136.7123 Y-99.0854
G1 X136.9686 Y-98.7805
G1 X137.2547 Y-98.5016
G1 X137.5657 Y-98.2531
G1 X137.9003 Y-98.0372
G1 X138.2556 Y-97.8552
G1 X138.6271 Y-97.7094
G1 X139.01 Y-97.6015
G1 X139.4025 Y-97.5323
G1 X139.8124 Y-97.5016
G1 X153.9001 Y-97.5
G1 X153.9
G1 X153.9001
G1 X154.9
G3 X155.9 Y-96.5 I0.0 J1.0
G1 Y0.3
G3 X154.9 Y1.3 I-1.0 J0.0
G1 X0.0
G3 X-1.0 Y0.3 I0.0 J-1.0
G1 Y-127.0
G3 X0.0 Y-128.0 I1.0 J0.0
G1 X154.9
G3 X155.9 Y-127.0 I0.0 J1.0
G1 Y-114.5
G3 X154.9 Y-113.5 I-1.0 J0.0
( Profile2 )
S10000
G0 Z2.0
G0 X3.869 Y-124.3239
G0 Z1.0
G1 F200.0 Z-0.5
G1 F350.0 X3.7057 Y-124.2598
G1 X3.5685 Y-124.1504
G1 X3.4696 Y-124.0054
G1 X3.4179 Y-123.8377
G1 Y-123.6623
G1 X3.4696 Y-123.4946
G1 X3.5685 Y-123.3496
G1 X3.7057 Y-123.2402
G1 X3.869 Y-123.1761
G1 X4.044 Y-123.1629
G1 X4.2151 Y-123.202
G1 X4.3671 Y-123.2897
G1 X4.4864 Y-123.4184
G1 X4.5626 Y-123.5765
G1 X4.5887 Y-123.75
G1 X4.5626 Y-123.9235
G1 X4.4864 Y-124.0816
G1 X4.3671 Y-124.2103
G1 X4.2151 Y-124.298
G1 X4.044 Y-124.3371
G1 X3.869 Y-124.3239
G1 F200.0 Z-1.0
G1 F350.0 X3.7057 Y-124.2598
G1 X3.5685 Y-124.1504
G1 X3.4696 Y-124.0054
G1 X3.4179 Y-123.8377
G1 Y-123.6623
G1 X3.4696 Y-123.4946
G1 X3.5685 Y-123.3496
G1 X3.7057 Y-123.2402
G1 X3.869 Y-123.1761
G1 X4.044 Y-123.1629
G1 X4.2151 Y-123.202
G1 X4.3671 Y-123.2897
G1 X4.4864 Y-123.4184
G1 X4.5626 Y-123.5765
G1 X4.5887 Y-123.75
G1 X4.5626 Y-123.9235
G1 X4.4864 Y-124.0816
G1 X4.3671 Y-124.2103
G1 X4.2151 Y-124.298
G1 X4.044 Y-124.3371
G1 X3.869 Y-124.3239
G1 F200.0 Z-1.5
G1 F350.0 X3.7057 Y-124.2598
G1 X3.5685 Y-124.1504
G1 X3.4696 Y-124.0054
G1 X3.4179 Y-123.8377
G1 Y-123.6623
G1 X3.4696 Y-123.4946
G1 X3.5685 Y-123.3496
G1 X3.7057 Y-123.2402
G1 X3.869 Y-123.1761
G1 X4.044 Y-123.1629
G1 X4.2151 Y-123.202
G1 X4.3671 Y-123.2897
G1 X4.4864 Y-123.4184
G1 X4.5626 Y-123.5765
G1 X4.5887 Y-123.75
G1 X4.5626 Y-123.9235
G1 X4.4864 Y-124.0816
G1 X4.3671 Y-124.2103
G1 X4.2151 Y-124.298
G1 X4.044 Y-124.3371
G1 X3.869 Y-124.3239
G1 F200.0 Z-2.0
G1 F350.0 X3.7057 Y-124.2598
G1 X3.5685 Y-124.1504
G1 X3.4696 Y-124.0054
G1 X3.4179 Y-123.8377
G1 Y-123.6623
G1 X3.4696 Y-123.4946
G1 X3.5685 Y-123.3496
G1 X3.7057 Y-123.2402
G1 X3.869 Y-123.1761
G1 X4.044 Y-123.1629
G1 X4.2151 Y-123.202
G1 X4.3671 Y-123.2897
G1 X4.4864 Y-123.4184
G1 X4.5626 Y-123.5765
G1 X4.5887 Y-123.75
G1 X4.5626 Y-123.9235
G1 X4.4864 Y-124.0816
G1 X4.3671 Y-124.2103
G1 X4.2151 Y-124.298
G1 X4.044 Y-124.3371
G1 X3.869 Y-124.3239
G1 F200.0 Z-2.5
G1 F350.0 X3.7057 Y-124.2598
G1 X3.5685 Y-124.1504
G1 X3.4696 Y-124.0054
G1 X3.4179 Y-123.8377
G1 Y-123.6623
G1 X3.4696 Y-123.4946
G1 X3.5685 Y-123.3496
G1 X3.7057 Y-123.2402
G1 X3.869 Y-123.1761
G1 X4.044 Y-123.1629
G1 X4.2151 Y-123.202
G1 X4.3671 Y-123.2897
G1 X4.4864 Y-123.4184
G1 X4.5626 Y-123.5765
G1 X4.5887 Y-123.75
G1 X4.5626 Y-123.9235
G1 X4.4864 Y-124.0816
G1 X4.3671 Y-124.2103
G1 X4.2151 Y-124.298
G1 X4.044 Y-124.3371
G1 X3.869 Y-124.3239
G1 F200.0 Z-3.0
G1 F350.0 X3.7057 Y-124.2598
G1 X3.5685 Y-124.1504
G1 X3.4696 Y-124.0054
G1 X3.4179 Y-123.8377
G1 Y-123.6623
G1 X3.4696 Y-123.4946
G1 X3.5685 Y-123.3496
G1 X3.7057 Y-123.2402
G1 X3.869 Y-123.1761
G1 X4.044 Y-123.1629
G1 X4.2151 Y-123.202
G1 X4.3671 Y-123.2897
G1 X4.4864 Y-123.4184
G1 X4.5626 Y-123.5765
G1 X4.5887 Y-123.75
G1 X4.5626 Y-123.9235
G1 X4.4864 Y-124.0816
G1 X4.3671 Y-124.2103
G1 X4.2151 Y-124.298
G1 X4.044 Y-124.3371
G1 X3.869 Y-124.3239
G1 F200.0 Z-3.175
G1 F350.0 X3.7057 Y-124.2598
G1 X3.5685 Y-124.1504
G1 X3.4696 Y-124.0054
G1 X3.4179 Y-123.8377
G1 Y-123.6623
G1 X3.4696 Y-123.4946
G1 X3.5685 Y-123.3496
G1 X3.7057 Y-123.2402
G1 X3.869 Y-123.1761
G1 X4.044 Y-123.1629
G1 X4.2151 Y-123.202
G1 X4.3671 Y-123.2897
G1 X4.4864 Y-123.4184
G1 X4.5626 Y-123.5765
G1 X4.5887 Y-123.75
G1 X4.5626 Y-123.9235
G1 X4.4864 Y-124.0816
G1 X4.3671 Y-124.2103
G1 X4.2151 Y-124.298
G1 X4.044 Y-124.3371
G1 X3.869 Y-124.3239
G0 Z2.0
G0 X27.275 Y-107.7535
G0 Z1.0
G1 F200.0 Z-0.5
G1 F350.0 X27.1509 Y-107.5782
G1 X26.9763 Y-107.253
G1 X26.843 Y-106.9089
G1 X26.753 Y-106.5509
G1 X26.7076 Y-106.1845
G1 Y-105.8155
G1 X26.753 Y-105.4491
G1 X26.843 Y-105.0911
G1 X26.9763 Y-104.747
G1 X27.1509 Y-104.4218
G1 X27.3642 Y-104.1205
G1 X27.613 Y-103.8477
G1 X27.8933 Y-103.6074
G1 X28.2009 Y-103.4036
G1 X28.5314 Y-103.239
G1 X28.8796 Y-103.1163
G1 X29.2401 Y-103.0373
G1 X29.6076 Y-103.0033
G1 X29.9767 Y-103.0147
G1 X30.3414 Y-103.0713
G1 X30.6963 Y-103.1723
G1 X31.0364 Y-103.3163
G1 X31.3561 Y-103.5008
G1 X31.6506 Y-103.7232
G1 X31.9156 Y-103.9802
G1 X32.147 Y-104.2678
G1 X32.3413 Y-104.5816
G1 X32.4957 Y-104.917
G1 X32.6076 Y-105.2688
G1 X32.6754 Y-105.6316
G1 X32.6981 Y-106.0
G1 X32.6754 Y-106.3685
G1 X32.6076 Y-106.7313
G1 X32.4957 Y-107.083
G1 X32.3413 Y-107.4184
G1 X32.147 Y-107.7322
G1 X31.9156 Y-108.0198
G1 X31.6506 Y-108.2768
G1 X31.3561 Y-108.4992
G1 X31.0364 Y-108.6838
G1 X30.6964 Y-108.8276
G1 X30.3414 Y-108.9287
G1 X29.9767 Y-108.9853
G1 X29.6076 Y-108.9967
G1 X29.2401 Y-108.9627
G1 X28.8796 Y-108.8837
G1 X28.5314 Y-108.761
G1 X28.2009 Y-108.5964
G1 X27.8933 Y-108.3926
G1 X27.613 Y-108.1524
G1 X27.3643 Y-107.8796
G1 X27.275 Y-107.7535
G1 F200.0 Z-1.0
G1 F350.0 X27.1509 Y-107.5782
G1 X26.9763 Y-107.253
G1 X26.843 Y-106.9089
G1 X26.753 Y-106.5509
G1 X26.7076 Y-106.1845
G1 Y-105.8155
G1 X26.753 Y-105.4491
G1 X26.843 Y-105.0911
G1 X26.9763 Y-104.747
G1 X27.1509 Y-104.4218
G1 X27.3642 Y-104.1205
G1 X27.613 Y-103.8477
G1 X27.8933 Y-103.6074
G1 X28.2009 Y-103.4036
G1 X28.5314 Y-103.239
G1 X28.8796 Y-103.1163
G1 X29.2401 Y-103.0373
G1 X29.6076 Y-103.0033
G1 X29.9767 Y-103.0147
G1 X30.3414 Y-103.0713
G1 X30.6963 Y-103.1723
G1 X31.0364 Y-103.3163
G1 X31.3561 Y-103.5008
G1 X31.6506 Y-103.7232
G1 X31.9156 Y-103.9802
G1 X32.147 Y-104.2678
G1 X32.3413 Y-104.5816
G1 X32.4957 Y-104.917
G1 X32.6076 Y-105.2688
G1 X32.6754 Y-105.6316
G1 X32.6981 Y-106.0
G1 X32.6754 Y-106.3685
G1 X32.6076 Y-106.7313
G1 X32.4957 Y-107.083
G1 X32.3413 Y-107.4184
G1 X32.147 Y-107.7322
G1 X31.9156 Y-108.0198
G1 X31.6506 Y-108.2768
G1 X31.3561 Y-108.4992
G1 X31.0364 Y-108.6838
G1 X30.6964 Y-108.8276
G1 X30.3414 Y-108.9287
G1 X29.9767 Y-108.9853
G1 X29.6076 Y-108.9967
G1 X29.2401 Y-108.9627
G1 X28.8796 Y-108.8837
G1 X28.5314 Y-108.761
G1 X28.2009 Y-108.5964
G1 X27.8933 Y-108.3926
G1 X27.613 Y-108.1524
G1 X27.3643 Y-107.8796
G1 X27.275 Y-107.7535
G1 F200.0 Z-1.5
G1 F350.0 X27.1509 Y-107.5782
G1 X26.9763 Y-107.253
G1 X26.843 Y-106.9089
G1 X26.753 Y-106.5509
G1 X26.7076 Y-106.1845
G1 Y-105.8155
G1 X26.753 Y-105.4491
G1 X26.843 Y-105.0911
G1 X26.9763 Y-104.747
G1 X27.1509 Y-104.4218
G1 X27.3642 Y-104.1205
G1 X27.613 Y-103.8477
G1 X27.8933 Y-103.6074
G1 X28.2009 Y-103.4036
G1 X28.5314 Y-103.239
G1 X28.8796 Y-103.1163
G1 X29.2401 Y-103.0373
G1 X29.6076 Y-103.0033
G1 X29.9767 Y-103.0147
G1 X30.3414 Y-103.0713
G1 X30.6963 Y-103.1723
G1 X31.0364 Y-103.3163
G1 X31.3561 Y-103.5008
G1 X31.6506 Y-103.7232
G1 X31.9156 Y-103.9802
G1 X32.147 Y-104.2678
G1 X32.3413 Y-104.5816
G1 X32.4957 Y-104.917
G1 X32.6076 Y-105.2688
G1 X32.6754 Y-105.6316
G1 X32.6981 Y-106.0
G1 X32.6754 Y-106.3685
G1 X32.6076 Y-106.7313
G1 X32.4957 Y-107.083
G1 X32.3413 Y-107.4184
G1 X32.147 Y-107.7322
G1 X31.9156 Y-108.0198
G1 X31.6506 Y-108.2768
G1 X31.3561 Y-108.4992
G1 X31.0364 Y-108.6838
G1 X30.6964 Y-108.8276
G1 X30.3414 Y-108.9287
G1 X29.9767 Y-108.9853
G1 X29.6076 Y-108.9967
G1 X29.2401 Y-108.9627
G1 X28.8796 Y-108.8837
G1 X28.5314 Y-108.761
G1 X28.2009 Y-108.5964
G1 X27.8933 Y-108.3926
G1 X27.613 Y-108.1524
G1 X27.3643 Y-107.8796
G1 X27.275 Y-107.7535
G1 F200.0 Z-2.0
G1 F350.0 X27.1509 Y-107.5782
G1 X26.9763 Y-107.253
G1 X26.843 Y-106.9089
G1 X26.753 Y-106.5509
G1 X26.7076 Y-106.1845
G1 Y-105.8155
G1 X26.753 Y-105.4491
G1 X26.843 Y-105.0911
G1 X26.9763 Y-104.747
G1 X27.1509 Y-104.4218
G1 X27.3642 Y-104.1205
G1 X27.613 Y-103.8477
G1 X27.8933 Y-103.6074
G1 X28.2009 Y-103.4036
G1 X28.5314 Y-103.239
G1 X28.8796 Y-103.1163
G1 X29.2401 Y-103.0373
G1 X29.6076 Y-103.0033
G1 X29.9767 Y-103.0147
G1 X30.3414 Y-103.0713
G1 X30.6963 Y-103.1723
G1 X31.0364 Y-103.3163
G1 X31.3561 Y-103.5008
G1 X31.6506 Y-103.7232
G1 X31.9156 Y-103.9802
G1 X32.147 Y-104.2678
G1 X32.3413 Y-104.5816
G1 X32.4957 Y-104.917
G1 X32.6076 Y-105.2688
G1 X32.6754 Y-105.6316
G1 X32.6981 Y-106.0
G1 X32.6754 Y-106.3685
G1 X32.6076 Y-106.7313
G1 X32.4957 Y-107.083
G1 X32.3413 Y-107.4184
G1 X32.147 Y-107.7322
G1 X31.9156 Y-108.0198
G1 X31.6506 Y-108.2768
G1 X31.3561 Y-108.4992
G1 X31.0364 Y-108.6838
G1 X30.6964 Y-108.8276
G1 X30.3414 Y-108.9287
G1 X29.9767 Y-108.9853
G1 X29.6076 Y-108.9967
G1 X29.2401 Y-108.9627
G1 X28.8796 Y-108.8837
G1 X28.5314 Y-108.761
G1 X28.2009 Y-108.5964
G1 X27.8933 Y-108.3926
G1 X27.613 Y-108.1524
G1 X27.3643 Y-107.8796
G1 X27.275 Y-107.7535
G1 F200.0 Z-2.5
G1 F350.0 X27.1509 Y-107.5782
G1 X26.9763 Y-107.253
G1 X26.843 Y-106.9089
G1 X26.753 Y-106.5509
G1 X26.7076 Y-106.1845
G1 Y-105.8155
G1 X26.753 Y-105.4491
G1 X26.843 Y-105.0911
G1 X26.9763 Y-104.747
G1 X27.1509 Y-104.4218
G1 X27.3642 Y-104.1205
G1 X27.613 Y-103.8477
G1 X27.8933 Y-103.6074
G1 X28.2009 Y-103.4036
G1 X28.5314 Y-103.239
G1 X28.8796 Y-103.1163
G1 X29.2401 Y-103.0373
G1 X29.6076 Y-103.0033
G1 X29.9767 Y-103.0147
G1 X30.3414 Y-103.0713
G1 X30.6963 Y-103.1723
G1 X31.0364 Y-103.3163
G1 X31.3561 Y-103.5008
G1 X31.6506 Y-103.7232
G1 X31.9156 Y-103.9802
G1 X32.147 Y-104.2678
G1 X32.3413 Y-104.5816
G1 X32.4957 Y-104.917
G1 X32.6076 Y-105.2688
G1 X32.6754 Y-105.6316
G1 X32.6981 Y-106.0
G1 X32.6754 Y-106.3685
G1 X32.6076 Y-106.7313
G1 X32.4957 Y-107.083
G1 X32.3413 Y-107.4184
G1 X32.147 Y-107.7322
G1 X31.9156 Y-108.0198
G1 X31.6506 Y-108.2768
G1 X31.3561 Y-108.4992
G1 X31.0364 Y-108.6838
G1 X30.6964 Y-108.8276
G1 X30.3414 Y-108.9287
G1 X29.9767 Y-108.9853
G1 X29.6076 Y-108.9967
G1 X29.2401 Y-108.9627
G1 X28.8796 Y-108.8837
G1 X28.5314 Y-108.761
G1 X28.2009 Y-108.5964
G1 X27.8933 Y-108.3926
G1 X27.613 Y-108.1524
G1 X27.3643 Y-107.8796
G1 X27.275 Y-107.7535
G1 F200.0 Z-3.0
G1 F350.0 X27.1509 Y-107.5782
G1 X26.9763 Y-107.253
G1 X26.843 Y-106.9089
G1 X26.753 Y-106.5509
G1 X26.7076 Y-106.1845
G1 Y-105.8155
G1 X26.753 Y-105.4491
G1 X26.843 Y-105.0911
G1 X26.9763 Y-104.747
G1 X27.1509 Y-104.4218
G1 X27.3642 Y-104.1205
G1 X27.613 Y-103.8477
G1 X27.8933 Y-103.6074
G1 X28.2009 Y-103.4036
G1 X28.5314 Y-103.239
G1 X28.8796 Y-103.1163
G1 X29.2401 Y-103.0373
G1 X29.6076 Y-103.0033
G1 X29.9767 Y-103.0147
G1 X30.3414 Y-103.0713
G1 X30.6963 Y-103.1723
G1 X31.0364 Y-103.3163
G1 X31.3561 Y-103.5008
G1 X31.6506 Y-103.7232
G1 X31.9156 Y-103.9802
G1 X32.147 Y-104.2678
G1 X32.3413 Y-104.5816
G1 X32.4957 Y-104.917
G1 X32.6076 Y-105.2688
G1 X32.6754 Y-105.6316
G1 X32.6981 Y-106.0
G1 X32.6754 Y-106.3685
G1 X32.6076 Y-106.7313
G1 X32.4957 Y-107.083
G1 X32.3413 Y-107.4184
G1 X32.147 Y-107.7322
G1 X31.9156 Y-108.0198
G1 X31.6506 Y-108.2768
G1 X31.3561 Y-108.4992
G1 X31.0364 Y-108.6838
G1 X30.6964 Y-108.8276
G1 X30.3414 Y-108.9287
G1 X29.9767 Y-108.9853
G1 X29.6076 Y-108.9967
G1 X29.2401 Y-108.9627
G1 X28.8796 Y-108.8837
G1 X28.5314 Y-108.761
G1 X28.2009 Y-108.5964
G1 X27.8933 Y-108.3926
G1 X27.613 Y-108.1524
G1 X27.3643 Y-107.8796
G1 X27.275 Y-107.7535
G1 F200.0 Z-3.175
G1 F350.0 X27.1509 Y-107.5782
G1 X26.9763 Y-107.253
G1 X26.843 Y-106.9089
G1 X26.753 Y-106.5509
G1 X26.7076 Y-106.1845
G1 Y-105.8155
G1 X26.753 Y-105.4491
G1 X26.843 Y-105.0911
G1 X26.9763 Y-104.747
G1 X27.1509 Y-104.4218
G1 X27.3642 Y-104.1205
G1 X27.613 Y-103.8477
G1 X27.8933 Y-103.6074
G1 X28.2009 Y-103.4036
G1 X28.5314 Y-103.239
G1 X28.8796 Y-103.1163
G1 X29.2401 Y-103.0373
G1 X29.6076 Y-103.0033
G1 X29.9767 Y-103.0147
G1 X30.3414 Y-103.0713
G1 X30.6963 Y-103.1723
G1 X31.0364 Y-103.3163
G1 X31.3561 Y-103.5008
G1 X31.6506 Y-103.7232
G1 X31.9156 Y-103.9802
G1 X32.147 Y-104.2678
G1 X32.3413 Y-104.5816
G1 X32.4957 Y-104.917
G1 X32.6076 Y-105.2688
G1 X32.6754 Y-105.6316
G1 X32.6981 Y-106.0
G1 X32.6754 Y-106.3685
G1 X32.6076 Y-106.7313
G1 X32.4957 Y-107.083
G1 X32.3413 Y-107.4184
G1 X32.147 Y-107.7322
G1 X31.9156 Y-108.0198
G1 X31.6506 Y-108.2768
G1 X31.3561 Y-108.4992
G1 X31.0364 Y-108.6838
G1 X30.6964 Y-108.8276
G1 X30.3414 Y-108.9287
G1 X29.9767 Y-108.9853
G1 X29.6076 Y-108.9967
G1 X29.2401 Y-108.9627
G1 X28.8796 Y-108.8837
G1 X28.5314 Y-108.761
G1 X28.2009 Y-108.5964
G1 X27.8933 Y-108.3926
G1 X27.613 Y-108.1524
G1 X27.3643 Y-107.8796
G1 X27.275 Y-107.7535
G0 Z2.0
G0 X43.0009 Y-79.0964
G0 Z1.0
G1 F200.0 Z-0.5
G1 F350.0 X42.6933 Y-78.8926
G1 X42.413 Y-78.6524
G1 X42.1643 Y-78.3796
G1 X41.9509 Y-78.0782
G1 X41.7763 Y-77.753
G1 X41.643 Y-77.4089
G1 X41.553 Y-77.0509
G1 X41.5076 Y-76.6845
G1 Y-76.3155
G1 X41.553 Y-75.9491
G1 X41.643 Y-75.5911
G1 X41.7763 Y-75.247
G1 X41.9509 Y-74.9218
G1 X42.1642 Y-74.6205
G1 X42.413 Y-74.3477
G1 X42.6933 Y-74.1074
G1 X43.0009 Y-73.9036
G1 X43.3314 Y-73.739
G1 X43.6796 Y-73.6163
G1 X44.0401 Y-73.5373
G1 X44.4076 Y-73.5033
G1 X44.7767 Y-73.5147
G1 X45.1414 Y-73.5713
G1 X45.4963 Y-73.6723
G1 X45.8364 Y-73.8163
G1 X46.1561 Y-74.0008
G1 X46.4506 Y-74.2232
G1 X46.7156 Y-74.4802
G1 X46.947 Y-74.7678
G1 X47.1413 Y-75.0816
G1 X47.2957 Y-75.417
G1 X47.4076 Y-75.7688
G1 X47.4754 Y-76.1316
G1 X47.4981 Y-76.5
G1 X47.4754 Y-76.8685
G1 X47.4076 Y-77.2313
G1 X47.2957 Y-77.583
G1 X47.1413 Y-77.9184
G1 X46.947 Y-78.2322
G1 X46.7156 Y-78.5198
G1 X46.4506 Y-78.7768
G1 X46.1561 Y-78.9992
G1 X45.8364 Y-79.1838
G1 X45.4964 Y-79.3276
G1 X45.1414 Y-79.4287
G1 X44.7767 Y-79.4853
G1 X44.4076 Y-79.4967
G1 X44.0401 Y-79.4627
G1 X43.6796 Y-79.3837
G1 X43.3314 Y-79.261
G1 X43.0009 Y-79.0964
G1 F200.0 Z-1.0
G1 F350.0 X42.6933 Y-78.8926
G1 X42.413 Y-78.6524
G1 X42.1643 Y-78.3796
G1 X41.9509 Y-78.0782
G1 X41.7763 Y-77.753
G1 X41.643 Y-77.4089
G1 X41.553 Y-77.0509
G1 X41.5076 Y-76.6845
G1 Y-76.3155
G1 X41.553 Y-75.9491
G1 X41.643 Y-75.5911
G1 X41.7763 Y-75.247
G1 X41.9509 Y-74.9218
G1 X42.1642 Y-74.6205
G1 X42.413 Y-74.3477
G1 X42.6933 Y-74.1074
G1 X43.0009 Y-73.9036
G1 X43.3314 Y-73.739
G1 X43.6796 Y-73.6163
G1 X44.0401 Y-73.5373
G1 X44.4076 Y-73.5033
G1 X44.7767 Y-73.5147
G1 X45.1414 Y-73.5713
G1 X45.4963 Y-73.6723
G1 X45.8364 Y-73.8163
G1 X46.1561 Y-74.0008
G1 X46.4506 Y-74.2232
G1 X46.7156 Y-74.4802
G1 X46.947 Y-74.7678
G1 X47.1413 Y-75.0816
G1 X47.2957 Y-75.417
G1 X47.4076 Y-75.7688
G1 X47.4754 Y-76.1316
G1 X47.4981 Y-76.5
G1 X47.4754 Y-76.8685
G1 X47.4076 Y-77.2313
G1 X47.2957 Y-77.583
G1 X47.1413 Y-77.9184
G1 X46.947 Y-78.2322
G1 X46.7156 Y-78.5198
G1 X46.4506 Y-78.7768
G1 X46.1561 Y-78.9992
G1 X45.8364 Y-79.1838
G1 X45.4964 Y-79.3276
G1 X45.1414 Y-79.4287
G1 X44.7767 Y-79.4853
G1 X44.4076 Y-79.4967
G1 X44.0401 Y-79.4627
G1 X43.6796 Y-79.3837
G1 X43.3314 Y-79.261
G1 X43.0009 Y-79.0964
G1 F200.0 Z-1.5
G1 F350.0 X42.6933 Y-78.8926
G1 X42.413 Y-78.6524
G1 X42.1643 Y-78.3796
G1 X41.9509 Y-78.0782
G1 X41.7763 Y-77.753
G1 X41.643 Y-77.4089
G1 X41.553 Y-77.0509
G1 X41.5076 Y-76.6845
G1 Y-76.3155
G1 X41.553 Y-75.9491
G1 X41.643 Y-75.5911
G1 X41.7763 Y-75.247
G1 X41.9509 Y-74.9218
G1 X42.1642 Y-74.6205
G1 X42.413 Y-74.3477
G1 X42.6933 Y-74.1074
G1 X43.0009 Y-73.9036
G1 X43.3314 Y-73.739
G1 X43.6796 Y-73.6163
G1 X44.0401 Y-73.5373
G1 X44.4076 Y-73.5033
G1 X44.7767 Y-73.5147
G1 X45.1414 Y-73.5713
G1 X45.4963 Y-73.6723
G1 X45.8364 Y-73.8163
G1 X46.1561 Y-74.0008
G1 X46.4506 Y-74.2232
G1 X46.7156 Y-74.4802
G1 X46.947 Y-74.7678
G1 X47.1413 Y-75.0816
G1 X47.2957 Y-75.417
G1 X47.4076 Y-75.7688
G1 X47.4754 Y-76.1316
G1 X47.4981 Y-76.5
G1 X47.4754 Y-76.8685
G1 X47.4076 Y-77.2313
G1 X47.2957 Y-77.583
G1 X47.1413 Y-77.9184
G1 X46.947 Y-78.2322
G1 X46.7156 Y-78.5198
G1 X46.4506 Y-78.7768
G1 X46.1561 Y-78.9992
G1 X45.8364 Y-79.1838
G1 X45.4964 Y-79.3276
G1 X45.1414 Y-79.4287
G1 X44.7767 Y-79.4853
G1 X44.4076 Y-79.4967
G1 X44.0401 Y-79.4627
G1 X43.6796 Y-79.3837
G1 X43.3314 Y-79.261
G1 X43.0009 Y-79.0964
G1 F200.0 Z-2.0
G1 F350.0 X42.6933 Y-78.8926
G1 X42.413 Y-78.6524
G1 X42.1643 Y-78.3796
G1 X41.9509 Y-78.0782
G1 X41.7763 Y-77.753
G1 X41.643 Y-77.4089
G1 X41.553 Y-77.0509
G1 X41.5076 Y-76.6845
G1 Y-76.3155
G1 X41.553 Y-75.9491
G1 X41.643 Y-75.5911
G1 X41.7763 Y-75.247
G1 X41.9509 Y-74.9218
G1 X42.1642 Y-74.6205
G1 X42.413 Y-74.3477
G1 X42.6933 Y-74.1074
G1 X43.0009 Y-73.9036
G1 X43.3314 Y-73.739
G1 X43.6796 Y-73.6163
G1 X44.0401 Y-73.5373
G1 X44.4076 Y-73.5033
G1 X44.7767 Y-73.5147
G1 X45.1414 Y-73.5713
G1 X45.4963 Y-73.6723
G1 X45.8364 Y-73.8163
G1 X46.1561 Y-74.0008
G1 X46.4506 Y-74.2232
G1 X46.7156 Y-74.4802
G1 X46.947 Y-74.7678
G1 X47.1413 Y-75.0816
G1 X47.2957 Y-75.417
G1 X47.4076 Y-75.7688
G1 X47.4754 Y-76.1316
G1 X47.4981 Y-76.5
G1 X47.4754 Y-76.8685
G1 X47.4076 Y-77.2313
G1 X47.2957 Y-77.583
G1 X47.1413 Y-77.9184
G1 X46.947 Y-78.2322
G1 X46.7156 Y-78.5198
G1 X46.4506 Y-78.7768
G1 X46.1561 Y-78.9992
G1 X45.8364 Y-79.1838
G1 X45.4964 Y-79.3276
G1 X45.1414 Y-79.4287
G1 X44.7767 Y-79.4853
G1 X44.4076 Y-79.4967
G1 X44.0401 Y-79.4627
G1 X43.6796 Y-79.3837
G1 X43.3314 Y-79.261
G1 X43.0009 Y-79.0964
G1 F200.0 Z-2.5
G1 F350.0 X42.6933 Y-78.8926
G1 X42.413 Y-78.6524
G1 X42.1643 Y-78.3796
G1 X41.9509 Y-78.0782
G1 X41.7763 Y-77.753
G1 X41.643 Y-77.4089
G1 X41.553 Y-77.0509
G1 X41.5076 Y-76.6845
G1 Y-76.3155
G1 X41.553 Y-75.9491
G1 X41.643 Y-75.5911
G1 X41.7763 Y-75.247
G1 X41.9509 Y-74.9218
G1 X42.1642 Y-74.6205
G1 X42.413 Y-74.3477
G1 X42.6933 Y-74.1074
G1 X43.0009 Y-73.9036
G1 X43.3314 Y-73.739
G1 X43.6796 Y-73.6163
G1 X44.0401 Y-73.5373
G1 X44.4076 Y-73.5033
G1 X44.7767 Y-73.5147
G1 X45.1414 Y-73.5713
G1 X45.4963 Y-73.6723
G1 X45.8364 Y-73.8163
G1 X46.1561 Y-74.0008
G1 X46.4506 Y-74.2232
G1 X46.7156 Y-74.4802
G1 X46.947 Y-74.7678
G1 X47.1413 Y-75.0816
G1 X47.2957 Y-75.417
G1 X47.4076 Y-75.7688
G1 X47.4754 Y-76.1316
G1 X47.4981 Y-76.5
G1 X47.4754 Y-76.8685
G1 X47.4076 Y-77.2313
G1 X47.2957 Y-77.583
G1 X47.1413 Y-77.9184
G1 X46.947 Y-78.2322
G1 X46.7156 Y-78.5198
G1 X46.4506 Y-78.7768
G1 X46.1561 Y-78.9992
G1 X45.8364 Y-79.1838
G1 X45.4964 Y-79.3276
G1 X45.1414 Y-79.4287
G1 X44.7767 Y-79.4853
G1 X44.4076 Y-79.4967
G1 X44.0401 Y-79.4627
G1 X43.6796 Y-79.3837
G1 X43.3314 Y-79.261
G1 X43.0009 Y-79.0964
G1 F200.0 Z-3.0
G1 F350.0 X42.6933 Y-78.8926
G1 X42.413 Y-78.6524
G1 X42.1643 Y-78.3796
G1 X41.9509 Y-78.0782
G1 X41.7763 Y-77.753
G1 X41.643 Y-77.4089
G1 X41.553 Y-77.0509
G1 X41.5076 Y-76.6845
G1 Y-76.3155
G1 X41.553 Y-75.9491
G1 X41.643 Y-75.5911
G1 X41.7763 Y-75.247
G1 X41.9509 Y-74.9218
G1 X42.1642 Y-74.6205
G1 X42.413 Y-74.3477
G1 X42.6933 Y-74.1074
G1 X43.0009 Y-73.9036
G1 X43.3314 Y-73.739
G1 X43.6796 Y-73.6163
G1 X44.0401 Y-73.5373
G1 X44.4076 Y-73.5033
G1 X44.7767 Y-73.5147
G1 X45.1414 Y-73.5713
G1 X45.4963 Y-73.6723
G1 X45.8364 Y-73.8163
G1 X46.1561 Y-74.0008
G1 X46.4506 Y-74.2232
G1 X46.7156 Y-74.4802
G1 X46.947 Y-74.7678
G1 X47.1413 Y-75.0816
G1 X47.2957 Y-75.417
G1 X47.4076 Y-75.7688
G1 X47.4754 Y-76.1316
G1 X47.4981 Y-76.5
G1 X47.4754 Y-76.8685
G1 X47.4076 Y-77.2313
G1 X47.2957 Y-77.583
G1 X47.1413 Y-77.9184
G1 X46.947 Y-78.2322
G1 X46.7156 Y-78.5198
G1 X46.4506 Y-78.7768
G1 X46.1561 Y-78.9992
G1 X45.8364 Y-79.1838
G1 X45.4964 Y-79.3276
G1 X45.1414 Y-79.4287
G1 X44.7767 Y-79.4853
G1 X44.4076 Y-79.4967
G1 X44.0401 Y-79.4627
G1 X43.6796 Y-79.3837
G1 X43.3314 Y-79.261
G1 X43.0009 Y-79.0964
G1 F200.0 Z-3.175
G1 F350.0 X42.6933 Y-78.8926
G1 X42.413 Y-78.6524
G1 X42.1643 Y-78.3796
G1 X41.9509 Y-78.0782
G1 X41.7763 Y-77.753
G1 X41.643 Y-77.4089
G1 X41.553 Y-77.0509
G1 X41.5076 Y-76.6845
G1 Y-76.3155
G1 X41.553 Y-75.9491
G1 X41.643 Y-75.5911
G1 X41.7763 Y-75.247
G1 X41.9509 Y-74.9218
G1 X42.1642 Y-74.6205
G1 X42.413 Y-74.3477
G1 X42.6933 Y-74.1074
G1 X43.0009 Y-73.9036
G1 X43.3314 Y-73.739
G1 X43.6796 Y-73.6163
G1 X44.0401 Y-73.5373
G1 X44.4076 Y-73.5033
G1 X44.7767 Y-73.5147
G1 X45.1414 Y-73.5713
G1 X45.4963 Y-73.6723
G1 X45.8364 Y-73.8163
G1 X46.1561 Y-74.0008
G1 X46.4506 Y-74.2232
G1 X46.7156 Y-74.4802
G1 X46.947 Y-74.7678
G1 X47.1413 Y-75.0816
G1 X47.2957 Y-75.417
G1 X47.4076 Y-75.7688
G1 X47.4754 Y-76.1316
G1 X47.4981 Y-76.5
G1 X47.4754 Y-76.8685
G1 X47.4076 Y-77.2313
G1 X47.2957 Y-77.583
G1 X47.1413 Y-77.9184
G1 X46.947 Y-78.2322
G1 X46.7156 Y-78.5198
G1 X46.4506 Y-78.7768
G1 X46.1561 Y-78.9992
G1 X45.8364 Y-79.1838
G1 X45.4964 Y-79.3276
G1 X45.1414 Y-79.4287
G1 X44.7767 Y-79.4853
G1 X44.4076 Y-79.4967
G1 X44.0401 Y-79.4627
G1 X43.6796 Y-79.3837
G1 X43.3314 Y-79.261
G1 X43.0009 Y-79.0964
G0 Z2.0
G0 X79.2419 Y-105.6797
G0 Z1.0
G1 F200.0 Z-0.5
G1 F350.0 X79.5059 Y-105.3405
G1 X79.7916 Y-105.0196
G1 X80.098 Y-104.7183
G1 X80.4238 Y-104.4377
G1 X80.7671 Y-104.1794
G1 X81.127 Y-103.9443
G1 X81.5015 Y-103.7335
G1 X81.8892 Y-103.548
G1 X82.2882 Y-103.3885
G1 X82.697 Y-103.2557
G1 X83.1138 Y-103.1501
G1 X83.5364 Y-103.0724
G1 X83.9633 Y-103.0227
G1 X84.4008 Y-103.001
G1 X113.8677
G1 X114.3223 Y-103.0085
G1 X114.7505 Y-103.0441
G1 X115.176 Y-103.1077
G1 X115.5954 Y-103.1994
G1 X116.0088 Y-103.3187
G1 X116.4124 Y-103.4649
G1 X116.806 Y-103.6376
G1 X117.1873 Y-103.8359
G1 X117.5548 Y-104.059
G1 X117.9065 Y-104.3057
G1 X118.241 Y-104.5752
G1 X118.5575 Y-104.8664
G1 X118.8541 Y-105.1781
G1 X119.1294 Y-105.508
G1 X119.3811 Y-105.855
G1 X119.6101 Y-106.219
G1 X119.8149 Y-106.5975
G1 X119.9945 Y-106.9887
G1 X120.1477 Y-107.3898
G1 X120.2732 Y-107.8003
G1 X120.372 Y-108.2184
G1 X120.4423 Y-108.643
G1 X120.4856 Y-109.0709
G1 X120.4995 Y-109.5
G1 X120.4856 Y-109.9291
G1 X120.4423 Y-110.357
G1 X120.372 Y-110.7816
G1 X120.2732 Y-111.1997
G1 X120.1477 Y-111.6103
G1 X119.9945 Y-112.0114
G1 X119.8149 Y-112.4025
G1 X119.6101 Y-112.7811
G1 X119.3812 Y-113.145
G1 X119.1294 Y-113.492
G1 X118.8541 Y-113.8219
G1 X118.5575 Y-114.1335
G1 X118.241 Y-114.4248
G1 X117.9064 Y-114.6944
G1 X117.5548 Y-114.9411
G1 X117.1873 Y-115.1642
G1 X116.8059 Y-115.3625
G1 X116.4124 Y-115.5352
G1 X116.0088 Y-115.6813
G1 X115.5954 Y-115.8006
G1 X115.176 Y-115.8923
G1 X114.7505 Y-115.956
G1 X114.3224 Y-115.9915
G1 X113.8677 Y-115.999
G1 X84.4008
G1 X83.9632 Y-115.9773
G1 X83.5364 Y-115.9276
G1 X83.1137 Y-115.8499
G1 X82.697 Y-115.7444
G1 X82.2883 Y-115.6116
G1 X81.8892 Y-115.452
G1 X81.5015 Y-115.2665
G1 X81.127 Y-115.0557
G1 X80.7672 Y-114.8206
G1 X80.4237 Y-114.5623
G1 X80.098 Y-114.2818
G1 X79.7916 Y-113.9804
G1 X79.5058 Y-113.6595
G1 X79.2419 Y-113.3203
G1 X79.0008 Y-112.9643
G1 X78.7838 Y-112.5933
G1 X78.5919 Y-112.2089
G1 X78.4259 Y-111.8125
G1 X78.2862 Y-111.4059
G1 X78.1739 Y-110.9912
G1 X78.0892 Y-110.5699
G1 X78.0325 Y-110.1437
G1 X78.0041 Y-109.7149
G1 Y-109.2851
G1 X78.0325 Y-108.8563
G1 X78.0892 Y-108.4301
G1 X78.1739 Y-108.0088
G1 X78.2862 Y-107.5941
G1 X78.4259 Y-107.1876
G1 X78.5919 Y-106.791
G1 X78.7838 Y-106.4067
G1 X79.0008 Y-106.0357
G1 X79.2419 Y-105.6797
G1 F200.0 Z-1.0
G1 F350.0 X79.5059 Y-105.3405
G1 X79.7916 Y-105.0196
G1 X80.098 Y-104.7183
G1 X80.4238 Y-104.4377
G1 X80.7671 Y-104.1794
G1 X81.127 Y-103.9443
G1 X81.5015 Y-103.7335
G1 X81.8892 Y-103.548
G1 X82.2882 Y-103.3885
G1 X82.697 Y-103.2557
G1 X83.1138 Y-103.1501
G1 X83.5364 Y-103.0724
G1 X83.9633 Y-103.0227
G1 X84.4008 Y-103.001
G1 X113.8677
G1 X114.3223 Y-103.0085
G1 X114.7505 Y-103.0441
G1 X115.176 Y-103.1077
G1 X115.5954 Y-103.1994
G1 X116.0088 Y-103.3187
G1 X116.4124 Y-103.4649
G1 X116.806 Y-103.6376
G1 X117.1873 Y-103.8359
G1 X117.5548 Y-104.059
G1 X117.9065 Y-104.3057
G1 X118.241 Y-104.5752
G1 X118.5575 Y-104.8664
G1 X118.8541 Y-105.1781
G1 X119.1294 Y-105.508
G1 X119.3811 Y-105.855
G1 X119.6101 Y-106.219
G1 X119.8149 Y-106.5975
G1 X119.9945 Y-106.9887
G1 X120.1477 Y-107.3898
G1 X120.2732 Y-107.8003
G1 X120.372 Y-108.2184
G1 X120.4423 Y-108.643
G1 X120.4856 Y-109.0709
G1 X120.4995 Y-109.5
G1 X120.4856 Y-109.9291
G1 X120.4423 Y-110.357
G1 X120.372 Y-110.7816
G1 X120.2732 Y-111.1997
G1 X120.1477 Y-111.6103
G1 X119.9945 Y-112.0114
G1 X119.8149 Y-112.4025
G1 X119.6101 Y-112.7811
G1 X119.3812 Y-113.145
G1 X119.1294 Y-113.492
G1 X118.8541 Y-113.8219
G1 X118.5575 Y-114.1335
G1 X118.241 Y-114.4248
G1 X117.9064 Y-114.6944
G1 X117.5548 Y-114.9411
G1 X117.1873 Y-115.1642
G1 X116.8059 Y-115.3625
G1 X116.4124 Y-115.5352
G1 X116.0088 Y-115.6813
G1 X115.5954 Y-115.8006
G1 X115.176 Y-115.8923
G1 X114.7505 Y-115.956
G1 X114.3224 Y-115.9915
G1 X113.8677 Y-115.999
G1 X84.4008
G1 X83.9632 Y-115.9773
G1 X83.5364 Y-115.9276
G1 X83.1137 Y-115.8499
G1 X82.697 Y-115.7444
G1 X82.2883 Y-115.6116
G1 X81.8892 Y-115.452
G1 X81.5015 Y-115.2665
G1 X81.127 Y-115.0557
G1 X80.7672 Y-114.8206
G1 X80.4237 Y-114.5623
G1 X80.098 Y-114.2818
G1 X79.7916 Y-113.9804
G1 X79.5058 Y-113.6595
G1 X79.2419 Y-113.3203
G1 X79.0008 Y-112.9643
G1 X78.7838 Y-112.5933
G1 X78.5919 Y-112.2089
G1 X78.4259 Y-111.8125
G1 X78.2862 Y-111.4059
G1 X78.1739 Y-110.9912
G1 X78.0892 Y-110.5699
G1 X78.0325 Y-110.1437
G1 X78.0041 Y-109.7149
G1 Y-109.2851
G1 X78.0325 Y-108.8563
G1 X78.0892 Y-108.4301
G1 X78.1739 Y-108.0088
G1 X78.2862 Y-107.5941
G1 X78.4259 Y-107.1876
G1 X78.5919 Y-106.791
G1 X78.7838 Y-106.4067
G1 X79.0008 Y-106.0357
G1 X79.2419 Y-105.6797
G1 F200.0 Z-1.5
G1 F350.0 X79.5059 Y-105.3405
G1 X79.7916 Y-105.0196
G1 X80.098 Y-104.7183
G1 X80.4238 Y-104.4377
G1 X80.7671 Y-104.1794
G1 X81.127 Y-103.9443
G1 X81.5015 Y-103.7335
G1 X81.8892 Y-103.548
G1 X82.2882 Y-103.3885
G1 X82.697 Y-103.2557
G1 X83.1138 Y-103.1501
G1 X83.5364 Y-103.0724
G1 X83.9633 Y-103.0227
G1 X84.4008 Y-103.001
G1 X113.8677
G1 X114.3223 Y-103.0085
G1 X114.7505 Y-103.0441
G1 X115.176 Y-103.1077
G1 X115.5954 Y-103.1994
G1 X116.0088 Y-103.3187
G1 X116.4124 Y-103.4649
G1 X116.806 Y-103.6376
G1 X117.1873 Y-103.8359
G1 X117.5548 Y-104.059
G1 X117.9065 Y-104.3057
G1 X118.241 Y-104.5752
G1 X118.5575 Y-104.8664
G1 X118.8541 Y-105.1781
G1 X119.1294 Y-105.508
G1 X119.3811 Y-105.855
G1 X119.6101 Y-106.219
G1 X119.8149 Y-106.5975
G1 X119.9945 Y-106.9887
G1 X120.1477 Y-107.3898
G1 X120.2732 Y-107.8003
G1 X120.372 Y-108.2184
G1 X120.4423 Y-108.643
G1 X120.4856 Y-109.0709
G1 X120.4995 Y-109.5
G1 X120.4856 Y-109.9291
G1 X120.4423 Y-110.357
G1 X120.372 Y-110.7816
G1 X120.2732 Y-111.1997
G1 X120.1477 Y-111.6103
G1 X119.9945 Y-112.0114
G1 X119.8149 Y-112.4025
G1 X119.6101 Y-112.7811
G1 X119.3812 Y-113.145
G1 X119.1294 Y-113.492
G1 X118.8541 Y-113.8219
G1 X118.5575 Y-114.1335
G1 X118.241 Y-114.4248
G1 X117.9064 Y-114.6944
G1 X117.5548 Y-114.9411
G1 X117.1873 Y-115.1642
G1 X116.8059 Y-115.3625
G1 X116.4124 Y-115.5352
G1 X116.0088 Y-115.6813
G1 X115.5954 Y-115.8006
G1 X115.176 Y-115.8923
G1 X114.7505 Y-115.956
G1 X114.3224 Y-115.9915
G1 X113.8677 Y-115.999
G1 X84.4008
G1 X83.9632 Y-115.9773
G1 X83.5364 Y-115.9276
G1 X83.1137 Y-115.8499
G1 X82.697 Y-115.7444
G1 X82.2883 Y-115.6116
G1 X81.8892 Y-115.452
G1 X81.5015 Y-115.2665
G1 X81.127 Y-115.0557
G1 X80.7672 Y-114.8206
G1 X80.4237 Y-114.5623
G1 X80.098 Y-114.2818
G1 X79.7916 Y-113.9804
G1 X79.5058 Y-113.6595
G1 X79.2419 Y-113.3203
G1 X79.0008 Y-112.9643
G1 X78.7838 Y-112.5933
G1 X78.5919 Y-112.2089
G1 X78.4259 Y-111.8125
G1 X78.2862 Y-111.4059
G1 X78.1739 Y-110.9912
G1 X78.0892 Y-110.5699
G1 X78.0325 Y-110.1437
G1 X78.0041 Y-109.7149
G1 Y-109.2851
G1 X78.0325 Y-108.8563
G1 X78.0892 Y-108.4301
G1 X78.1739 Y-108.0088
G1 X78.2862 Y-107.5941
G1 X78.4259 Y-107.1876
G1 X78.5919 Y-106.791
G1 X78.7838 Y-106.4067
G1 X79.0008 Y-106.0357
G1 X79.2419 Y-105.6797
G1 F200.0 Z-2.0
G1 F350.0 X79.5059 Y-105.3405
G1 X79.7916 Y-105.0196
G1 X80.098 Y-104.7183
G1 X80.4238 Y-104.4377
G1 X80.7671 Y-104.1794
G1 X81.127 Y-103.9443
G1 X81.5015 Y-103.7335
G1 X81.8892 Y-103.548
G1 X82.2882 Y-103.3885
G1 X82.697 Y-103.2557
G1 X83.1138 Y-103.1501
G1 X83.5364 Y-103.0724
G1 X83.9633 Y-103.0227
G1 X84.4008 Y-103.001
G1 X113.8677
G1 X114.3223 Y-103.0085
G1 X114.7505 Y-103.0441
G1 X115.176 Y-103.1077
G1 X115.5954 Y-103.1994
G1 X116.0088 Y-103.3187
G1 X116.4124 Y-103.4649
G1 X116.806 Y-103.6376
G1 X117.1873 Y-103.8359
G1 X117.5548 Y-104.059
G1 X117.9065 Y-104.3057
G1 X118.241 Y-104.5752
G1 X118.5575 Y-104.8664
G1 X118.8541 Y-105.1781
G1 X119.1294 Y-105.508
G1 X119.3811 Y-105.855
G1 X119.6101 Y-106.219
G1 X119.8149 Y-106.5975
G1 X119.9945 Y-106.9887
G1 X120.1477 Y-107.3898
G1 X120.2732 Y-107.8003
G1 X120.372 Y-108.2184
G1 X120.4423 Y-108.643
G1 X120.4856 Y-109.0709
G1 X120.4995 Y-109.5
G1 X120.4856 Y-109.9291
G1 X120.4423 Y-110.357
G1 X120.372 Y-110.7816
G1 X120.2732 Y-111.1997
G1 X120.1477 Y-111.6103
G1 X119.9945 Y-112.0114
G1 X119.8149 Y-112.4025
G1 X119.6101 Y-112.7811
G1 X119.3812 Y-113.145
G1 X119.1294 Y-113.492
G1 X118.8541 Y-113.8219
G1 X118.5575 Y-114.1335
G1 X118.241 Y-114.4248
G1 X117.9064 Y-114.6944
G1 X117.5548 Y-114.9411
G1 X117.1873 Y-115.1642
G1 X116.8059 Y-115.3625
G1 X116.4124 Y-115.5352
G1 X116.0088 Y-115.6813
G1 X115.5954 Y-115.8006
G1 X115.176 Y-115.8923
G1 X114.7505 Y-115.956
G1 X114.3224 Y-115.9915
G1 X113.8677 Y-115.999
G1 X84.4008
G1 X83.9632 Y-115.9773
G1 X83.5364 Y-115.9276
G1 X83.1137 Y-115.8499
G1 X82.697 Y-115.7444
G1 X82.2883 Y-115.6116
G1 X81.8892 Y-115.452
G1 X81.5015 Y-115.2665
G1 X81.127 Y-115.0557
G1 X80.7672 Y-114.8206
G1 X80.4237 Y-114.5623
G1 X80.098 Y-114.2818
G1 X79.7916 Y-113.9804
G1 X79.5058 Y-113.6595
G1 X79.2419 Y-113.3203
G1 X79.0008 Y-112.9643
G1 X78.7838 Y-112.5933
G1 X78.5919 Y-112.2089
G1 X78.4259 Y-111.8125
G1 X78.2862 Y-111.4059
G1 X78.1739 Y-110.9912
G1 X78.0892 Y-110.5699
G1 X78.0325 Y-110.1437
G1 X78.0041 Y-109.7149
G1 Y-109.2851
G1 X78.0325 Y-108.8563
G1 X78.0892 Y-108.4301
G1 X78.1739 Y-108.0088
G1 X78.2862 Y-107.5941
G1 X78.4259 Y-107.1876
G1 X78.5919 Y-106.791
G1 X78.7838 Y-106.4067
G1 X79.0008 Y-106.0357
G1 X79.2419 Y-105.6797
G1 F200.0 Z-2.5
G1 F350.0 X79.5059 Y-105.3405
G1 X79.7916 Y-105.0196
G1 X80.098 Y-104.7183
G1 X80.4238 Y-104.4377
G1 X80.7671 Y-104.1794
G1 X81.127 Y-103.9443
G1 X81.5015 Y-103.7335
G1 X81.8892 Y-103.548
G1 X82.2882 Y-103.3885
G1 X82.697 Y-103.2557
G1 X83.1138 Y-103.1501
G1 X83.5364 Y-103.0724
G1 X83.9633 Y-103.0227
G1 X84.4008 Y-103.001
G1 X113.8677
G1 X114.3223 Y-103.0085
G1 X114.7505 Y-103.0441
G1 X115.176 Y-103.1077
G1 X115.5954 Y-103.1994
G1 X116.0088 Y-103.3187
G1 X116.4124 Y-103.4649
G1 X116.806 Y-103.6376
G1 X117.1873 Y-103.8359
G1 X117.5548 Y-104.059
G1 X117.9065 Y-104.3057
G1 X118.241 Y-104.5752
G1 X118.5575 Y-104.8664
G1 X118.8541 Y-105.1781
G1 X119.1294 Y-105.508
G1 X119.3811 Y-105.855
G1 X119.6101 Y-106.219
G1 X119.8149 Y-106.5975
G1 X119.9945 Y-106.9887
G1 X120.1477 Y-107.3898
G1 X120.2732 Y-107.8003
G1 X120.372 Y-108.2184
G1 X120.4423 Y-108.643
G1 X120.4856 Y-109.0709
G1 X120.4995 Y-109.5
G1 X120.4856 Y-109.9291
G1 X120.4423 Y-110.357
G1 X120.372 Y-110.7816
G1 X120.2732 Y-111.1997
G1 X120.1477 Y-111.6103
G1 X119.9945 Y-112.0114
G1 X119.8149 Y-112.4025
G1 X119.6101 Y-112.7811
G1 X119.3812 Y-113.145
G1 X119.1294 Y-113.492
G1 X118.8541 Y-113.8219
G1 X118.5575 Y-114.1335
G1 X118.241 Y-114.4248
G1 X117.9064 Y-114.6944
G1 X117.5548 Y-114.9411
G1 X117.1873 Y-115.1642
G1 X116.8059 Y-115.3625
G1 X116.4124 Y-115.5352
G1 X116.0088 Y-115.6813
G1 X115.5954 Y-115.8006
G1 X115.176 Y-115.8923
G1 X114.7505 Y-115.956
G1 X114.3224 Y-115.9915
G1 X113.8677 Y-115.999
G1 X84.4008
G1 X83.9632 Y-115.9773
G1 X83.5364 Y-115.9276
G1 X83.1137 Y-115.8499
G1 X82.697 Y-115.7444
G1 X82.2883 Y-115.6116
G1 X81.8892 Y-115.452
G1 X81.5015 Y-115.2665
G1 X81.127 Y-115.0557
G1 X80.7672 Y-114.8206
G1 X80.4237 Y-114.5623
G1 X80.098 Y-114.2818
G1 X79.7916 Y-113.9804
G1 X79.5058 Y-113.6595
G1 X79.2419 Y-113.3203
G1 X79.0008 Y-112.9643
G1 X78.7838 Y-112.5933
G1 X78.5919 Y-112.2089
G1 X78.4259 Y-111.8125
G1 X78.2862 Y-111.4059
G1 X78.1739 Y-110.9912
G1 X78.0892 Y-110.5699
G1 X78.0325 Y-110.1437
G1 X78.0041 Y-109.7149
G1 Y-109.2851
G1 X78.0325 Y-108.8563
G1 X78.0892 Y-108.4301
G1 X78.1739 Y-108.0088
G1 X78.2862 Y-107.5941
G1 X78.4259 Y-107.1876
G1 X78.5919 Y-106.791
G1 X78.7838 Y-106.4067
G1 X79.0008 Y-106.0357
G1 X79.2419 Y-105.6797
G1 F200.0 Z-3.0
G1 F350.0 X79.5059 Y-105.3405
G1 X79.7916 Y-105.0196
G1 X80.098 Y-104.7183
G1 X80.4238 Y-104.4377
G1 X80.7671 Y-104.1794
G1 X81.127 Y-103.9443
G1 X81.5015 Y-103.7335
G1 X81.8892 Y-103.548
G1 X82.2882 Y-103.3885
G1 X82.697 Y-103.2557
G1 X83.1138 Y-103.1501
G1 X83.5364 Y-103.0724
G1 X83.9633 Y-103.0227
G1 X84.4008 Y-103.001
G1 X113.8677
G1 X114.3223 Y-103.0085
G1 X114.7505 Y-103.0441
G1 X115.176 Y-103.1077
G1 X115.5954 Y-103.1994
G1 X116.0088 Y-103.3187
G1 X116.4124 Y-103.4649
G1 X116.806 Y-103.6376
G1 X117.1873 Y-103.8359
G1 X117.5548 Y-104.059
G1 X117.9065 Y-104.3057
G1 X118.241 Y-104.5752
G1 X118.5575 Y-104.8664
G1 X118.8541 Y-105.1781
G1 X119.1294 Y-105.508
G1 X119.3811 Y-105.855
G1 X119.6101 Y-106.219
G1 X119.8149 Y-106.5975
G1 X119.9945 Y-106.9887
G1 X120.1477 Y-107.3898
G1 X120.2732 Y-107.8003
G1 X120.372 Y-108.2184
G1 X120.4423 Y-108.643
G1 X120.4856 Y-109.0709
G1 X120.4995 Y-109.5
G1 X120.4856 Y-109.9291
G1 X120.4423 Y-110.357
G1 X120.372 Y-110.7816
G1 X120.2732 Y-111.1997
G1 X120.1477 Y-111.6103
G1 X119.9945 Y-112.0114
G1 X119.8149 Y-112.4025
G1 X119.6101 Y-112.7811
G1 X119.3812 Y-113.145
G1 X119.1294 Y-113.492
G1 X118.8541 Y-113.8219
G1 X118.5575 Y-114.1335
G1 X118.241 Y-114.4248
G1 X117.9064 Y-114.6944
G1 X117.5548 Y-114.9411
G1 X117.1873 Y-115.1642
G1 X116.8059 Y-115.3625
G1 X116.4124 Y-115.5352
G1 X116.0088 Y-115.6813
G1 X115.5954 Y-115.8006
G1 X115.176 Y-115.8923
G1 X114.7505 Y-115.956
G1 X114.3224 Y-115.9915
G1 X113.8677 Y-115.999
G1 X84.4008
G1 X83.9632 Y-115.9773
G1 X83.5364 Y-115.9276
G1 X83.1137 Y-115.8499
G1 X82.697 Y-115.7444
G1 X82.2883 Y-115.6116
G1 X81.8892 Y-115.452
G1 X81.5015 Y-115.2665
G1 X81.127 Y-115.0557
G1 X80.7672 Y-114.8206
G1 X80.4237 Y-114.5623
G1 X80.098 Y-114.2818
G1 X79.7916 Y-113.9804
G1 X79.5058 Y-113.6595
G1 X79.2419 Y-113.3203
G1 X79.0008 Y-112.9643
G1 X78.7838 Y-112.5933
G1 X78.5919 Y-112.2089
G1 X78.4259 Y-111.8125
G1 X78.2862 Y-111.4059
G1 X78.1739 Y-110.9912
G1 X78.0892 Y-110.5699
G1 X78.0325 Y-110.1437
G1 X78.0041 Y-109.7149
G1 Y-109.2851
G1 X78.0325 Y-108.8563
G1 X78.0892 Y-108.4301
G1 X78.1739 Y-108.0088
G1 X78.2862 Y-107.5941
G1 X78.4259 Y-107.1876
G1 X78.5919 Y-106.791
G1 X78.7838 Y-106.4067
G1 X79.0008 Y-106.0357
G1 X79.2419 Y-105.6797
G1 F200.0 Z-3.175
G1 F350.0 X79.5059 Y-105.3405
G1 X79.7916 Y-105.0196
G1 X80.098 Y-104.7183
G1 X80.4238 Y-104.4377
G1 X80.7671 Y-104.1794
G1 X81.127 Y-103.9443
G1 X81.5015 Y-103.7335
G1 X81.8892 Y-103.548
G1 X82.2882 Y-103.3885
G1 X82.697 Y-103.2557
G1 X83.1138 Y-103.1501
G1 X83.5364 Y-103.0724
G1 X83.9633 Y-103.0227
G1 X84.4008 Y-103.001
G1 X113.8677
G1 X114.3223 Y-103.0085
G1 X114.7505 Y-103.0441
G1 X115.176 Y-103.1077
G1 X115.5954 Y-103.1994
G1 X116.0088 Y-103.3187
G1 X116.4124 Y-103.4649
G1 X116.806 Y-103.6376
G1 X117.1873 Y-103.8359
G1 X117.5548 Y-104.059
G1 X117.9065 Y-104.3057
G1 X118.241 Y-104.5752
G1 X118.5575 Y-104.8664
G1 X118.8541 Y-105.1781
G1 X119.1294 Y-105.508
G1 X119.3811 Y-105.855
G1 X119.6101 Y-106.219
G1 X119.8149 Y-106.5975
G1 X119.9945 Y-106.9887
G1 X120.1477 Y-107.3898
G1 X120.2732 Y-107.8003
G1 X120.372 Y-108.2184
G1 X120.4423 Y-108.643
G1 X120.4856 Y-109.0709
G1 X120.4995 Y-109.5
G1 X120.4856 Y-109.9291
G1 X120.4423 Y-110.357
G1 X120.372 Y-110.7816
G1 X120.2732 Y-111.1997
G1 X120.1477 Y-111.6103
G1 X119.9945 Y-112.0114
G1 X119.8149 Y-112.4025
G1 X119.6101 Y-112.7811
G1 X119.3812 Y-113.145
G1 X119.1294 Y-113.492
G1 X118.8541 Y-113.8219
G1 X118.5575 Y-114.1335
G1 X118.241 Y-114.4248
G1 X117.9064 Y-114.6944
G1 X117.5548 Y-114.9411
G1 X117.1873 Y-115.1642
G1 X116.8059 Y-115.3625
G1 X116.4124 Y-115.5352
G1 X116.0088 Y-115.6813
G1 X115.5954 Y-115.8006
G1 X115.176 Y-115.8923
G1 X114.7505 Y-115.956
G1 X114.3224 Y-115.9915
G1 X113.8677 Y-115.999
G1 X84.4008
G1 X83.9632 Y-115.9773
G1 X83.5364 Y-115.9276
G1 X83.1137 Y-115.8499
G1 X82.697 Y-115.7444
G1 X82.2883 Y-115.6116
G1 X81.8892 Y-115.452
G1 X81.5015 Y-115.2665
G1 X81.127 Y-115.0557
G1 X80.7672 Y-114.8206
G1 X80.4237 Y-114.5623
G1 X80.098 Y-114.2818
G1 X79.7916 Y-113.9804
G1 X79.5058 Y-113.6595
G1 X79.2419 Y-113.3203
G1 X79.0008 Y-112.9643
G1 X78.7838 Y-112.5933
G1 X78.5919 Y-112.2089
G1 X78.4259 Y-111.8125
G1 X78.2862 Y-111.4059
G1 X78.1739 Y-110.9912
G1 X78.0892 Y-110.5699
G1 X78.0325 Y-110.1437
G1 X78.0041 Y-109.7149
G1 Y-109.2851
G1 X78.0325 Y-108.8563
G1 X78.0892 Y-108.4301
G1 X78.1739 Y-108.0088
G1 X78.2862 Y-107.5941
G1 X78.4259 Y-107.1876
G1 X78.5919 Y-106.791
G1 X78.7838 Y-106.4067
G1 X79.0008 Y-106.0357
G1 X79.2419 Y-105.6797
G0 Z2.0
G0 X127.3252 Y-92.9864
G0 Z1.0
G1 F200.0 Z-0.5
G1 F350.0 X127.246 Y-92.5954
G1 X127.206 Y-92.1989
G1 Y-60.1011
G1 X127.246 Y-59.7046
G1 X127.3252 Y-59.3136
G1 X127.443 Y-58.9319
G1 X127.5972 Y-58.565
G1 X127.7884 Y-58.2148
G1 X128.0123 Y-57.8854
G1 X128.2686 Y-57.5805
G1 X128.5547 Y-57.3016
G1 X128.8657 Y-57.0531
G1 X129.2003 Y-56.8372
G1 X129.5556 Y-56.6552
G1 X129.9271 Y-56.5094
G1 X130.31 Y-56.4015
G1 X130.7025 Y-56.3323
G1 X131.1 Y-56.3025
G1 X131.4991 Y-56.3124
G1 X131.8941 Y-56.362
G1 X132.2831 Y-56.4508
G1 X132.6613 Y-56.5777
G1 X133.0242 Y-56.7416
G1 X133.3695 Y-56.9408
G1 X133.6926 Y-57.1735
G1 X133.992 Y-57.4376
G1 X134.263 Y-57.7297
G1 X134.5038 Y-58.0475
G1 X134.7116 Y-58.3874
G1 X134.8845 Y-58.7469
G1 X135.0214 Y-59.1218
G1 X135.1195 Y-59.5074
G1 X135.1787 Y-59.9018
G1 X135.2 Y-60.3251
G1 Y-91.9749
G1 X135.1787 Y-92.3982
G1 X135.1195 Y-92.7926
G1 X135.0214 Y-93.1782
G1 X134.8845 Y-93.5531
G1 X134.7116 Y-93.9126
G1 X134.5038 Y-94.2525
G1 X134.263 Y-94.5703
G1 X133.992 Y-94.8625
G1 X133.6926 Y-95.1266
G1 X133.3695 Y-95.3592
G1 X133.0242 Y-95.5584
G1 X132.6613 Y-95.7223
G1 X132.2831 Y-95.8492
G1 X131.8941 Y-95.938
G1 X131.499 Y-95.9876
G1 X131.1 Y-95.9976
G1 X130.7026 Y-95.9677
G1 X130.31 Y-95.8985
G1 X129.9271 Y-95.7906
G1 X129.5556 Y-95.6448
G1 X129.2003 Y-95.4628
G1 X128.8657 Y-95.2469
G1 X128.5547 Y-94.9984
G1 X128.2686 Y-94.7195
G1 X128.0123 Y-94.4146
G1 X127.7884 Y-94.0852
G1 X127.5972 Y-93.735
G1 X127.443 Y-93.3681
G1 X127.3252 Y-92.9864
G1 F200.0 Z-1.0
G1 F350.0 X127.246 Y-92.5954
G1 X127.206 Y-92.1989
G1 Y-60.1011
G1 X127.246 Y-59.7046
G1 X127.3252 Y-59.3136
G1 X127.443 Y-58.9319
G1 X127.5972 Y-58.565
G1 X127.7884 Y-58.2148
G1 X128.0123 Y-57.8854
G1 X128.2686 Y-57.5805
G1 X128.5547 Y-57.3016
G1 X128.8657 Y-57.0531
G1 X129.2003 Y-56.8372
G1 X129.5556 Y-56.6552
G1 X129.9271 Y-56.5094
G1 X130.31 Y-56.4015
G1 X130.7025 Y-56.3323
G1 X131.1 Y-56.3025
G1 X131.4991 Y-56.3124
G1 X131.8941 Y-56.362
G1 X132.2831 Y-56.4508
G1 X132.6613 Y-56.5777
G1 X133.0242 Y-56.7416
G1 X133.3695 Y-56.9408
G1 X133.6926 Y-57.1735
G1 X133.992 Y-57.4376
G1 X134.263 Y-57.7297
G1 X134.5038 Y-58.0475
G1 X134.7116 Y-58.3874
G1 X134.8845 Y-58.7469
G1 X135.0214 Y-59.1218
G1 X135.1195 Y-59.5074
G1 X135.1787 Y-59.9018
G1 X135.2 Y-60.3251
G1 Y-91.9749
G1 X135.1787 Y-92.3982
G1 X135.1195 Y-92.7926
G1 X135.0214 Y-93.1782
G1 X134.8845 Y-93.5531
G1 X134.7116 Y-93.9126
G1 X134.5038 Y-94.2525
G1 X134.263 Y-94.5703
G1 X133.992 Y-94.8625
G1 X133.6926 Y-95.1266
G1 X133.3695 Y-95.3592
G1 X133.0242 Y-95.5584
G1 X132.6613 Y-95.7223
G1 X132.2831 Y-95.8492
G1 X131.8941 Y-95.938
G1 X131.499 Y-95.9876
G1 X131.1 Y-95.9976
G1 X130.7026 Y-95.9677
G1 X130.31 Y-95.8985
G1 X129.9271 Y-95.7906
G1 X129.5556 Y-95.6448
G1 X129.2003 Y-95.4628
G1 X128.8657 Y-95.2469
G1 X128.5547 Y-94.9984
G1 X128.2686 Y-94.7195
G1 X128.0123 Y-94.4146
G1 X127.7884 Y-94.0852
G1 X127.5972 Y-93.735
G1 X127.443 Y-93.3681
G1 X127.3252 Y-92.9864
G1 F200.0 Z-1.5
G1 F350.0 X127.246 Y-92.5954
G1 X127.206 Y-92.1989
G1 Y-60.1011
G1 X127.246 Y-59.7046
G1 X127.3252 Y-59.3136
G1 X127.443 Y-58.9319
G1 X127.5972 Y-58.565
G1 X127.7884 Y-58.2148
G1 X128.0123 Y-57.8854
G1 X128.2686 Y-57.5805
G1 X128.5547 Y-57.3016
G1 X128.8657 Y-57.0531
G1 X129.2003 Y-56.8372
G1 X129.5556 Y-56.6552
G1 X129.9271 Y-56.5094
G1 X130.31 Y-56.4015
G1 X130.7025 Y-56.3323
G1 X131.1 Y-56.3025
G1 X131.4991 Y-56.3124
G1 X131.8941 Y-56.362
G1 X132.2831 Y-56.4508
G1 X132.6613 Y-56.5777
G1 X133.0242 Y-56.7416
G1 X133.3695 Y-56.9408
G1 X133.6926 Y-57.1735
G1 X133.992 Y-57.4376
G1 X134.263 Y-57.7297
G1 X134.5038 Y-58.0475
G1 X134.7116 Y-58.3874
G1 X134.8845 Y-58.7469
G1 X135.0214 Y-59.1218
G1 X135.1195 Y-59.5074
G1 X135.1787 Y-59.9018
G1 X135.2 Y-60.3251
G1 Y-91.9749
G1 X135.1787 Y-92.3982
G1 X135.1195 Y-92.7926
G1 X135.0214 Y-93.1782
G1 X134.8845 Y-93.5531
G1 X134.7116 Y-93.9126
G1 X134.5038 Y-94.2525
G1 X134.263 Y-94.5703
G1 X133.992 Y-94.8625
G1 X133.6926 Y-95.1266
G1 X133.3695 Y-95.3592
G1 X133.0242 Y-95.5584
G1 X132.6613 Y-95.7223
G1 X132.2831 Y-95.8492
G1 X131.8941 Y-95.938
G1 X131.499 Y-95.9876
G1 X131.1 Y-95.9976
G1 X130.7026 Y-95.9677
G1 X130.31 Y-95.8985
G1 X129.9271 Y-95.7906
G1 X129.5556 Y-95.6448
G1 X129.2003 Y-95.4628
G1 X128.8657 Y-95.2469
G1 X128.5547 Y-94.9984
G1 X128.2686 Y-94.7195
G1 X128.0123 Y-94.4146
G1 X127.7884 Y-94.0852
G1 X127.5972 Y-93.735
G1 X127.443 Y-93.3681
G1 X127.3252 Y-92.9864
G1 F200.0 Z-2.0
G1 F350.0 X127.246 Y-92.5954
G1 X127.206 Y-92.1989
G1 Y-60.1011
G1 X127.246 Y-59.7046
G1 X127.3252 Y-59.3136
G1 X127.443 Y-58.9319
G1 X127.5972 Y-58.565
G1 X127.7884 Y-58.2148
G1 X128.0123 Y-57.8854
G1 X128.2686 Y-57.5805
G1 X128.5547 Y-57.3016
G1 X128.8657 Y-57.0531
G1 X129.2003 Y-56.8372
G1 X129.5556 Y-56.6552
G1 X129.9271 Y-56.5094
G1 X130.31 Y-56.4015
G1 X130.7025 Y-56.3323
G1 X131.1 Y-56.3025
G1 X131.4991 Y-56.3124
G1 X131.8941 Y-56.362
G1 X132.2831 Y-56.4508
G1 X132.6613 Y-56.5777
G1 X133.0242 Y-56.7416
G1 X133.3695 Y-56.9408
G1 X133.6926 Y-57.1735
G1 X133.992 Y-57.4376
G1 X134.263 Y-57.7297
G1 X134.5038 Y-58.0475
G1 X134.7116 Y-58.3874
G1 X134.8845 Y-58.7469
G1 X135.0214 Y-59.1218
G1 X135.1195 Y-59.5074
G1 X135.1787 Y-59.9018
G1 X135.2 Y-60.3251
G1 Y-91.9749
G1 X135.1787 Y-92.3982
G1 X135.1195 Y-92.7926
G1 X135.0214 Y-93.1782
G1 X134.8845 Y-93.5531
G1 X134.7116 Y-93.9126
G1 X134.5038 Y-94.2525
G1 X134.263 Y-94.5703
G1 X133.992 Y-94.8625
G1 X133.6926 Y-95.1266
G1 X133.3695 Y-95.3592
G1 X133.0242 Y-95.5584
G1 X132.6613 Y-95.7223
G1 X132.2831 Y-95.8492
G1 X131.8941 Y-95.938
G1 X131.499 Y-95.9876
G1 X131.1 Y-95.9976
G1 X130.7026 Y-95.9677
G1 X130.31 Y-95.8985
G1 X129.9271 Y-95.7906
G1 X129.5556 Y-95.6448
G1 X129.2003 Y-95.4628
G1 X128.8657 Y-95.2469
G1 X128.5547 Y-94.9984
G1 X128.2686 Y-94.7195
G1 X128.0123 Y-94.4146
G1 X127.7884 Y-94.0852
G1 X127.5972 Y-93.735
G1 X127.443 Y-93.3681
G1 X127.3252 Y-92.9864
G1 F200.0 Z-2.5
G1 F350.0 X127.246 Y-92.5954
G1 X127.206 Y-92.1989
G1 Y-60.1011
G1 X127.246 Y-59.7046
G1 X127.3252 Y-59.3136
G1 X127.443 Y-58.9319
G1 X127.5972 Y-58.565
G1 X127.7884 Y-58.2148
G1 X128.0123 Y-57.8854
G1 X128.2686 Y-57.5805
G1 X128.5547 Y-57.3016
G1 X128.8657 Y-57.0531
G1 X129.2003 Y-56.8372
G1 X129.5556 Y-56.6552
G1 X129.9271 Y-56.5094
G1 X130.31 Y-56.4015
G1 X130.7025 Y-56.3323
G1 X131.1 Y-56.3025
G1 X131.4991 Y-56.3124
G1 X131.8941 Y-56.362
G1 X132.2831 Y-56.4508
G1 X132.6613 Y-56.5777
G1 X133.0242 Y-56.7416
G1 X133.3695 Y-56.9408
G1 X133.6926 Y-57.1735
G1 X133.992 Y-57.4376
G1 X134.263 Y-57.7297
G1 X134.5038 Y-58.0475
G1 X134.7116 Y-58.3874
G1 X134.8845 Y-58.7469
G1 X135.0214 Y-59.1218
G1 X135.1195 Y-59.5074
G1 X135.1787 Y-59.9018
G1 X135.2 Y-60.3251
G1 Y-91.9749
G1 X135.1787 Y-92.3982
G1 X135.1195 Y-92.7926
G1 X135.0214 Y-93.1782
G1 X134.8845 Y-93.5531
G1 X134.7116 Y-93.9126
G1 X134.5038 Y-94.2525
G1 X134.263 Y-94.5703
G1 X133.992 Y-94.8625
G1 X133.6926 Y-95.1266
G1 X133.3695 Y-95.3592
G1 X133.0242 Y-95.5584
G1 X132.6613 Y-95.7223
G1 X132.2831 Y-95.8492
G1 X131.8941 Y-95.938
G1 X131.499 Y-95.9876
G1 X131.1 Y-95.9976
G1 X130.7026 Y-95.9677
G1 X130.31 Y-95.8985
G1 X129.9271 Y-95.7906
G1 X129.5556 Y-95.6448
G1 X129.2003 Y-95.4628
G1 X128.8657 Y-95.2469
G1 X128.5547 Y-94.9984
G1 X128.2686 Y-94.7195
G1 X128.0123 Y-94.4146
G1 X127.7884 Y-94.0852
G1 X127.5972 Y-93.735
G1 X127.443 Y-93.3681
G1 X127.3252 Y-92.9864
G1 F200.0 Z-3.0
G1 F350.0 X127.246 Y-92.5954
G1 X127.206 Y-92.1989
G1 Y-60.1011
G1 X127.246 Y-59.7046
G1 X127.3252 Y-59.3136
G1 X127.443 Y-58.9319
G1 X127.5972 Y-58.565
G1 X127.7884 Y-58.2148
G1 X128.0123 Y-57.8854
G1 X128.2686 Y-57.5805
G1 X128.5547 Y-57.3016
G1 X128.8657 Y-57.0531
G1 X129.2003 Y-56.8372
G1 X129.5556 Y-56.6552
G1 X129.9271 Y-56.5094
G1 X130.31 Y-56.4015
G1 X130.7025 Y-56.3323
G1 X131.1 Y-56.3025
G1 X131.4991 Y-56.3124
G1 X131.8941 Y-56.362
G1 X132.2831 Y-56.4508
G1 X132.6613 Y-56.5777
G1 X133.0242 Y-56.7416
G1 X133.3695 Y-56.9408
G1 X133.6926 Y-57.1735
G1 X133.992 Y-57.4376
G1 X134.263 Y-57.7297
G1 X134.5038 Y-58.0475
G1 X134.7116 Y-58.3874
G1 X134.8845 Y-58.7469
G1 X135.0214 Y-59.1218
G1 X135.1195 Y-59.5074
G1 X135.1787 Y-59.9018
G1 X135.2 Y-60.3251
G1 Y-91.9749
G1 X135.1787 Y-92.3982
G1 X135.1195 Y-92.7926
G1 X135.0214 Y-93.1782
G1 X134.8845 Y-93.5531
G1 X134.7116 Y-93.9126
G1 X134.5038 Y-94.2525
G1 X134.263 Y-94.5703
G1 X133.992 Y-94.8625
G1 X133.6926 Y-95.1266
G1 X133.3695 Y-95.3592
G1 X133.0242 Y-95.5584
G1 X132.6613 Y-95.7223
G1 X132.2831 Y-95.8492
G1 X131.8941 Y-95.938
G1 X131.499 Y-95.9876
G1 X131.1 Y-95.9976
G1 X130.7026 Y-95.9677
G1 X130.31 Y-95.8985
G1 X129.9271 Y-95.7906
G1 X129.5556 Y-95.6448
G1 X129.2003 Y-95.4628
G1 X128.8657 Y-95.2469
G1 X128.5547 Y-94.9984
G1 X128.2686 Y-94.7195
G1 X128.0123 Y-94.4146
G1 X127.7884 Y-94.0852
G1 X127.5972 Y-93.735
G1 X127.443 Y-93.3681
G1 X127.3252 Y-92.9864
G1 F200.0 Z-3.175
G1 F350.0 X127.246 Y-92.5954
G1 X127.206 Y-92.1989
G1 Y-60.1011
G1 X127.246 Y-59.7046
G1 X127.3252 Y-59.3136
G1 X127.443 Y-58.9319
G1 X127.5972 Y-58.565
G1 X127.7884 Y-58.2148
G1 X128.0123 Y-57.8854
G1 X128.2686 Y-57.5805
G1 X128.5547 Y-57.3016
G1 X128.8657 Y-57.0531
G1 X129.2003 Y-56.8372
G1 X129.5556 Y-56.6552
G1 X129.9271 Y-56.5094
G1 X130.31 Y-56.4015
G1 X130.7025 Y-56.3323
G1 X131.1 Y-56.3025
G1 X131.4991 Y-56.3124
G1 X131.8941 Y-56.362
G1 X132.2831 Y-56.4508
G1 X132.6613 Y-56.5777
G1 X133.0242 Y-56.7416
G1 X133.3695 Y-56.9408
G1 X133.6926 Y-57.1735
G1 X133.992 Y-57.4376
G1 X134.263 Y-57.7297
G1 X134.5038 Y-58.0475
G1 X134.7116 Y-58.3874
G1 X134.8845 Y-58.7469
G1 X135.0214 Y-59.1218
G1 X135.1195 Y-59.5074
G1 X135.1787 Y-59.9018
G1 X135.2 Y-60.3251
G1 Y-91.9749
G1 X135.1787 Y-92.3982
G1 X135.1195 Y-92.7926
G1 X135.0214 Y-93.1782
G1 X134.8845 Y-93.5531
G1 X134.7116 Y-93.9126
G1 X134.5038 Y-94.2525
G1 X134.263 Y-94.5703
G1 X133.992 Y-94.8625
G1 X133.6926 Y-95.1266
G1 X133.3695 Y-95.3592
G1 X133.0242 Y-95.5584
G1 X132.6613 Y-95.7223
G1 X132.2831 Y-95.8492
G1 X131.8941 Y-95.938
G1 X131.499 Y-95.9876
G1 X131.1 Y-95.9976
G1 X130.7026 Y-95.9677
G1 X130.31 Y-95.8985
G1 X129.9271 Y-95.7906
G1 X129.5556 Y-95.6448
G1 X129.2003 Y-95.4628
G1 X128.8657 Y-95.2469
G1 X128.5547 Y-94.9984
G1 X128.2686 Y-94.7195
G1 X128.0123 Y-94.4146
G1 X127.7884 Y-94.0852
G1 X127.5972 Y-93.735
G1 X127.443 Y-93.3681
G1 X127.3252 Y-92.9864
G0 Z2.0
G0 X150.6056 Y-123.2402
G0 Z1.0
G1 F200.0 Z-0.5
G1 F350.0 X150.769 Y-123.1761
G1 X150.9444 Y-123.1629
G1 X151.1155 Y-123.202
G1 X151.2672 Y-123.2896
G1 X151.3863 Y-123.4181
G1 X151.4626 Y-123.5765
G1 X151.4887 Y-123.75
G1 X151.4626 Y-123.9235
G1 X151.3863 Y-124.0819
G1 X151.2672 Y-124.2104
G1 X151.1155 Y-124.298
G1 X150.9444 Y-124.3371
G1 X150.769 Y-124.3239
G1 X150.6056 Y-124.2598
G1 X150.4681 Y-124.1502
G1 X150.3694 Y-124.0056
G1 X150.318 Y-123.8383
G1 Y-123.6617
G1 X150.3694 Y-123.4944
G1 X150.4681 Y-123.3498
G1 X150.6056 Y-123.2402
G1 F200.0 Z-1.0
G1 F350.0 X150.769 Y-123.1761
G1 X150.9444 Y-123.1629
G1 X151.1155 Y-123.202
G1 X151.2672 Y-123.2896
G1 X151.3863 Y-123.4181
G1 X151.4626 Y-123.5765
G1 X151.4887 Y-123.75
G1 X151.4626 Y-123.9235
G1 X151.3863 Y-124.0819
G1 X151.2672 Y-124.2104
G1 X151.1155 Y-124.298
G1 X150.9444 Y-124.3371
G1 X150.769 Y-124.3239
G1 X150.6056 Y-124.2598
G1 X150.4681 Y-124.1502
G1 X150.3694 Y-124.0056
G1 X150.318 Y-123.8383
G1 Y-123.6617
G1 X150.3694 Y-123.4944
G1 X150.4681 Y-123.3498
G1 X150.6056 Y-123.2402
G1 F200.0 Z-1.5
G1 F350.0 X150.769 Y-123.1761
G1 X150.9444 Y-123.1629
G1 X151.1155 Y-123.202
G1 X151.2672 Y-123.2896
G1 X151.3863 Y-123.4181
G1 X151.4626 Y-123.5765
G1 X151.4887 Y-123.75
G1 X151.4626 Y-123.9235
G1 X151.3863 Y-124.0819
G1 X151.2672 Y-124.2104
G1 X151.1155 Y-124.298
G1 X150.9444 Y-124.3371
G1 X150.769 Y-124.3239
G1 X150.6056 Y-124.2598
G1 X150.4681 Y-124.1502
G1 X150.3694 Y-124.0056
G1 X150.318 Y-123.8383
G1 Y-123.6617
G1 X150.3694 Y-123.4944
G1 X150.4681 Y-123.3498
G1 X150.6056 Y-123.2402
G1 F200.0 Z-2.0
G1 F350.0 X150.769 Y-123.1761
G1 X150.9444 Y-123.1629
G1 X151.1155 Y-123.202
G1 X151.2672 Y-123.2896
G1 X151.3863 Y-123.4181
G1 X151.4626 Y-123.5765
G1 X151.4887 Y-123.75
G1 X151.4626 Y-123.9235
G1 X151.3863 Y-124.0819
G1 X151.2672 Y-124.2104
G1 X151.1155 Y-124.298
G1 X150.9444 Y-124.3371
G1 X150.769 Y-124.3239
G1 X150.6056 Y-124.2598
G1 X150.4681 Y-124.1502
G1 X150.3694 Y-124.0056
G1 X150.318 Y-123.8383
G1 Y-123.6617
G1 X150.3694 Y-123.4944
G1 X150.4681 Y-123.3498
G1 X150.6056 Y-123.2402
G1 F200.0 Z-2.5
G1 F350.0 X150.769 Y-123.1761
G1 X150.9444 Y-123.1629
G1 X151.1155 Y-123.202
G1 X151.2672 Y-123.2896
G1 X151.3863 Y-123.4181
G1 X151.4626 Y-123.5765
G1 X151.4887 Y-123.75
G1 X151.4626 Y-123.9235
G1 X151.3863 Y-124.0819
G1 X151.2672 Y-124.2104
G1 X151.1155 Y-124.298
G1 X150.9444 Y-124.3371
G1 X150.769 Y-124.3239
G1 X150.6056 Y-124.2598
G1 X150.4681 Y-124.1502
G1 X150.3694 Y-124.0056
G1 X150.318 Y-123.8383
G1 Y-123.6617
G1 X150.3694 Y-123.4944
G1 X150.4681 Y-123.3498
G1 X150.6056 Y-123.2402
G1 F200.0 Z-3.0
G1 F350.0 X150.769 Y-123.1761
G1 X150.9444 Y-123.1629
G1 X151.1155 Y-123.202
G1 X151.2672 Y-123.2896
G1 X151.3863 Y-123.4181
G1 X151.4626 Y-123.5765
G1 X151.4887 Y-123.75
G1 X151.4626 Y-123.9235
G1 X151.3863 Y-124.0819
G1 X151.2672 Y-124.2104
G1 X151.1155 Y-124.298
G1 X150.9444 Y-124.3371
G1 X150.769 Y-124.3239
G1 X150.6056 Y-124.2598
G1 X150.4681 Y-124.1502
G1 X150.3694 Y-124.0056
G1 X150.318 Y-123.8383
G1 Y-123.6617
G1 X150.3694 Y-123.4944
G1 X150.4681 Y-123.3498
G1 X150.6056 Y-123.2402
G1 F200.0 Z-3.175
G1 F350.0 X150.769 Y-123.1761
G1 X150.9444 Y-123.1629
G1 X151.1155 Y-123.202
G1 X151.2672 Y-123.2896
G1 X151.3863 Y-123.4181
G1 X151.4626 Y-123.5765
G1 X151.4887 Y-123.75
G1 X151.4626 Y-123.9235
G1 X151.3863 Y-124.0819
G1 X151.2672 Y-124.2104
G1 X151.1155 Y-124.298
G1 X150.9444 Y-124.3371
G1 X150.769 Y-124.3239
G1 X150.6056 Y-124.2598
G1 X150.4681 Y-124.1502
G1 X150.3694 Y-124.0056
G1 X150.318 Y-123.8383
G1 Y-123.6617
G1 X150.3694 Y-123.4944
G1 X150.4681 Y-123.3498
G1 X150.6056 Y-123.2402
G0 Z2.0
G0 X150.9439 Y-5.5374
G0 Z1.0
G1 F200.0 Z-0.5
G1 F350.0 X150.7691 Y-5.5242
G1 X150.6059 Y-5.4602
G1 X150.4683 Y-5.3503
G1 X150.3694 Y-5.2055
G1 X150.318 Y-5.0379
G1 Y-4.8621
G1 X150.3694 Y-4.6945
G1 X150.4683 Y-4.5497
G1 X150.6059 Y-4.4398
G1 X150.7691 Y-4.3758
G1 X150.9439 Y-4.3626
G1 X151.1152 Y-4.402
G1 X151.2672 Y-4.4897
G1 X151.3864 Y-4.6184
G1 X151.4626 Y-4.7763
G1 X151.4887 Y-4.95
G1 X151.4626 Y-5.1237
G1 X151.3864 Y-5.2816
G1 X151.2672 Y-5.4103
G1 X151.1152 Y-5.498
G1 X150.9439 Y-5.5374
G1 F200.0 Z-1.0
G1 F350.0 X150.7691 Y-5.5242
G1 X150.6059 Y-5.4602
G1 X150.4683 Y-5.3503
G1 X150.3694 Y-5.2055
G1 X150.318 Y-5.0379
G1 Y-4.8621
G1 X150.3694 Y-4.6945
G1 X150.4683 Y-4.5497
G1 X150.6059 Y-4.4398
G1 X150.7691 Y-4.3758
G1 X150.9439 Y-4.3626
G1 X151.1152 Y-4.402
G1 X151.2672 Y-4.4897
G1 X151.3864 Y-4.6184
G1 X151.4626 Y-4.7763
G1 X151.4887 Y-4.95
G1 X151.4626 Y-5.1237
G1 X151.3864 Y-5.2816
G1 X151.2672 Y-5.4103
G1 X151.1152 Y-5.498
G1 X150.9439 Y-5.5374
G1 F200.0 Z-1.5
G1 F350.0 X150.7691 Y-5.5242
G1 X150.6059 Y-5.4602
G1 X150.4683 Y-5.3503
G1 X150.3694 Y-5.2055
G1 X150.318 Y-5.0379
G1 Y-4.8621
G1 X150.3694 Y-4.6945
G1 X150.4683 Y-4.5497
G1 X150.6059 Y-4.4398
G1 X150.7691 Y-4.3758
G1 X150.9439 Y-4.3626
G1 X151.1152 Y-4.402
G1 X151.2672 Y-4.4897
G1 X151.3864 Y-4.6184
G1 X151.4626 Y-4.7763
G1 X151.4887 Y-4.95
G1 X151.4626 Y-5.1237
G1 X151.3864 Y-5.2816
G1 X151.2672 Y-5.4103
G1 X151.1152 Y-5.498
G1 X150.9439 Y-5.5374
G1 F200.0 Z-2.0
G1 F350.0 X150.7691 Y-5.5242
G1 X150.6059 Y-5.4602
G1 X150.4683 Y-5.3503
G1 X150.3694 Y-5.2055
G1 X150.318 Y-5.0379
G1 Y-4.8621
G1 X150.3694 Y-4.6945
G1 X150.4683 Y-4.5497
G1 X150.6059 Y-4.4398
G1 X150.7691 Y-4.3758
G1 X150.9439 Y-4.3626
G1 X151.1152 Y-4.402
G1 X151.2672 Y-4.4897
G1 X151.3864 Y-4.6184
G1 X151.4626 Y-4.7763
G1 X151.4887 Y-4.95
G1 X151.4626 Y-5.1237
G1 X151.3864 Y-5.2816
G1 X151.2672 Y-5.4103
G1 X151.1152 Y-5.498
G1 X150.9439 Y-5.5374
G1 F200.0 Z-2.5
G1 F350.0 X150.7691 Y-5.5242
G1 X150.6059 Y-5.4602
G1 X150.4683 Y-5.3503
G1 X150.3694 Y-5.2055
G1 X150.318 Y-5.0379
G1 Y-4.8621
G1 X150.3694 Y-4.6945
G1 X150.4683 Y-4.5497
G1 X150.6059 Y-4.4398
G1 X150.7691 Y-4.3758
G1 X150.9439 Y-4.3626
G1 X151.1152 Y-4.402
G1 X151.2672 Y-4.4897
G1 X151.3864 Y-4.6184
G1 X151.4626 Y-4.7763
G1 X151.4887 Y-4.95
G1 X151.4626 Y-5.1237
G1 X151.3864 Y-5.2816
G1 X151.2672 Y-5.4103
G1 X151.1152 Y-5.498
G1 X150.9439 Y-5.5374
G1 F200.0 Z-3.0
G1 F350.0 X150.7691 Y-5.5242
G1 X150.6059 Y-5.4602
G1 X150.4683 Y-5.3503
G1 X150.3694 Y-5.2055
G1 X150.318 Y-5.0379
G1 Y-4.8621
G1 X150.3694 Y-4.6945
G1 X150.4683 Y-4.5497
G1 X150.6059 Y-4.4398
G1 X150.7691 Y-4.3758
G1 X150.9439 Y-4.3626
G1 X151.1152 Y-4.402
G1 X151.2672 Y-4.4897
G1 X151.3864 Y-4.6184
G1 X151.4626 Y-4.7763
G1 X151.4887 Y-4.95
G1 X151.4626 Y-5.1237
G1 X151.3864 Y-5.2816
G1 X151.2672 Y-5.4103
G1 X151.1152 Y-5.498
G1 X150.9439 Y-5.5374
G1 F200.0 Z-3.175
G1 F350.0 X150.7691 Y-5.5242
G1 X150.6059 Y-5.4602
G1 X150.4683 Y-5.3503
G1 X150.3694 Y-5.2055
G1 X150.318 Y-5.0379
G1 Y-4.8621
G1 X150.3694 Y-4.6945
G1 X150.4683 Y-4.5497
G1 X150.6059 Y-4.4398
G1 X150.7691 Y-4.3758
G1 X150.9439 Y-4.3626
G1 X151.1152 Y-4.402
G1 X151.2672 Y-4.4897
G1 X151.3864 Y-4.6184
G1 X151.4626 Y-4.7763
G1 X151.4887 Y-4.95
G1 X151.4626 Y-5.1237
G1 X151.3864 Y-5.2816
G1 X151.2672 Y-5.4103
G1 X151.1152 Y-5.498
G1 X150.9439 Y-5.5374
G0 Z2.0
G0 X4.5887 Y-4.95
G0 Z1.0
G1 F200.0 Z-0.5
G1 F350.0 X4.5626 Y-5.1236
G1 X4.4865 Y-5.2813
G1 X4.3671 Y-5.4102
G1 X4.2147 Y-5.498
G1 X4.0435 Y-5.5374
G1 X3.8691 Y-5.5242
G1 X3.706 Y-5.4602
G1 X3.5687 Y-5.3506
G1 X3.4696 Y-5.2053
G1 X3.4179 Y-5.0374
G1 Y-4.8626
G1 X3.4696 Y-4.6947
G1 X3.5687 Y-4.5494
G1 X3.706 Y-4.4398
G1 X3.8691 Y-4.3758
G1 X4.0435 Y-4.3626
G1 X4.2147 Y-4.402
G1 X4.3671 Y-4.4898
G1 X4.4865 Y-4.6187
G1 X4.5626 Y-4.7764
G1 X4.5887 Y-4.95
G1 F200.0 Z-1.0
G1 F350.0 X4.5626 Y-5.1236
G1 X4.4865 Y-5.2813
G1 X4.3671 Y-5.4102
G1 X4.2147 Y-5.498
G1 X4.0435 Y-5.5374
G1 X3.8691 Y-5.5242
G1 X3.706 Y-5.4602
G1 X3.5687 Y-5.3506
G1 X3.4696 Y-5.2053
G1 X3.4179 Y-5.0374
G1 Y-4.8626
G1 X3.4696 Y-4.6947
G1 X3.5687 Y-4.5494
G1 X3.706 Y-4.4398
G1 X3.8691 Y-4.3758
G1 X4.0435 Y-4.3626
G1 X4.2147 Y-4.402
G1 X4.3671 Y-4.4898
G1 X4.4865 Y-4.6187
G1 X4.5626 Y-4.7764
G1 X4.5887 Y-4.95
G1 F200.0 Z-1.5
G1 F350.0 X4.5626 Y-5.1236
G1 X4.4865 Y-5.2813
G1 X4.3671 Y-5.4102
G1 X4.2147 Y-5.498
G1 X4.0435 Y-5.5374
G1 X3.8691 Y-5.5242
G1 X3.706 Y-5.4602
G1 X3.5687 Y-5.3506
G1 X3.4696 Y-5.2053
G1 X3.4179 Y-5.0374
G1 Y-4.8626
G1 X3.4696 Y-4.6947
G1 X3.5687 Y-4.5494
G1 X3.706 Y-4.4398
G1 X3.8691 Y-4.3758
G1 X4.0435 Y-4.3626
G1 X4.2147 Y-4.402
G1 X4.3671 Y-4.4898
G1 X4.4865 Y-4.6187
G1 X4.5626 Y-4.7764
G1 X4.5887 Y-4.95
G1 F200.0 Z-2.0
G1 F350.0 X4.5626 Y-5.1236
G1 X4.4865 Y-5.2813
G1 X4.3671 Y-5.4102
G1 X4.2147 Y-5.498
G1 X4.0435 Y-5.5374
G1 X3.8691 Y-5.5242
G1 X3.706 Y-5.4602
G1 X3.5687 Y-5.3506
G1 X3.4696 Y-5.2053
G1 X3.4179 Y-5.0374
G1 Y-4.8626
G1 X3.4696 Y-4.6947
G1 X3.5687 Y-4.5494
G1 X3.706 Y-4.4398
G1 X3.8691 Y-4.3758
G1 X4.0435 Y-4.3626
G1 X4.2147 Y-4.402
G1 X4.3671 Y-4.4898
G1 X4.4865 Y-4.6187
G1 X4.5626 Y-4.7764
G1 X4.5887 Y-4.95
G1 F200.0 Z-2.5
G1 F350.0 X4.5626 Y-5.1236
G1 X4.4865 Y-5.2813
G1 X4.3671 Y-5.4102
G1 X4.2147 Y-5.498
G1 X4.0435 Y-5.5374
G1 X3.8691 Y-5.5242
G1 X3.706 Y-5.4602
G1 X3.5687 Y-5.3506
G1 X3.4696 Y-5.2053
G1 X3.4179 Y-5.0374
G1 Y-4.8626
G1 X3.4696 Y-4.6947
G1 X3.5687 Y-4.5494
G1 X3.706 Y-4.4398
G1 X3.8691 Y-4.3758
G1 X4.0435 Y-4.3626
G1 X4.2147 Y-4.402
G1 X4.3671 Y-4.4898
G1 X4.4865 Y-4.6187
G1 X4.5626 Y-4.7764
G1 X4.5887 Y-4.95
G1 F200.0 Z-3.0
G1 F350.0 X4.5626 Y-5.1236
G1 X4.4865 Y-5.2813
G1 X4.3671 Y-5.4102
G1 X4.2147 Y-5.498
G1 X4.0435 Y-5.5374
G1 X3.8691 Y-5.5242
G1 X3.706 Y-5.4602
G1 X3.5687 Y-5.3506
G1 X3.4696 Y-5.2053
G1 X3.4179 Y-5.0374
G1 Y-4.8626
G1 X3.4696 Y-4.6947
G1 X3.5687 Y-4.5494
G1 X3.706 Y-4.4398
G1 X3.8691 Y-4.3758
G1 X4.0435 Y-4.3626
G1 X4.2147 Y-4.402
G1 X4.3671 Y-4.4898
G1 X4.4865 Y-4.6187
G1 X4.5626 Y-4.7764
G1 X4.5887 Y-4.95
G1 F200.0 Z-3.175
G1 F350.0 X4.5626 Y-5.1236
G1 X4.4865 Y-5.2813
G1 X4.3671 Y-5.4102
G1 X4.2147 Y-5.498
G1 X4.0435 Y-5.5374
G1 X3.8691 Y-5.5242
G1 X3.706 Y-5.4602
G1 X3.5687 Y-5.3506
G1 X3.4696 Y-5.2053
G1 X3.4179 Y-5.0374
G1 Y-4.8626
G1 X3.4696 Y-4.6947
G1 X3.5687 Y-4.5494
G1 X3.706 Y-4.4398
G1 X3.8691 Y-4.3758
G1 X4.0435 Y-4.3626
G1 X4.2147 Y-4.402
G1 X4.3671 Y-4.4898
G1 X4.4865 Y-4.6187
G1 X4.5626 Y-4.7764
G1 X4.5887 Y-4.95
G0 Z2.0
M5
M30
