(G-CODE GENERATED BY FLATCAM v8.994 - www.flatcam.org - Version Date: 2020/11/7)

(Name: xt60_array-F_Paste.gbr_edit_iso_combined_cnc)
(Type: G-code from Geometry)
(Units: MM)

(Created on Monday, 01 May 2023 at 09:08)

(Specially modified by mattwach to work with the Sainsmart 3080 that I have.)

(TOOL DIAMETER: 0.1 mm)
(Feedrate_XY: 300.0 mm/min)
(Feedrate_Z: 60.0 mm/min)
(Feedrate rapids 1500.0 mm/min)

(Z_Cut: -0.2 mm)
(Z_Move: 2.0 mm)
(Z Start: None mm)
(Z End: 10.0 mm)
(X,Y End: 0.0000, 0.0000 mm)
(Steps per circle: 64)
(Preprocessor Geometry: default)

(X range:   -0.1000 ...   53.1000  mm)
(Y range:  -87.1000 ...    0.1000  mm)

(Spindle Speed: 10000.0 RPM)
G21
G90
G17
G94


G01 F300.00

M5
G00 Z15.0000
G00 X0.0000 Y0.0000
G00 Z15.0000

M03 S10000.0
G01 F300.00
G00 X-0.1000 Y-0.0000
G01 F60.00
G01 Z-0.2000
G01 F300.00
G01 X-0.1000 Y-87.0000
G01 X-0.0995 Y-87.0098
G01 X-0.0985 Y-87.0171
G01 X-0.0957 Y-87.0290
G01 X-0.0914 Y-87.0405
G01 X-0.0882 Y-87.0472
G01 X-0.0845 Y-87.0535
G01 X-0.0773 Y-87.0635
G01 X-0.0698 Y-87.0716
G01 X-0.0635 Y-87.0773
G01 X-0.0576 Y-87.0818
G01 X-0.0482 Y-87.0876
G01 X-0.0383 Y-87.0924
G01 X-0.0267 Y-87.0964
G01 X-0.0195 Y-87.0981
G01 X-0.0122 Y-87.0992
G01 X0.0000 Y-87.1000
G01 X53.0000 Y-87.1000
G01 X53.0098 Y-87.0995
G01 X53.0171 Y-87.0985
G01 X53.0290 Y-87.0957
G01 X53.0405 Y-87.0914
G01 X53.0472 Y-87.0882
G01 X53.0535 Y-87.0845
G01 X53.0635 Y-87.0773
G01 X53.0716 Y-87.0699
G01 X53.0773 Y-87.0635
G01 X53.0818 Y-87.0576
G01 X53.0876 Y-87.0482
G01 X53.0924 Y-87.0383
G01 X53.0964 Y-87.0267
G01 X53.0981 Y-87.0195
G01 X53.0992 Y-87.0122
G01 X53.1000 Y-87.0000
G01 X53.1000 Y-0.0000
G01 X53.0992 Y0.0122
G01 X53.0981 Y0.0195
G01 X53.0957 Y0.0290
G01 X53.0914 Y0.0405
G01 X53.0882 Y0.0472
G01 X53.0845 Y0.0535
G01 X53.0773 Y0.0635
G01 X53.0699 Y0.0716
G01 X53.0635 Y0.0773
G01 X53.0576 Y0.0818
G01 X53.0482 Y0.0876
G01 X53.0383 Y0.0924
G01 X53.0267 Y0.0964
G01 X53.0195 Y0.0981
G01 X53.0122 Y0.0992
G01 X53.0000 Y0.1000
G01 X0.0000 Y0.1000
G01 X-0.0098 Y0.0995
G01 X-0.0195 Y0.0981
G01 X-0.0290 Y0.0957
G01 X-0.0383 Y0.0924
G01 X-0.0472 Y0.0882
G01 X-0.0556 Y0.0832
G01 X-0.0635 Y0.0773
G01 X-0.0707 Y0.0707
G01 X-0.0773 Y0.0635
G01 X-0.0832 Y0.0556
G01 X-0.0882 Y0.0472
G01 X-0.0924 Y0.0383
G01 X-0.0957 Y0.0290
G01 X-0.0981 Y0.0195
G01 X-0.0995 Y0.0098
G01 X-0.1000 Y-0.0000
G00 Z2.0000
G00 X0.1000 Y-0.1000
G01 F60.00
G01 Z-0.2000
G01 F300.00
G01 X0.1000 Y-86.9000
G01 X52.9000 Y-86.9000
G01 X52.9000 Y-0.1000
G01 X0.1000 Y-0.1000
G00 Z2.0000
G00 X18.6500 Y-15.0575
G01 F60.00
G01 Z-0.2000
G01 F300.00
G01 X18.6500 Y-10.3125
G01 X18.6489 Y-10.2904
G01 X18.6460 Y-10.2710
G01 X18.6413 Y-10.2520
G01 X18.6355 Y-10.2358
G01 X18.6251 Y-10.2136
G01 X18.6155 Y-10.1979
G01 X18.6029 Y-10.1813
G01 X18.5896 Y-10.1670
G01 X18.5768 Y-10.1555
G01 X18.5631 Y-10.1452
G01 X18.5453 Y-10.1343
G01 X18.5287 Y-10.1263
G01 X18.5080 Y-10.1187
G01 X18.4890 Y-10.1140
G01 X18.4696 Y-10.1111
G01 X18.4475 Y-10.1100
G01 X14.4025 Y-10.1100
G01 X14.3804 Y-10.1111
G01 X14.3610 Y-10.1140
G01 X14.3420 Y-10.1187
G01 X14.3258 Y-10.1245
G01 X14.3036 Y-10.1349
G01 X14.2879 Y-10.1445
G01 X14.2713 Y-10.1571
G01 X14.2578 Y-10.1695
G01 X14.2440 Y-10.1851
G01 X14.2338 Y-10.1990
G01 X14.2249 Y-10.2136
G01 X14.2163 Y-10.2313
G01 X14.2087 Y-10.2520
G01 X14.2040 Y-10.2710
G01 X14.2011 Y-10.2904
G01 X14.2000 Y-10.3125
G01 X14.2000 Y-15.0575
G01 X14.2011 Y-15.0796
G01 X14.2040 Y-15.0990
G01 X14.2087 Y-15.1180
G01 X14.2145 Y-15.1342
G01 X14.2249 Y-15.1564
G01 X14.2345 Y-15.1721
G01 X14.2471 Y-15.1887
G01 X14.2604 Y-15.2030
G01 X14.2732 Y-15.2145
G01 X14.2869 Y-15.2248
G01 X14.3047 Y-15.2357
G01 X14.3213 Y-15.2437
G01 X14.3420 Y-15.2513
G01 X14.3610 Y-15.2560
G01 X14.3804 Y-15.2589
G01 X14.4012 Y-15.2600
G01 X18.4488 Y-15.2600
G01 X18.4696 Y-15.2589
G01 X18.4890 Y-15.2560
G01 X18.5080 Y-15.2513
G01 X18.5265 Y-15.2447
G01 X18.5442 Y-15.2363
G01 X18.5610 Y-15.2262
G01 X18.5768 Y-15.2145
G01 X18.5913 Y-15.2013
G01 X18.6045 Y-15.1868
G01 X18.6162 Y-15.1710
G01 X18.6263 Y-15.1542
G01 X18.6347 Y-15.1365
G01 X18.6413 Y-15.1180
G01 X18.6460 Y-15.0990
G01 X18.6489 Y-15.0796
G01 X18.6500 Y-15.0575
G00 Z2.0000
G00 X23.5000 Y-15.0575
G01 F60.00
G01 Z-0.2000
G01 F300.00
G01 X23.5000 Y-10.3125
G01 X23.4989 Y-10.2904
G01 X23.4960 Y-10.2710
G01 X23.4913 Y-10.2520
G01 X23.4855 Y-10.2358
G01 X23.4751 Y-10.2136
G01 X23.4655 Y-10.1979
G01 X23.4529 Y-10.1813
G01 X23.4396 Y-10.1670
G01 X23.4268 Y-10.1555
G01 X23.4131 Y-10.1452
G01 X23.3953 Y-10.1343
G01 X23.3787 Y-10.1263
G01 X23.3580 Y-10.1187
G01 X23.3390 Y-10.1140
G01 X23.3196 Y-10.1111
G01 X23.2975 Y-10.1100
G01 X19.2525 Y-10.1100
G01 X19.2304 Y-10.1111
G01 X19.2110 Y-10.1140
G01 X19.1920 Y-10.1187
G01 X19.1758 Y-10.1245
G01 X19.1536 Y-10.1349
G01 X19.1379 Y-10.1445
G01 X19.1213 Y-10.1571
G01 X19.1078 Y-10.1695
G01 X19.0940 Y-10.1851
G01 X19.0838 Y-10.1990
G01 X19.0749 Y-10.2136
G01 X19.0663 Y-10.2313
G01 X19.0587 Y-10.2520
G01 X19.0540 Y-10.2710
G01 X19.0511 Y-10.2904
G01 X19.0500 Y-10.3125
G01 X19.0500 Y-15.0575
G01 X19.0511 Y-15.0796
G01 X19.0540 Y-15.0990
G01 X19.0587 Y-15.1180
G01 X19.0645 Y-15.1342
G01 X19.0749 Y-15.1564
G01 X19.0845 Y-15.1721
G01 X19.0971 Y-15.1887
G01 X19.1104 Y-15.2030
G01 X19.1232 Y-15.2145
G01 X19.1369 Y-15.2248
G01 X19.1547 Y-15.2357
G01 X19.1713 Y-15.2437
G01 X19.1920 Y-15.2513
G01 X19.2110 Y-15.2560
G01 X19.2304 Y-15.2589
G01 X19.2512 Y-15.2600
G01 X23.2988 Y-15.2600
G01 X23.3196 Y-15.2589
G01 X23.3390 Y-15.2560
G01 X23.3580 Y-15.2513
G01 X23.3765 Y-15.2447
G01 X23.3942 Y-15.2363
G01 X23.4110 Y-15.2262
G01 X23.4268 Y-15.2145
G01 X23.4413 Y-15.2013
G01 X23.4545 Y-15.1868
G01 X23.4662 Y-15.1710
G01 X23.4763 Y-15.1542
G01 X23.4847 Y-15.1365
G01 X23.4913 Y-15.1180
G01 X23.4960 Y-15.0990
G01 X23.4989 Y-15.0796
G01 X23.5000 Y-15.0575
G00 Z2.0000
G00 X23.5000 Y-20.6075
G01 F60.00
G01 Z-0.2000
G01 F300.00
G01 X23.5000 Y-15.8625
G01 X23.4989 Y-15.8404
G01 X23.4960 Y-15.8210
G01 X23.4913 Y-15.8020
G01 X23.4855 Y-15.7858
G01 X23.4751 Y-15.7636
G01 X23.4655 Y-15.7479
G01 X23.4529 Y-15.7313
G01 X23.4396 Y-15.7170
G01 X23.4268 Y-15.7055
G01 X23.4131 Y-15.6952
G01 X23.3953 Y-15.6843
G01 X23.3787 Y-15.6763
G01 X23.3580 Y-15.6687
G01 X23.3390 Y-15.6640
G01 X23.3196 Y-15.6611
G01 X23.2975 Y-15.6600
G01 X19.2525 Y-15.6600
G01 X19.2304 Y-15.6611
G01 X19.2110 Y-15.6640
G01 X19.1920 Y-15.6687
G01 X19.1758 Y-15.6745
G01 X19.1536 Y-15.6849
G01 X19.1379 Y-15.6945
G01 X19.1213 Y-15.7071
G01 X19.1078 Y-15.7195
G01 X19.0940 Y-15.7351
G01 X19.0838 Y-15.7490
G01 X19.0749 Y-15.7636
G01 X19.0663 Y-15.7813
G01 X19.0587 Y-15.8020
G01 X19.0540 Y-15.8210
G01 X19.0511 Y-15.8404
G01 X19.0500 Y-15.8625
G01 X19.0500 Y-20.6075
G01 X19.0511 Y-20.6296
G01 X19.0540 Y-20.6490
G01 X19.0587 Y-20.6680
G01 X19.0645 Y-20.6842
G01 X19.0749 Y-20.7064
G01 X19.0845 Y-20.7221
G01 X19.0971 Y-20.7387
G01 X19.1104 Y-20.7530
G01 X19.1232 Y-20.7645
G01 X19.1369 Y-20.7748
G01 X19.1547 Y-20.7857
G01 X19.1713 Y-20.7937
G01 X19.1920 Y-20.8013
G01 X19.2110 Y-20.8060
G01 X19.2304 Y-20.8089
G01 X19.2512 Y-20.8100
G01 X23.2988 Y-20.8100
G01 X23.3196 Y-20.8089
G01 X23.3390 Y-20.8060
G01 X23.3580 Y-20.8013
G01 X23.3765 Y-20.7947
G01 X23.3942 Y-20.7863
G01 X23.4110 Y-20.7762
G01 X23.4268 Y-20.7645
G01 X23.4413 Y-20.7513
G01 X23.4545 Y-20.7368
G01 X23.4662 Y-20.7210
G01 X23.4763 Y-20.7042
G01 X23.4847 Y-20.6865
G01 X23.4913 Y-20.6680
G01 X23.4960 Y-20.6490
G01 X23.4989 Y-20.6296
G01 X23.5000 Y-20.6075
G00 Z2.0000
G00 X18.6500 Y-20.6075
G01 F60.00
G01 Z-0.2000
G01 F300.00
G01 X18.6500 Y-15.8625
G01 X18.6489 Y-15.8404
G01 X18.6460 Y-15.8210
G01 X18.6413 Y-15.8020
G01 X18.6355 Y-15.7858
G01 X18.6251 Y-15.7636
G01 X18.6155 Y-15.7479
G01 X18.6029 Y-15.7313
G01 X18.5896 Y-15.7170
G01 X18.5768 Y-15.7055
G01 X18.5631 Y-15.6952
G01 X18.5453 Y-15.6843
G01 X18.5287 Y-15.6763
G01 X18.5080 Y-15.6687
G01 X18.4890 Y-15.6640
G01 X18.4696 Y-15.6611
G01 X18.4475 Y-15.6600
G01 X14.4025 Y-15.6600
G01 X14.3804 Y-15.6611
G01 X14.3610 Y-15.6640
G01 X14.3420 Y-15.6687
G01 X14.3258 Y-15.6745
G01 X14.3036 Y-15.6849
G01 X14.2879 Y-15.6945
G01 X14.2713 Y-15.7071
G01 X14.2578 Y-15.7195
G01 X14.2440 Y-15.7351
G01 X14.2338 Y-15.7490
G01 X14.2249 Y-15.7636
G01 X14.2163 Y-15.7813
G01 X14.2087 Y-15.8020
G01 X14.2040 Y-15.8210
G01 X14.2011 Y-15.8404
G01 X14.2000 Y-15.8625
G01 X14.2000 Y-20.6075
G01 X14.2011 Y-20.6296
G01 X14.2040 Y-20.6490
G01 X14.2087 Y-20.6680
G01 X14.2145 Y-20.6842
G01 X14.2249 Y-20.7064
G01 X14.2345 Y-20.7221
G01 X14.2471 Y-20.7387
G01 X14.2587 Y-20.7513
G01 X14.2713 Y-20.7629
G01 X14.2869 Y-20.7748
G01 X14.3047 Y-20.7857
G01 X14.3213 Y-20.7937
G01 X14.3420 Y-20.8013
G01 X14.3610 Y-20.8060
G01 X14.3804 Y-20.8089
G01 X14.4012 Y-20.8100
G01 X18.4488 Y-20.8100
G01 X18.4696 Y-20.8089
G01 X18.4890 Y-20.8060
G01 X18.5080 Y-20.8013
G01 X18.5265 Y-20.7947
G01 X18.5442 Y-20.7863
G01 X18.5610 Y-20.7762
G01 X18.5768 Y-20.7645
G01 X18.5913 Y-20.7513
G01 X18.6045 Y-20.7368
G01 X18.6162 Y-20.7210
G01 X18.6263 Y-20.7042
G01 X18.6347 Y-20.6865
G01 X18.6413 Y-20.6680
G01 X18.6460 Y-20.6490
G01 X18.6489 Y-20.6296
G01 X18.6500 Y-20.6075
G00 Z2.0000
G00 X18.6500 Y-26.8225
G01 F60.00
G01 Z-0.2000
G01 F300.00
G01 X18.6500 Y-22.0775
G01 X18.6489 Y-22.0554
G01 X18.6460 Y-22.0360
G01 X18.6413 Y-22.0170
G01 X18.6355 Y-22.0008
G01 X18.6251 Y-21.9786
G01 X18.6155 Y-21.9629
G01 X18.6029 Y-21.9463
G01 X18.5896 Y-21.9320
G01 X18.5768 Y-21.9205
G01 X18.5631 Y-21.9102
G01 X18.5453 Y-21.8993
G01 X18.5287 Y-21.8913
G01 X18.5080 Y-21.8837
G01 X18.4890 Y-21.8790
G01 X18.4696 Y-21.8761
G01 X18.4475 Y-21.8750
G01 X14.4025 Y-21.8750
G01 X14.3804 Y-21.8761
G01 X14.3610 Y-21.8790
G01 X14.3420 Y-21.8837
G01 X14.3258 Y-21.8895
G01 X14.3036 Y-21.8999
G01 X14.2879 Y-21.9095
G01 X14.2713 Y-21.9221
G01 X14.2578 Y-21.9345
G01 X14.2440 Y-21.9501
G01 X14.2338 Y-21.9640
G01 X14.2249 Y-21.9786
G01 X14.2163 Y-21.9963
G01 X14.2087 Y-22.0170
G01 X14.2040 Y-22.0360
G01 X14.2011 Y-22.0554
G01 X14.2000 Y-22.0775
G01 X14.2000 Y-26.8225
G01 X14.2011 Y-26.8446
G01 X14.2040 Y-26.8640
G01 X14.2087 Y-26.8830
G01 X14.2145 Y-26.8992
G01 X14.2249 Y-26.9214
G01 X14.2345 Y-26.9371
G01 X14.2471 Y-26.9537
G01 X14.2587 Y-26.9663
G01 X14.2713 Y-26.9779
G01 X14.2869 Y-26.9898
G01 X14.3047 Y-27.0007
G01 X14.3213 Y-27.0087
G01 X14.3420 Y-27.0163
G01 X14.3610 Y-27.0210
G01 X14.3804 Y-27.0239
G01 X14.4012 Y-27.0250
G01 X18.4488 Y-27.0250
G01 X18.4696 Y-27.0239
G01 X18.4890 Y-27.0210
G01 X18.5080 Y-27.0163
G01 X18.5265 Y-27.0097
G01 X18.5442 Y-27.0013
G01 X18.5610 Y-26.9912
G01 X18.5768 Y-26.9795
G01 X18.5913 Y-26.9663
G01 X18.6045 Y-26.9518
G01 X18.6162 Y-26.9360
G01 X18.6263 Y-26.9192
G01 X18.6347 Y-26.9015
G01 X18.6413 Y-26.8830
G01 X18.6460 Y-26.8640
G01 X18.6489 Y-26.8446
G01 X18.6500 Y-26.8225
G00 Z2.0000
G00 X23.5000 Y-26.8225
G01 F60.00
G01 Z-0.2000
G01 F300.00
G01 X23.5000 Y-22.0775
G01 X23.4989 Y-22.0554
G01 X23.4960 Y-22.0360
G01 X23.4913 Y-22.0170
G01 X23.4855 Y-22.0008
G01 X23.4751 Y-21.9786
G01 X23.4655 Y-21.9629
G01 X23.4529 Y-21.9463
G01 X23.4396 Y-21.9320
G01 X23.4268 Y-21.9205
G01 X23.4131 Y-21.9102
G01 X23.3953 Y-21.8993
G01 X23.3787 Y-21.8913
G01 X23.3580 Y-21.8837
G01 X23.3390 Y-21.8790
G01 X23.3196 Y-21.8761
G01 X23.2975 Y-21.8750
G01 X19.2525 Y-21.8750
G01 X19.2304 Y-21.8761
G01 X19.2110 Y-21.8790
G01 X19.1920 Y-21.8837
G01 X19.1758 Y-21.8895
G01 X19.1536 Y-21.8999
G01 X19.1379 Y-21.9095
G01 X19.1213 Y-21.9221
G01 X19.1078 Y-21.9345
G01 X19.0940 Y-21.9501
G01 X19.0838 Y-21.9640
G01 X19.0749 Y-21.9786
G01 X19.0663 Y-21.9963
G01 X19.0587 Y-22.0170
G01 X19.0540 Y-22.0360
G01 X19.0511 Y-22.0554
G01 X19.0500 Y-22.0775
G01 X19.0500 Y-26.8225
G01 X19.0511 Y-26.8446
G01 X19.0540 Y-26.8640
G01 X19.0587 Y-26.8830
G01 X19.0645 Y-26.8992
G01 X19.0749 Y-26.9214
G01 X19.0845 Y-26.9371
G01 X19.0971 Y-26.9537
G01 X19.1104 Y-26.9680
G01 X19.1232 Y-26.9795
G01 X19.1369 Y-26.9898
G01 X19.1547 Y-27.0007
G01 X19.1713 Y-27.0087
G01 X19.1920 Y-27.0163
G01 X19.2110 Y-27.0210
G01 X19.2304 Y-27.0239
G01 X19.2512 Y-27.0250
G01 X23.2988 Y-27.0250
G01 X23.3196 Y-27.0239
G01 X23.3390 Y-27.0210
G01 X23.3580 Y-27.0163
G01 X23.3765 Y-27.0097
G01 X23.3942 Y-27.0013
G01 X23.4110 Y-26.9912
G01 X23.4268 Y-26.9795
G01 X23.4413 Y-26.9663
G01 X23.4545 Y-26.9518
G01 X23.4662 Y-26.9360
G01 X23.4763 Y-26.9192
G01 X23.4847 Y-26.9015
G01 X23.4913 Y-26.8830
G01 X23.4960 Y-26.8640
G01 X23.4989 Y-26.8446
G01 X23.5000 Y-26.8225
G00 Z2.0000
G00 X23.5000 Y-32.3725
G01 F60.00
G01 Z-0.2000
G01 F300.00
G01 X23.5000 Y-27.6275
G01 X23.4989 Y-27.6054
G01 X23.4960 Y-27.5860
G01 X23.4913 Y-27.5670
G01 X23.4855 Y-27.5508
G01 X23.4751 Y-27.5286
G01 X23.4655 Y-27.5129
G01 X23.4529 Y-27.4963
G01 X23.4396 Y-27.4820
G01 X23.4268 Y-27.4705
G01 X23.4131 Y-27.4602
G01 X23.3953 Y-27.4493
G01 X23.3787 Y-27.4413
G01 X23.3580 Y-27.4337
G01 X23.3390 Y-27.4290
G01 X23.3196 Y-27.4261
G01 X23.2975 Y-27.4250
G01 X19.2525 Y-27.4250
G01 X19.2304 Y-27.4261
G01 X19.2110 Y-27.4290
G01 X19.1920 Y-27.4337
G01 X19.1758 Y-27.4395
G01 X19.1536 Y-27.4499
G01 X19.1379 Y-27.4595
G01 X19.1213 Y-27.4721
G01 X19.1078 Y-27.4845
G01 X19.0940 Y-27.5001
G01 X19.0838 Y-27.5140
G01 X19.0749 Y-27.5286
G01 X19.0663 Y-27.5463
G01 X19.0587 Y-27.5670
G01 X19.0540 Y-27.5860
G01 X19.0511 Y-27.6054
G01 X19.0500 Y-27.6275
G01 X19.0500 Y-32.3725
G01 X19.0511 Y-32.3946
G01 X19.0540 Y-32.4140
G01 X19.0587 Y-32.4330
G01 X19.0645 Y-32.4492
G01 X19.0749 Y-32.4714
G01 X19.0845 Y-32.4871
G01 X19.0971 Y-32.5037
G01 X19.1087 Y-32.5163
G01 X19.1213 Y-32.5279
G01 X19.1369 Y-32.5398
G01 X19.1547 Y-32.5507
G01 X19.1713 Y-32.5587
G01 X19.1920 Y-32.5663
G01 X19.2110 Y-32.5710
G01 X19.2304 Y-32.5739
G01 X19.2512 Y-32.5750
G01 X23.2988 Y-32.5750
G01 X23.3196 Y-32.5739
G01 X23.3390 Y-32.5710
G01 X23.3580 Y-32.5663
G01 X23.3765 Y-32.5597
G01 X23.3942 Y-32.5513
G01 X23.4110 Y-32.5412
G01 X23.4268 Y-32.5295
G01 X23.4413 Y-32.5163
G01 X23.4545 Y-32.5018
G01 X23.4662 Y-32.4860
G01 X23.4763 Y-32.4692
G01 X23.4847 Y-32.4515
G01 X23.4913 Y-32.4330
G01 X23.4960 Y-32.4140
G01 X23.4989 Y-32.3946
G01 X23.5000 Y-32.3725
G00 Z2.0000
G00 X18.6500 Y-32.3725
G01 F60.00
G01 Z-0.2000
G01 F300.00
G01 X18.6500 Y-27.6275
G01 X18.6489 Y-27.6054
G01 X18.6460 Y-27.5860
G01 X18.6413 Y-27.5670
G01 X18.6355 Y-27.5508
G01 X18.6251 Y-27.5286
G01 X18.6155 Y-27.5129
G01 X18.6029 Y-27.4963
G01 X18.5896 Y-27.4820
G01 X18.5768 Y-27.4705
G01 X18.5631 Y-27.4602
G01 X18.5453 Y-27.4493
G01 X18.5287 Y-27.4413
G01 X18.5080 Y-27.4337
G01 X18.4890 Y-27.4290
G01 X18.4696 Y-27.4261
G01 X18.4475 Y-27.4250
G01 X14.4025 Y-27.4250
G01 X14.3804 Y-27.4261
G01 X14.3610 Y-27.4290
G01 X14.3420 Y-27.4337
G01 X14.3258 Y-27.4395
G01 X14.3036 Y-27.4499
G01 X14.2879 Y-27.4595
G01 X14.2713 Y-27.4721
G01 X14.2578 Y-27.4845
G01 X14.2440 Y-27.5001
G01 X14.2338 Y-27.5140
G01 X14.2249 Y-27.5286
G01 X14.2163 Y-27.5463
G01 X14.2087 Y-27.5670
G01 X14.2040 Y-27.5860
G01 X14.2011 Y-27.6054
G01 X14.2000 Y-27.6275
G01 X14.2000 Y-32.3725
G01 X14.2011 Y-32.3946
G01 X14.2040 Y-32.4140
G01 X14.2087 Y-32.4330
G01 X14.2145 Y-32.4492
G01 X14.2249 Y-32.4714
G01 X14.2345 Y-32.4871
G01 X14.2471 Y-32.5037
G01 X14.2604 Y-32.5180
G01 X14.2732 Y-32.5295
G01 X14.2869 Y-32.5398
G01 X14.3047 Y-32.5507
G01 X14.3213 Y-32.5587
G01 X14.3420 Y-32.5663
G01 X14.3610 Y-32.5710
G01 X14.3804 Y-32.5739
G01 X14.4012 Y-32.5750
G01 X18.4488 Y-32.5750
G01 X18.4696 Y-32.5739
G01 X18.4890 Y-32.5710
G01 X18.5080 Y-32.5663
G01 X18.5265 Y-32.5597
G01 X18.5442 Y-32.5513
G01 X18.5610 Y-32.5412
G01 X18.5768 Y-32.5295
G01 X18.5913 Y-32.5163
G01 X18.6045 Y-32.5018
G01 X18.6162 Y-32.4860
G01 X18.6263 Y-32.4692
G01 X18.6347 Y-32.4515
G01 X18.6413 Y-32.4330
G01 X18.6460 Y-32.4140
G01 X18.6489 Y-32.3946
G01 X18.6500 Y-32.3725
G00 Z2.0000
G00 X18.7000 Y-38.6475
G01 F60.00
G01 Z-0.2000
G01 F300.00
G01 X18.7000 Y-33.9025
G01 X18.6989 Y-33.8804
G01 X18.6960 Y-33.8610
G01 X18.6913 Y-33.8420
G01 X18.6855 Y-33.8258
G01 X18.6751 Y-33.8036
G01 X18.6655 Y-33.7879
G01 X18.6529 Y-33.7713
G01 X18.6413 Y-33.7587
G01 X18.6287 Y-33.7471
G01 X18.6131 Y-33.7352
G01 X18.5953 Y-33.7243
G01 X18.5787 Y-33.7163
G01 X18.5580 Y-33.7087
G01 X18.5390 Y-33.7040
G01 X18.5196 Y-33.7011
G01 X18.4975 Y-33.7000
G01 X14.4525 Y-33.7000
G01 X14.4304 Y-33.7011
G01 X14.4110 Y-33.7040
G01 X14.3920 Y-33.7087
G01 X14.3758 Y-33.7145
G01 X14.3536 Y-33.7249
G01 X14.3379 Y-33.7345
G01 X14.3213 Y-33.7471
G01 X14.3078 Y-33.7595
G01 X14.2940 Y-33.7751
G01 X14.2838 Y-33.7890
G01 X14.2749 Y-33.8036
G01 X14.2663 Y-33.8213
G01 X14.2587 Y-33.8420
G01 X14.2540 Y-33.8610
G01 X14.2511 Y-33.8804
G01 X14.2500 Y-33.9025
G01 X14.2500 Y-38.6475
G01 X14.2511 Y-38.6696
G01 X14.2540 Y-38.6890
G01 X14.2587 Y-38.7080
G01 X14.2645 Y-38.7242
G01 X14.2749 Y-38.7464
G01 X14.2845 Y-38.7621
G01 X14.2971 Y-38.7787
G01 X14.3104 Y-38.7930
G01 X14.3232 Y-38.8045
G01 X14.3369 Y-38.8148
G01 X14.3547 Y-38.8257
G01 X14.3713 Y-38.8337
G01 X14.3920 Y-38.8413
G01 X14.4110 Y-38.8460
G01 X14.4304 Y-38.8489
G01 X14.4512 Y-38.8500
G01 X18.4988 Y-38.8500
G01 X18.5196 Y-38.8489
G01 X18.5390 Y-38.8460
G01 X18.5580 Y-38.8413
G01 X18.5765 Y-38.8347
G01 X18.5942 Y-38.8263
G01 X18.6110 Y-38.8162
G01 X18.6268 Y-38.8045
G01 X18.6413 Y-38.7913
G01 X18.6545 Y-38.7768
G01 X18.6662 Y-38.7610
G01 X18.6763 Y-38.7442
G01 X18.6847 Y-38.7265
G01 X18.6913 Y-38.7080
G01 X18.6960 Y-38.6890
G01 X18.6989 Y-38.6696
G01 X18.7000 Y-38.6475
G00 Z2.0000
G00 X23.5500 Y-38.6475
G01 F60.00
G01 Z-0.2000
G01 F300.00
G01 X23.5500 Y-33.9025
G01 X23.5489 Y-33.8804
G01 X23.5460 Y-33.8610
G01 X23.5413 Y-33.8420
G01 X23.5355 Y-33.8258
G01 X23.5251 Y-33.8036
G01 X23.5155 Y-33.7879
G01 X23.5029 Y-33.7713
G01 X23.4913 Y-33.7587
G01 X23.4787 Y-33.7471
G01 X23.4631 Y-33.7352
G01 X23.4453 Y-33.7243
G01 X23.4287 Y-33.7163
G01 X23.4080 Y-33.7087
G01 X23.3890 Y-33.7040
G01 X23.3696 Y-33.7011
G01 X23.3475 Y-33.7000
G01 X19.3025 Y-33.7000
G01 X19.2804 Y-33.7011
G01 X19.2610 Y-33.7040
G01 X19.2420 Y-33.7087
G01 X19.2258 Y-33.7145
G01 X19.2036 Y-33.7249
G01 X19.1879 Y-33.7345
G01 X19.1713 Y-33.7471
G01 X19.1578 Y-33.7595
G01 X19.1440 Y-33.7751
G01 X19.1338 Y-33.7890
G01 X19.1249 Y-33.8036
G01 X19.1163 Y-33.8213
G01 X19.1087 Y-33.8420
G01 X19.1040 Y-33.8610
G01 X19.1011 Y-33.8804
G01 X19.1000 Y-33.9025
G01 X19.1000 Y-38.6475
G01 X19.1011 Y-38.6696
G01 X19.1040 Y-38.6890
G01 X19.1087 Y-38.7080
G01 X19.1145 Y-38.7242
G01 X19.1249 Y-38.7464
G01 X19.1345 Y-38.7621
G01 X19.1471 Y-38.7787
G01 X19.1587 Y-38.7913
G01 X19.1713 Y-38.8029
G01 X19.1869 Y-38.8148
G01 X19.2047 Y-38.8257
G01 X19.2213 Y-38.8337
G01 X19.2420 Y-38.8413
G01 X19.2610 Y-38.8460
G01 X19.2804 Y-38.8489
G01 X19.3012 Y-38.8500
G01 X23.3488 Y-38.8500
G01 X23.3696 Y-38.8489
G01 X23.3890 Y-38.8460
G01 X23.4080 Y-38.8413
G01 X23.4265 Y-38.8347
G01 X23.4442 Y-38.8263
G01 X23.4610 Y-38.8162
G01 X23.4768 Y-38.8045
G01 X23.4913 Y-38.7913
G01 X23.5045 Y-38.7768
G01 X23.5162 Y-38.7610
G01 X23.5263 Y-38.7442
G01 X23.5347 Y-38.7265
G01 X23.5413 Y-38.7080
G01 X23.5460 Y-38.6890
G01 X23.5489 Y-38.6696
G01 X23.5500 Y-38.6475
G00 Z2.0000
G00 X23.5500 Y-44.1975
G01 F60.00
G01 Z-0.2000
G01 F300.00
G01 X23.5500 Y-39.4525
G01 X23.5489 Y-39.4304
G01 X23.5460 Y-39.4110
G01 X23.5413 Y-39.3920
G01 X23.5355 Y-39.3758
G01 X23.5251 Y-39.3536
G01 X23.5155 Y-39.3379
G01 X23.5029 Y-39.3213
G01 X23.4913 Y-39.3087
G01 X23.4787 Y-39.2971
G01 X23.4631 Y-39.2852
G01 X23.4453 Y-39.2743
G01 X23.4287 Y-39.2663
G01 X23.4080 Y-39.2587
G01 X23.3890 Y-39.2540
G01 X23.3696 Y-39.2511
G01 X23.3475 Y-39.2500
G01 X19.3025 Y-39.2500
G01 X19.2804 Y-39.2511
G01 X19.2610 Y-39.2540
G01 X19.2420 Y-39.2587
G01 X19.2258 Y-39.2645
G01 X19.2036 Y-39.2749
G01 X19.1879 Y-39.2845
G01 X19.1713 Y-39.2971
G01 X19.1578 Y-39.3095
G01 X19.1440 Y-39.3251
G01 X19.1338 Y-39.3390
G01 X19.1249 Y-39.3536
G01 X19.1163 Y-39.3713
G01 X19.1087 Y-39.3920
G01 X19.1040 Y-39.4110
G01 X19.1011 Y-39.4304
G01 X19.1000 Y-39.4525
G01 X19.1000 Y-44.1975
G01 X19.1011 Y-44.2196
G01 X19.1040 Y-44.2390
G01 X19.1087 Y-44.2580
G01 X19.1145 Y-44.2742
G01 X19.1249 Y-44.2964
G01 X19.1345 Y-44.3121
G01 X19.1471 Y-44.3287
G01 X19.1587 Y-44.3413
G01 X19.1713 Y-44.3529
G01 X19.1869 Y-44.3648
G01 X19.2047 Y-44.3757
G01 X19.2213 Y-44.3837
G01 X19.2420 Y-44.3913
G01 X19.2610 Y-44.3960
G01 X19.2804 Y-44.3989
G01 X19.3012 Y-44.4000
G01 X23.3488 Y-44.4000
G01 X23.3696 Y-44.3989
G01 X23.3890 Y-44.3960
G01 X23.4080 Y-44.3913
G01 X23.4265 Y-44.3847
G01 X23.4442 Y-44.3763
G01 X23.4610 Y-44.3662
G01 X23.4768 Y-44.3545
G01 X23.4913 Y-44.3413
G01 X23.5045 Y-44.3268
G01 X23.5162 Y-44.3110
G01 X23.5263 Y-44.2942
G01 X23.5347 Y-44.2765
G01 X23.5413 Y-44.2580
G01 X23.5460 Y-44.2390
G01 X23.5489 Y-44.2196
G01 X23.5500 Y-44.1975
G00 Z2.0000
G00 X18.7000 Y-44.1975
G01 F60.00
G01 Z-0.2000
G01 F300.00
G01 X18.7000 Y-39.4525
G01 X18.6989 Y-39.4304
G01 X18.6960 Y-39.4110
G01 X18.6913 Y-39.3920
G01 X18.6855 Y-39.3758
G01 X18.6751 Y-39.3536
G01 X18.6655 Y-39.3379
G01 X18.6529 Y-39.3213
G01 X18.6413 Y-39.3087
G01 X18.6287 Y-39.2971
G01 X18.6131 Y-39.2852
G01 X18.5953 Y-39.2743
G01 X18.5787 Y-39.2663
G01 X18.5580 Y-39.2587
G01 X18.5390 Y-39.2540
G01 X18.5196 Y-39.2511
G01 X18.4975 Y-39.2500
G01 X14.4525 Y-39.2500
G01 X14.4304 Y-39.2511
G01 X14.4110 Y-39.2540
G01 X14.3920 Y-39.2587
G01 X14.3758 Y-39.2645
G01 X14.3536 Y-39.2749
G01 X14.3379 Y-39.2845
G01 X14.3213 Y-39.2971
G01 X14.3078 Y-39.3095
G01 X14.2940 Y-39.3251
G01 X14.2838 Y-39.3390
G01 X14.2749 Y-39.3536
G01 X14.2663 Y-39.3713
G01 X14.2587 Y-39.3920
G01 X14.2540 Y-39.4110
G01 X14.2511 Y-39.4304
G01 X14.2500 Y-39.4525
G01 X14.2500 Y-44.1975
G01 X14.2511 Y-44.2196
G01 X14.2540 Y-44.2390
G01 X14.2587 Y-44.2580
G01 X14.2645 Y-44.2742
G01 X14.2749 Y-44.2964
G01 X14.2845 Y-44.3121
G01 X14.2971 Y-44.3287
G01 X14.3104 Y-44.3430
G01 X14.3232 Y-44.3545
G01 X14.3369 Y-44.3648
G01 X14.3547 Y-44.3757
G01 X14.3713 Y-44.3837
G01 X14.3920 Y-44.3913
G01 X14.4110 Y-44.3960
G01 X14.4304 Y-44.3989
G01 X14.4512 Y-44.4000
G01 X18.4988 Y-44.4000
G01 X18.5196 Y-44.3989
G01 X18.5390 Y-44.3960
G01 X18.5580 Y-44.3913
G01 X18.5765 Y-44.3847
G01 X18.5942 Y-44.3763
G01 X18.6110 Y-44.3662
G01 X18.6268 Y-44.3545
G01 X18.6413 Y-44.3413
G01 X18.6545 Y-44.3268
G01 X18.6662 Y-44.3110
G01 X18.6763 Y-44.2942
G01 X18.6847 Y-44.2765
G01 X18.6913 Y-44.2580
G01 X18.6960 Y-44.2390
G01 X18.6989 Y-44.2196
G01 X18.7000 Y-44.1975
G00 Z2.0000
G00 X18.6500 Y-51.1375
G01 F60.00
G01 Z-0.2000
G01 F300.00
G01 X18.6500 Y-46.3925
G01 X18.6489 Y-46.3704
G01 X18.6460 Y-46.3510
G01 X18.6413 Y-46.3320
G01 X18.6355 Y-46.3158
G01 X18.6251 Y-46.2936
G01 X18.6155 Y-46.2779
G01 X18.6029 Y-46.2613
G01 X18.5913 Y-46.2487
G01 X18.5787 Y-46.2371
G01 X18.5631 Y-46.2252
G01 X18.5453 Y-46.2143
G01 X18.5287 Y-46.2063
G01 X18.5080 Y-46.1987
G01 X18.4890 Y-46.1940
G01 X18.4696 Y-46.1911
G01 X18.4475 Y-46.1900
G01 X14.4025 Y-46.1900
G01 X14.3804 Y-46.1911
G01 X14.3610 Y-46.1940
G01 X14.3420 Y-46.1987
G01 X14.3258 Y-46.2045
G01 X14.3036 Y-46.2149
G01 X14.2879 Y-46.2245
G01 X14.2713 Y-46.2371
G01 X14.2578 Y-46.2495
G01 X14.2440 Y-46.2651
G01 X14.2338 Y-46.2790
G01 X14.2249 Y-46.2936
G01 X14.2163 Y-46.3113
G01 X14.2087 Y-46.3320
G01 X14.2040 Y-46.3510
G01 X14.2011 Y-46.3704
G01 X14.2000 Y-46.3925
G01 X14.2000 Y-51.1375
G01 X14.2011 Y-51.1596
G01 X14.2040 Y-51.1790
G01 X14.2087 Y-51.1980
G01 X14.2145 Y-51.2142
G01 X14.2249 Y-51.2364
G01 X14.2345 Y-51.2521
G01 X14.2471 Y-51.2687
G01 X14.2604 Y-51.2830
G01 X14.2732 Y-51.2945
G01 X14.2869 Y-51.3048
G01 X14.3047 Y-51.3157
G01 X14.3213 Y-51.3237
G01 X14.3420 Y-51.3313
G01 X14.3610 Y-51.3360
G01 X14.3804 Y-51.3389
G01 X14.4012 Y-51.3400
G01 X18.4488 Y-51.3400
G01 X18.4696 Y-51.3389
G01 X18.4890 Y-51.3360
G01 X18.5080 Y-51.3313
G01 X18.5265 Y-51.3247
G01 X18.5442 Y-51.3163
G01 X18.5610 Y-51.3062
G01 X18.5768 Y-51.2945
G01 X18.5913 Y-51.2813
G01 X18.6045 Y-51.2668
G01 X18.6162 Y-51.2510
G01 X18.6263 Y-51.2342
G01 X18.6347 Y-51.2165
G01 X18.6413 Y-51.1980
G01 X18.6460 Y-51.1790
G01 X18.6489 Y-51.1596
G01 X18.6500 Y-51.1375
G00 Z2.0000
G00 X23.5000 Y-51.1375
G01 F60.00
G01 Z-0.2000
G01 F300.00
G01 X23.5000 Y-46.3925
G01 X23.4989 Y-46.3704
G01 X23.4960 Y-46.3510
G01 X23.4913 Y-46.3320
G01 X23.4855 Y-46.3158
G01 X23.4751 Y-46.2936
G01 X23.4655 Y-46.2779
G01 X23.4529 Y-46.2613
G01 X23.4413 Y-46.2487
G01 X23.4287 Y-46.2371
G01 X23.4131 Y-46.2252
G01 X23.3953 Y-46.2143
G01 X23.3787 Y-46.2063
G01 X23.3580 Y-46.1987
G01 X23.3390 Y-46.1940
G01 X23.3196 Y-46.1911
G01 X23.2975 Y-46.1900
G01 X19.2525 Y-46.1900
G01 X19.2304 Y-46.1911
G01 X19.2110 Y-46.1940
G01 X19.1920 Y-46.1987
G01 X19.1758 Y-46.2045
G01 X19.1536 Y-46.2149
G01 X19.1379 Y-46.2245
G01 X19.1213 Y-46.2371
G01 X19.1078 Y-46.2495
G01 X19.0940 Y-46.2651
G01 X19.0838 Y-46.2790
G01 X19.0749 Y-46.2936
G01 X19.0663 Y-46.3113
G01 X19.0587 Y-46.3320
G01 X19.0540 Y-46.3510
G01 X19.0511 Y-46.3704
G01 X19.0500 Y-46.3925
G01 X19.0500 Y-51.1375
G01 X19.0511 Y-51.1596
G01 X19.0540 Y-51.1790
G01 X19.0587 Y-51.1980
G01 X19.0645 Y-51.2142
G01 X19.0749 Y-51.2364
G01 X19.0845 Y-51.2521
G01 X19.0971 Y-51.2687
G01 X19.1087 Y-51.2813
G01 X19.1213 Y-51.2929
G01 X19.1369 Y-51.3048
G01 X19.1547 Y-51.3157
G01 X19.1713 Y-51.3237
G01 X19.1920 Y-51.3313
G01 X19.2110 Y-51.3360
G01 X19.2304 Y-51.3389
G01 X19.2512 Y-51.3400
G01 X23.2988 Y-51.3400
G01 X23.3196 Y-51.3389
G01 X23.3390 Y-51.3360
G01 X23.3580 Y-51.3313
G01 X23.3765 Y-51.3247
G01 X23.3942 Y-51.3163
G01 X23.4110 Y-51.3062
G01 X23.4268 Y-51.2945
G01 X23.4413 Y-51.2813
G01 X23.4545 Y-51.2668
G01 X23.4662 Y-51.2510
G01 X23.4763 Y-51.2342
G01 X23.4847 Y-51.2165
G01 X23.4913 Y-51.1980
G01 X23.4960 Y-51.1790
G01 X23.4989 Y-51.1596
G01 X23.5000 Y-51.1375
G00 Z2.0000
G00 X23.5000 Y-56.6875
G01 F60.00
G01 Z-0.2000
G01 F300.00
G01 X23.5000 Y-51.9425
G01 X23.4989 Y-51.9204
G01 X23.4960 Y-51.9010
G01 X23.4913 Y-51.8820
G01 X23.4855 Y-51.8658
G01 X23.4751 Y-51.8436
G01 X23.4655 Y-51.8279
G01 X23.4529 Y-51.8113
G01 X23.4413 Y-51.7987
G01 X23.4287 Y-51.7871
G01 X23.4131 Y-51.7752
G01 X23.3953 Y-51.7643
G01 X23.3787 Y-51.7563
G01 X23.3580 Y-51.7487
G01 X23.3390 Y-51.7440
G01 X23.3196 Y-51.7411
G01 X23.2975 Y-51.7400
G01 X19.2525 Y-51.7400
G01 X19.2304 Y-51.7411
G01 X19.2110 Y-51.7440
G01 X19.1920 Y-51.7487
G01 X19.1758 Y-51.7545
G01 X19.1536 Y-51.7649
G01 X19.1379 Y-51.7745
G01 X19.1213 Y-51.7871
G01 X19.1078 Y-51.7995
G01 X19.0940 Y-51.8151
G01 X19.0838 Y-51.8290
G01 X19.0749 Y-51.8436
G01 X19.0663 Y-51.8613
G01 X19.0587 Y-51.8820
G01 X19.0540 Y-51.9010
G01 X19.0511 Y-51.9204
G01 X19.0500 Y-51.9425
G01 X19.0500 Y-56.6875
G01 X19.0511 Y-56.7096
G01 X19.0540 Y-56.7290
G01 X19.0587 Y-56.7480
G01 X19.0645 Y-56.7642
G01 X19.0749 Y-56.7864
G01 X19.0845 Y-56.8021
G01 X19.0971 Y-56.8187
G01 X19.1087 Y-56.8313
G01 X19.1213 Y-56.8429
G01 X19.1369 Y-56.8548
G01 X19.1547 Y-56.8657
G01 X19.1713 Y-56.8737
G01 X19.1920 Y-56.8813
G01 X19.2110 Y-56.8860
G01 X19.2304 Y-56.8889
G01 X19.2512 Y-56.8900
G01 X23.2988 Y-56.8900
G01 X23.3196 Y-56.8889
G01 X23.3390 Y-56.8860
G01 X23.3580 Y-56.8813
G01 X23.3765 Y-56.8747
G01 X23.3942 Y-56.8663
G01 X23.4110 Y-56.8562
G01 X23.4268 Y-56.8445
G01 X23.4413 Y-56.8313
G01 X23.4545 Y-56.8168
G01 X23.4662 Y-56.8010
G01 X23.4763 Y-56.7842
G01 X23.4847 Y-56.7665
G01 X23.4913 Y-56.7480
G01 X23.4960 Y-56.7290
G01 X23.4989 Y-56.7096
G01 X23.5000 Y-56.6875
G00 Z2.0000
G00 X18.6500 Y-56.6875
G01 F60.00
G01 Z-0.2000
G01 F300.00
G01 X18.6500 Y-51.9425
G01 X18.6489 Y-51.9204
G01 X18.6460 Y-51.9010
G01 X18.6413 Y-51.8820
G01 X18.6355 Y-51.8658
G01 X18.6251 Y-51.8436
G01 X18.6155 Y-51.8279
G01 X18.6029 Y-51.8113
G01 X18.5913 Y-51.7987
G01 X18.5787 Y-51.7871
G01 X18.5631 Y-51.7752
G01 X18.5453 Y-51.7643
G01 X18.5287 Y-51.7563
G01 X18.5080 Y-51.7487
G01 X18.4890 Y-51.7440
G01 X18.4696 Y-51.7411
G01 X18.4475 Y-51.7400
G01 X14.4025 Y-51.7400
G01 X14.3804 Y-51.7411
G01 X14.3610 Y-51.7440
G01 X14.3420 Y-51.7487
G01 X14.3258 Y-51.7545
G01 X14.3036 Y-51.7649
G01 X14.2879 Y-51.7745
G01 X14.2713 Y-51.7871
G01 X14.2578 Y-51.7995
G01 X14.2440 Y-51.8151
G01 X14.2338 Y-51.8290
G01 X14.2249 Y-51.8436
G01 X14.2163 Y-51.8613
G01 X14.2087 Y-51.8820
G01 X14.2040 Y-51.9010
G01 X14.2011 Y-51.9204
G01 X14.2000 Y-51.9425
G01 X14.2000 Y-56.6875
G01 X14.2011 Y-56.7096
G01 X14.2040 Y-56.7290
G01 X14.2087 Y-56.7480
G01 X14.2145 Y-56.7642
G01 X14.2249 Y-56.7864
G01 X14.2345 Y-56.8021
G01 X14.2471 Y-56.8187
G01 X14.2604 Y-56.8330
G01 X14.2732 Y-56.8445
G01 X14.2869 Y-56.8548
G01 X14.3047 Y-56.8657
G01 X14.3213 Y-56.8737
G01 X14.3420 Y-56.8813
G01 X14.3610 Y-56.8860
G01 X14.3804 Y-56.8889
G01 X14.4012 Y-56.8900
G01 X18.4488 Y-56.8900
G01 X18.4696 Y-56.8889
G01 X18.4890 Y-56.8860
G01 X18.5080 Y-56.8813
G01 X18.5265 Y-56.8747
G01 X18.5442 Y-56.8663
G01 X18.5610 Y-56.8562
G01 X18.5768 Y-56.8445
G01 X18.5913 Y-56.8313
G01 X18.6045 Y-56.8168
G01 X18.6162 Y-56.8010
G01 X18.6263 Y-56.7842
G01 X18.6347 Y-56.7665
G01 X18.6413 Y-56.7480
G01 X18.6460 Y-56.7290
G01 X18.6489 Y-56.7096
G01 X18.6500 Y-56.6875
G00 Z2.0000
G00 X18.6500 Y-63.1375
G01 F60.00
G01 Z-0.2000
G01 F300.00
G01 X18.6500 Y-58.3925
G01 X18.6489 Y-58.3704
G01 X18.6460 Y-58.3510
G01 X18.6413 Y-58.3320
G01 X18.6355 Y-58.3158
G01 X18.6251 Y-58.2936
G01 X18.6155 Y-58.2779
G01 X18.6029 Y-58.2613
G01 X18.5913 Y-58.2487
G01 X18.5787 Y-58.2371
G01 X18.5631 Y-58.2252
G01 X18.5453 Y-58.2143
G01 X18.5287 Y-58.2063
G01 X18.5080 Y-58.1987
G01 X18.4890 Y-58.1940
G01 X18.4696 Y-58.1911
G01 X18.4475 Y-58.1900
G01 X14.4025 Y-58.1900
G01 X14.3804 Y-58.1911
G01 X14.3610 Y-58.1940
G01 X14.3420 Y-58.1987
G01 X14.3258 Y-58.2045
G01 X14.3036 Y-58.2149
G01 X14.2879 Y-58.2245
G01 X14.2713 Y-58.2371
G01 X14.2578 Y-58.2495
G01 X14.2440 Y-58.2651
G01 X14.2338 Y-58.2790
G01 X14.2249 Y-58.2936
G01 X14.2163 Y-58.3113
G01 X14.2087 Y-58.3320
G01 X14.2040 Y-58.3510
G01 X14.2011 Y-58.3704
G01 X14.2000 Y-58.3925
G01 X14.2000 Y-63.1375
G01 X14.2011 Y-63.1596
G01 X14.2040 Y-63.1790
G01 X14.2087 Y-63.1980
G01 X14.2145 Y-63.2142
G01 X14.2249 Y-63.2364
G01 X14.2345 Y-63.2521
G01 X14.2471 Y-63.2687
G01 X14.2604 Y-63.2830
G01 X14.2732 Y-63.2945
G01 X14.2869 Y-63.3048
G01 X14.3047 Y-63.3157
G01 X14.3213 Y-63.3237
G01 X14.3420 Y-63.3313
G01 X14.3610 Y-63.3360
G01 X14.3804 Y-63.3389
G01 X14.4012 Y-63.3400
G01 X18.4488 Y-63.3400
G01 X18.4696 Y-63.3389
G01 X18.4890 Y-63.3360
G01 X18.5080 Y-63.3313
G01 X18.5265 Y-63.3247
G01 X18.5442 Y-63.3163
G01 X18.5610 Y-63.3062
G01 X18.5768 Y-63.2945
G01 X18.5913 Y-63.2813
G01 X18.6045 Y-63.2668
G01 X18.6162 Y-63.2510
G01 X18.6263 Y-63.2342
G01 X18.6347 Y-63.2165
G01 X18.6413 Y-63.1980
G01 X18.6460 Y-63.1790
G01 X18.6489 Y-63.1596
G01 X18.6500 Y-63.1375
G00 Z2.0000
G00 X23.5000 Y-63.1375
G01 F60.00
G01 Z-0.2000
G01 F300.00
G01 X23.5000 Y-58.3925
G01 X23.4989 Y-58.3704
G01 X23.4960 Y-58.3510
G01 X23.4913 Y-58.3320
G01 X23.4855 Y-58.3158
G01 X23.4751 Y-58.2936
G01 X23.4655 Y-58.2779
G01 X23.4529 Y-58.2613
G01 X23.4413 Y-58.2487
G01 X23.4287 Y-58.2371
G01 X23.4131 Y-58.2252
G01 X23.3953 Y-58.2143
G01 X23.3787 Y-58.2063
G01 X23.3580 Y-58.1987
G01 X23.3390 Y-58.1940
G01 X23.3196 Y-58.1911
G01 X23.2975 Y-58.1900
G01 X19.2525 Y-58.1900
G01 X19.2304 Y-58.1911
G01 X19.2110 Y-58.1940
G01 X19.1920 Y-58.1987
G01 X19.1758 Y-58.2045
G01 X19.1536 Y-58.2149
G01 X19.1379 Y-58.2245
G01 X19.1213 Y-58.2371
G01 X19.1078 Y-58.2495
G01 X19.0940 Y-58.2651
G01 X19.0838 Y-58.2790
G01 X19.0749 Y-58.2936
G01 X19.0663 Y-58.3113
G01 X19.0587 Y-58.3320
G01 X19.0540 Y-58.3510
G01 X19.0511 Y-58.3704
G01 X19.0500 Y-58.3925
G01 X19.0500 Y-63.1375
G01 X19.0511 Y-63.1596
G01 X19.0540 Y-63.1790
G01 X19.0587 Y-63.1980
G01 X19.0645 Y-63.2142
G01 X19.0749 Y-63.2364
G01 X19.0845 Y-63.2521
G01 X19.0971 Y-63.2687
G01 X19.1087 Y-63.2813
G01 X19.1213 Y-63.2929
G01 X19.1369 Y-63.3048
G01 X19.1547 Y-63.3157
G01 X19.1713 Y-63.3237
G01 X19.1920 Y-63.3313
G01 X19.2110 Y-63.3360
G01 X19.2304 Y-63.3389
G01 X19.2512 Y-63.3400
G01 X23.2988 Y-63.3400
G01 X23.3196 Y-63.3389
G01 X23.3390 Y-63.3360
G01 X23.3580 Y-63.3313
G01 X23.3765 Y-63.3247
G01 X23.3942 Y-63.3163
G01 X23.4110 Y-63.3062
G01 X23.4268 Y-63.2945
G01 X23.4413 Y-63.2813
G01 X23.4545 Y-63.2668
G01 X23.4662 Y-63.2510
G01 X23.4763 Y-63.2342
G01 X23.4847 Y-63.2165
G01 X23.4913 Y-63.1980
G01 X23.4960 Y-63.1790
G01 X23.4989 Y-63.1596
G01 X23.5000 Y-63.1375
G00 Z2.0000
G00 X23.5000 Y-68.6875
G01 F60.00
G01 Z-0.2000
G01 F300.00
G01 X23.5000 Y-63.9425
G01 X23.4989 Y-63.9204
G01 X23.4960 Y-63.9010
G01 X23.4913 Y-63.8820
G01 X23.4855 Y-63.8658
G01 X23.4751 Y-63.8436
G01 X23.4655 Y-63.8279
G01 X23.4529 Y-63.8113
G01 X23.4413 Y-63.7987
G01 X23.4287 Y-63.7871
G01 X23.4131 Y-63.7752
G01 X23.3953 Y-63.7643
G01 X23.3787 Y-63.7563
G01 X23.3580 Y-63.7487
G01 X23.3390 Y-63.7440
G01 X23.3196 Y-63.7411
G01 X23.2975 Y-63.7400
G01 X19.2525 Y-63.7400
G01 X19.2304 Y-63.7411
G01 X19.2110 Y-63.7440
G01 X19.1920 Y-63.7487
G01 X19.1758 Y-63.7545
G01 X19.1536 Y-63.7649
G01 X19.1379 Y-63.7745
G01 X19.1213 Y-63.7871
G01 X19.1078 Y-63.7995
G01 X19.0940 Y-63.8151
G01 X19.0838 Y-63.8290
G01 X19.0749 Y-63.8436
G01 X19.0663 Y-63.8613
G01 X19.0587 Y-63.8820
G01 X19.0540 Y-63.9010
G01 X19.0511 Y-63.9204
G01 X19.0500 Y-63.9425
G01 X19.0500 Y-68.6875
G01 X19.0511 Y-68.7096
G01 X19.0540 Y-68.7290
G01 X19.0587 Y-68.7480
G01 X19.0645 Y-68.7642
G01 X19.0732 Y-68.7831
G01 X19.0825 Y-68.7990
G01 X19.0971 Y-68.8187
G01 X19.1087 Y-68.8313
G01 X19.1213 Y-68.8429
G01 X19.1369 Y-68.8548
G01 X19.1547 Y-68.8657
G01 X19.1713 Y-68.8737
G01 X19.1920 Y-68.8813
G01 X19.2110 Y-68.8860
G01 X19.2304 Y-68.8889
G01 X19.2512 Y-68.8900
G01 X23.2988 Y-68.8900
G01 X23.3196 Y-68.8889
G01 X23.3390 Y-68.8860
G01 X23.3580 Y-68.8813
G01 X23.3765 Y-68.8747
G01 X23.3942 Y-68.8663
G01 X23.4110 Y-68.8562
G01 X23.4268 Y-68.8445
G01 X23.4413 Y-68.8313
G01 X23.4545 Y-68.8168
G01 X23.4662 Y-68.8010
G01 X23.4763 Y-68.7842
G01 X23.4847 Y-68.7665
G01 X23.4913 Y-68.7480
G01 X23.4960 Y-68.7290
G01 X23.4989 Y-68.7096
G01 X23.5000 Y-68.6875
G00 Z2.0000
G00 X18.6500 Y-68.6875
G01 F60.00
G01 Z-0.2000
G01 F300.00
G01 X18.6500 Y-63.9425
G01 X18.6489 Y-63.9204
G01 X18.6460 Y-63.9010
G01 X18.6413 Y-63.8820
G01 X18.6355 Y-63.8658
G01 X18.6251 Y-63.8436
G01 X18.6155 Y-63.8279
G01 X18.6029 Y-63.8113
G01 X18.5913 Y-63.7987
G01 X18.5787 Y-63.7871
G01 X18.5631 Y-63.7752
G01 X18.5453 Y-63.7643
G01 X18.5287 Y-63.7563
G01 X18.5080 Y-63.7487
G01 X18.4890 Y-63.7440
G01 X18.4696 Y-63.7411
G01 X18.4475 Y-63.7400
G01 X14.4025 Y-63.7400
G01 X14.3804 Y-63.7411
G01 X14.3610 Y-63.7440
G01 X14.3420 Y-63.7487
G01 X14.3258 Y-63.7545
G01 X14.3036 Y-63.7649
G01 X14.2879 Y-63.7745
G01 X14.2713 Y-63.7871
G01 X14.2578 Y-63.7995
G01 X14.2440 Y-63.8151
G01 X14.2338 Y-63.8290
G01 X14.2249 Y-63.8436
G01 X14.2163 Y-63.8613
G01 X14.2087 Y-63.8820
G01 X14.2040 Y-63.9010
G01 X14.2011 Y-63.9204
G01 X14.2000 Y-63.9425
G01 X14.2000 Y-68.6875
G01 X14.2011 Y-68.7096
G01 X14.2040 Y-68.7290
G01 X14.2087 Y-68.7480
G01 X14.2145 Y-68.7642
G01 X14.2249 Y-68.7864
G01 X14.2338 Y-68.8010
G01 X14.2471 Y-68.8187
G01 X14.2604 Y-68.8330
G01 X14.2732 Y-68.8445
G01 X14.2869 Y-68.8548
G01 X14.3047 Y-68.8657
G01 X14.3213 Y-68.8737
G01 X14.3420 Y-68.8813
G01 X14.3610 Y-68.8860
G01 X14.3804 Y-68.8889
G01 X14.4012 Y-68.8900
G01 X18.4488 Y-68.8900
G01 X18.4696 Y-68.8889
G01 X18.4890 Y-68.8860
G01 X18.5080 Y-68.8813
G01 X18.5265 Y-68.8747
G01 X18.5442 Y-68.8663
G01 X18.5610 Y-68.8562
G01 X18.5768 Y-68.8445
G01 X18.5913 Y-68.8313
G01 X18.6045 Y-68.8168
G01 X18.6162 Y-68.8010
G01 X18.6263 Y-68.7842
G01 X18.6347 Y-68.7665
G01 X18.6413 Y-68.7480
G01 X18.6460 Y-68.7290
G01 X18.6489 Y-68.7096
G01 X18.6500 Y-68.6875
G00 Z2.0000
G00 X18.7000 Y-75.5975
G01 F60.00
G01 Z-0.2000
G01 F300.00
G01 X18.7000 Y-70.8525
G01 X18.6989 Y-70.8304
G01 X18.6960 Y-70.8110
G01 X18.6913 Y-70.7920
G01 X18.6855 Y-70.7758
G01 X18.6768 Y-70.7569
G01 X18.6675 Y-70.7410
G01 X18.6529 Y-70.7213
G01 X18.6413 Y-70.7087
G01 X18.6287 Y-70.6971
G01 X18.6131 Y-70.6852
G01 X18.5953 Y-70.6743
G01 X18.5787 Y-70.6663
G01 X18.5580 Y-70.6587
G01 X18.5390 Y-70.6540
G01 X18.5196 Y-70.6511
G01 X18.4975 Y-70.6500
G01 X14.4525 Y-70.6500
G01 X14.4304 Y-70.6511
G01 X14.4110 Y-70.6540
G01 X14.3920 Y-70.6587
G01 X14.3758 Y-70.6645
G01 X14.3536 Y-70.6749
G01 X14.3390 Y-70.6838
G01 X14.3213 Y-70.6971
G01 X14.3078 Y-70.7095
G01 X14.2940 Y-70.7251
G01 X14.2838 Y-70.7390
G01 X14.2749 Y-70.7536
G01 X14.2663 Y-70.7713
G01 X14.2587 Y-70.7920
G01 X14.2540 Y-70.8110
G01 X14.2511 Y-70.8304
G01 X14.2500 Y-70.8525
G01 X14.2500 Y-75.5975
G01 X14.2511 Y-75.6196
G01 X14.2540 Y-75.6390
G01 X14.2587 Y-75.6580
G01 X14.2645 Y-75.6742
G01 X14.2749 Y-75.6964
G01 X14.2838 Y-75.7110
G01 X14.2971 Y-75.7287
G01 X14.3095 Y-75.7422
G01 X14.3251 Y-75.7560
G01 X14.3390 Y-75.7662
G01 X14.3536 Y-75.7751
G01 X14.3713 Y-75.7837
G01 X14.3920 Y-75.7913
G01 X14.4110 Y-75.7960
G01 X14.4304 Y-75.7989
G01 X14.4512 Y-75.8000
G01 X18.4988 Y-75.8000
G01 X18.5196 Y-75.7989
G01 X18.5390 Y-75.7960
G01 X18.5580 Y-75.7913
G01 X18.5765 Y-75.7847
G01 X18.5942 Y-75.7763
G01 X18.6110 Y-75.7662
G01 X18.6268 Y-75.7545
G01 X18.6413 Y-75.7413
G01 X18.6545 Y-75.7268
G01 X18.6662 Y-75.7110
G01 X18.6763 Y-75.6942
G01 X18.6847 Y-75.6765
G01 X18.6913 Y-75.6580
G01 X18.6960 Y-75.6390
G01 X18.6989 Y-75.6196
G01 X18.7000 Y-75.5975
G00 Z2.0000
G00 X23.5500 Y-75.5975
G01 F60.00
G01 Z-0.2000
G01 F300.00
G01 X23.5500 Y-70.8525
G01 X23.5489 Y-70.8304
G01 X23.5460 Y-70.8110
G01 X23.5413 Y-70.7920
G01 X23.5355 Y-70.7758
G01 X23.5268 Y-70.7569
G01 X23.5175 Y-70.7410
G01 X23.5029 Y-70.7213
G01 X23.4913 Y-70.7087
G01 X23.4787 Y-70.6971
G01 X23.4631 Y-70.6852
G01 X23.4453 Y-70.6743
G01 X23.4287 Y-70.6663
G01 X23.4080 Y-70.6587
G01 X23.3890 Y-70.6540
G01 X23.3696 Y-70.6511
G01 X23.3475 Y-70.6500
G01 X19.3025 Y-70.6500
G01 X19.2804 Y-70.6511
G01 X19.2610 Y-70.6540
G01 X19.2420 Y-70.6587
G01 X19.2258 Y-70.6645
G01 X19.2036 Y-70.6749
G01 X19.1879 Y-70.6845
G01 X19.1713 Y-70.6971
G01 X19.1578 Y-70.7095
G01 X19.1440 Y-70.7251
G01 X19.1325 Y-70.7410
G01 X19.1237 Y-70.7558
G01 X19.1163 Y-70.7713
G01 X19.1087 Y-70.7920
G01 X19.1040 Y-70.8110
G01 X19.1011 Y-70.8304
G01 X19.1000 Y-70.8525
G01 X19.1000 Y-75.5975
G01 X19.1011 Y-75.6196
G01 X19.1040 Y-75.6390
G01 X19.1087 Y-75.6580
G01 X19.1145 Y-75.6742
G01 X19.1232 Y-75.6931
G01 X19.1325 Y-75.7090
G01 X19.1471 Y-75.7287
G01 X19.1595 Y-75.7422
G01 X19.1751 Y-75.7560
G01 X19.1890 Y-75.7662
G01 X19.2036 Y-75.7751
G01 X19.2213 Y-75.7837
G01 X19.2420 Y-75.7913
G01 X19.2610 Y-75.7960
G01 X19.2804 Y-75.7989
G01 X19.3012 Y-75.8000
G01 X23.3488 Y-75.8000
G01 X23.3696 Y-75.7989
G01 X23.3890 Y-75.7960
G01 X23.4080 Y-75.7913
G01 X23.4265 Y-75.7847
G01 X23.4442 Y-75.7763
G01 X23.4610 Y-75.7662
G01 X23.4768 Y-75.7545
G01 X23.4913 Y-75.7413
G01 X23.5045 Y-75.7268
G01 X23.5162 Y-75.7110
G01 X23.5263 Y-75.6942
G01 X23.5347 Y-75.6765
G01 X23.5413 Y-75.6580
G01 X23.5460 Y-75.6390
G01 X23.5489 Y-75.6196
G01 X23.5500 Y-75.5975
G00 Z2.0000
G00 X23.5500 Y-81.1475
G01 F60.00
G01 Z-0.2000
G01 F300.00
G01 X23.5500 Y-76.4025
G01 X23.5489 Y-76.3804
G01 X23.5460 Y-76.3610
G01 X23.5413 Y-76.3420
G01 X23.5355 Y-76.3258
G01 X23.5268 Y-76.3069
G01 X23.5175 Y-76.2910
G01 X23.5029 Y-76.2713
G01 X23.4905 Y-76.2578
G01 X23.4749 Y-76.2440
G01 X23.4610 Y-76.2338
G01 X23.4464 Y-76.2249
G01 X23.4287 Y-76.2163
G01 X23.4080 Y-76.2087
G01 X23.3890 Y-76.2040
G01 X23.3696 Y-76.2011
G01 X23.3475 Y-76.2000
G01 X19.3025 Y-76.2000
G01 X19.2804 Y-76.2011
G01 X19.2610 Y-76.2040
G01 X19.2420 Y-76.2087
G01 X19.2258 Y-76.2145
G01 X19.2036 Y-76.2249
G01 X19.1879 Y-76.2345
G01 X19.1713 Y-76.2471
G01 X19.1578 Y-76.2595
G01 X19.1440 Y-76.2751
G01 X19.1325 Y-76.2910
G01 X19.1237 Y-76.3058
G01 X19.1163 Y-76.3213
G01 X19.1087 Y-76.3420
G01 X19.1040 Y-76.3610
G01 X19.1011 Y-76.3804
G01 X19.1000 Y-76.4025
G01 X19.1000 Y-81.1475
G01 X19.1011 Y-81.1696
G01 X19.1040 Y-81.1890
G01 X19.1087 Y-81.2080
G01 X19.1145 Y-81.2242
G01 X19.1232 Y-81.2431
G01 X19.1325 Y-81.2590
G01 X19.1471 Y-81.2787
G01 X19.1595 Y-81.2922
G01 X19.1751 Y-81.3060
G01 X19.1890 Y-81.3162
G01 X19.2036 Y-81.3251
G01 X19.2213 Y-81.3337
G01 X19.2420 Y-81.3413
G01 X19.2610 Y-81.3460
G01 X19.2804 Y-81.3489
G01 X19.3012 Y-81.3500
G01 X23.3488 Y-81.3500
G01 X23.3696 Y-81.3489
G01 X23.3890 Y-81.3460
G01 X23.4080 Y-81.3413
G01 X23.4265 Y-81.3347
G01 X23.4442 Y-81.3263
G01 X23.4610 Y-81.3162
G01 X23.4768 Y-81.3045
G01 X23.4913 Y-81.2913
G01 X23.5045 Y-81.2768
G01 X23.5162 Y-81.2610
G01 X23.5263 Y-81.2442
G01 X23.5347 Y-81.2265
G01 X23.5413 Y-81.2080
G01 X23.5460 Y-81.1890
G01 X23.5489 Y-81.1696
G01 X23.5500 Y-81.1475
G00 Z2.0000
G00 X18.7000 Y-81.1475
G01 F60.00
G01 Z-0.2000
G01 F300.00
G01 X18.7000 Y-76.4025
G01 X18.6989 Y-76.3804
G01 X18.6960 Y-76.3610
G01 X18.6913 Y-76.3420
G01 X18.6855 Y-76.3258
G01 X18.6768 Y-76.3069
G01 X18.6675 Y-76.2910
G01 X18.6529 Y-76.2713
G01 X18.6405 Y-76.2578
G01 X18.6249 Y-76.2440
G01 X18.6110 Y-76.2338
G01 X18.5964 Y-76.2249
G01 X18.5787 Y-76.2163
G01 X18.5580 Y-76.2087
G01 X18.5390 Y-76.2040
G01 X18.5196 Y-76.2011
G01 X18.4975 Y-76.2000
G01 X14.4525 Y-76.2000
G01 X14.4304 Y-76.2011
G01 X14.4110 Y-76.2040
G01 X14.3920 Y-76.2087
G01 X14.3758 Y-76.2145
G01 X14.3536 Y-76.2249
G01 X14.3390 Y-76.2338
G01 X14.3213 Y-76.2471
G01 X14.3078 Y-76.2595
G01 X14.2940 Y-76.2751
G01 X14.2838 Y-76.2890
G01 X14.2749 Y-76.3036
G01 X14.2663 Y-76.3213
G01 X14.2587 Y-76.3420
G01 X14.2540 Y-76.3610
G01 X14.2511 Y-76.3804
G01 X14.2500 Y-76.4025
G01 X14.2500 Y-81.1475
G01 X14.2511 Y-81.1696
G01 X14.2540 Y-81.1890
G01 X14.2587 Y-81.2080
G01 X14.2645 Y-81.2242
G01 X14.2749 Y-81.2464
G01 X14.2838 Y-81.2610
G01 X14.2971 Y-81.2787
G01 X14.3095 Y-81.2922
G01 X14.3251 Y-81.3060
G01 X14.3390 Y-81.3162
G01 X14.3536 Y-81.3251
G01 X14.3713 Y-81.3337
G01 X14.3920 Y-81.3413
G01 X14.4110 Y-81.3460
G01 X14.4304 Y-81.3489
G01 X14.4512 Y-81.3500
G01 X18.4988 Y-81.3500
G01 X18.5196 Y-81.3489
G01 X18.5390 Y-81.3460
G01 X18.5580 Y-81.3413
G01 X18.5765 Y-81.3347
G01 X18.5942 Y-81.3263
G01 X18.6110 Y-81.3162
G01 X18.6268 Y-81.3045
G01 X18.6413 Y-81.2913
G01 X18.6545 Y-81.2768
G01 X18.6662 Y-81.2610
G01 X18.6763 Y-81.2442
G01 X18.6847 Y-81.2265
G01 X18.6913 Y-81.2080
G01 X18.6960 Y-81.1890
G01 X18.6989 Y-81.1696
G01 X18.7000 Y-81.1475
G00 Z2.0000
G00 X30.3000 Y-78.8125
G01 F60.00
G01 Z-0.2000
G01 F300.00
G01 X30.3000 Y-78.2662
G01 X30.2985 Y-78.2405
G01 X30.2956 Y-78.2211
G01 X30.2909 Y-78.2021
G01 X30.2818 Y-78.1767
G01 X30.2733 Y-78.1590
G01 X30.2620 Y-78.1401
G01 X30.2488 Y-78.1223
G01 X30.2357 Y-78.1078
G01 X30.2177 Y-78.0912
G01 X30.1999 Y-78.0780
G01 X30.1831 Y-78.0679
G01 X30.1611 Y-78.0572
G01 X30.1379 Y-78.0491
G01 X30.1189 Y-78.0444
G01 X30.0983 Y-78.0413
G01 X30.0725 Y-78.0400
G01 X26.0250 Y-78.0401
G01 X26.0030 Y-78.0412
G01 X25.9811 Y-78.0444
G01 X25.9597 Y-78.0498
G01 X25.9412 Y-78.0564
G01 X25.9190 Y-78.0667
G01 X25.9021 Y-78.0767
G01 X25.8805 Y-78.0928
G01 X25.8660 Y-78.1060
G01 X25.8512 Y-78.1223
G01 X25.8380 Y-78.1401
G01 X25.8267 Y-78.1590
G01 X25.8172 Y-78.1789
G01 X25.8098 Y-78.1997
G01 X25.8044 Y-78.2211
G01 X25.8013 Y-78.2417
G01 X25.8000 Y-78.2675
G01 X25.8000 Y-78.8138
G01 X25.8015 Y-78.8395
G01 X25.8044 Y-78.8589
G01 X25.8091 Y-78.8779
G01 X25.8182 Y-78.9033
G01 X25.8267 Y-78.9210
G01 X25.8380 Y-78.9399
G01 X25.8512 Y-78.9577
G01 X25.8643 Y-78.9722
G01 X25.8823 Y-78.9888
G01 X25.9001 Y-79.0020
G01 X25.9169 Y-79.0121
G01 X25.9389 Y-79.0228
G01 X25.9621 Y-79.0309
G01 X25.9811 Y-79.0356
G01 X26.0017 Y-79.0387
G01 X26.0275 Y-79.0400
G01 X30.0725 Y-79.0400
G01 X30.0946 Y-79.0390
G01 X30.1213 Y-79.0350
G01 X30.1403 Y-79.0302
G01 X30.1633 Y-79.0218
G01 X30.1810 Y-79.0133
G01 X30.1999 Y-79.0020
G01 X30.2177 Y-78.9888
G01 X30.2357 Y-78.9722
G01 X30.2488 Y-78.9577
G01 X30.2620 Y-78.9399
G01 X30.2733 Y-78.9210
G01 X30.2828 Y-78.9011
G01 X30.2902 Y-78.8803
G01 X30.2956 Y-78.8589
G01 X30.2988 Y-78.8370
G01 X30.3000 Y-78.8125
G00 Z2.0000
G00 X30.3000 Y-73.7325
G01 F60.00
G01 Z-0.2000
G01 F300.00
G01 X30.3000 Y-73.1862
G01 X30.2985 Y-73.1605
G01 X30.2956 Y-73.1411
G01 X30.2909 Y-73.1221
G01 X30.2818 Y-73.0967
G01 X30.2733 Y-73.0790
G01 X30.2620 Y-73.0601
G01 X30.2488 Y-73.0423
G01 X30.2357 Y-73.0278
G01 X30.2177 Y-73.0112
G01 X30.1999 Y-72.9980
G01 X30.1831 Y-72.9879
G01 X30.1611 Y-72.9772
G01 X30.1379 Y-72.9691
G01 X30.1189 Y-72.9644
G01 X30.0983 Y-72.9613
G01 X30.0725 Y-72.9600
G01 X26.0250 Y-72.9601
G01 X26.0030 Y-72.9612
G01 X25.9811 Y-72.9644
G01 X25.9597 Y-72.9698
G01 X25.9412 Y-72.9764
G01 X25.9190 Y-72.9867
G01 X25.9021 Y-72.9967
G01 X25.8805 Y-73.0128
G01 X25.8660 Y-73.0260
G01 X25.8512 Y-73.0423
G01 X25.8380 Y-73.0601
G01 X25.8267 Y-73.0790
G01 X25.8172 Y-73.0989
G01 X25.8098 Y-73.1197
G01 X25.8044 Y-73.1411
G01 X25.8013 Y-73.1617
G01 X25.8000 Y-73.1875
G01 X25.8000 Y-73.7338
G01 X25.8015 Y-73.7595
G01 X25.8044 Y-73.7789
G01 X25.8091 Y-73.7979
G01 X25.8182 Y-73.8233
G01 X25.8267 Y-73.8410
G01 X25.8380 Y-73.8599
G01 X25.8512 Y-73.8777
G01 X25.8643 Y-73.8922
G01 X25.8823 Y-73.9088
G01 X25.9001 Y-73.9220
G01 X25.9169 Y-73.9321
G01 X25.9389 Y-73.9428
G01 X25.9621 Y-73.9509
G01 X25.9811 Y-73.9556
G01 X26.0017 Y-73.9587
G01 X26.0275 Y-73.9600
G01 X30.0725 Y-73.9600
G01 X30.0946 Y-73.9590
G01 X30.1213 Y-73.9550
G01 X30.1403 Y-73.9502
G01 X30.1633 Y-73.9418
G01 X30.1810 Y-73.9333
G01 X30.1999 Y-73.9220
G01 X30.2177 Y-73.9088
G01 X30.2357 Y-73.8922
G01 X30.2488 Y-73.8777
G01 X30.2620 Y-73.8599
G01 X30.2733 Y-73.8410
G01 X30.2828 Y-73.8211
G01 X30.2902 Y-73.8003
G01 X30.2956 Y-73.7789
G01 X30.2988 Y-73.7570
G01 X30.3000 Y-73.7325
G00 Z2.0000
G00 X30.2500 Y-66.3525
G01 F60.00
G01 Z-0.2000
G01 F300.00
G01 X30.2500 Y-65.8062
G01 X30.2485 Y-65.7805
G01 X30.2456 Y-65.7611
G01 X30.2409 Y-65.7421
G01 X30.2318 Y-65.7167
G01 X30.2233 Y-65.6990
G01 X30.2120 Y-65.6801
G01 X30.1988 Y-65.6623
G01 X30.1857 Y-65.6478
G01 X30.1677 Y-65.6312
G01 X30.1499 Y-65.6180
G01 X30.1331 Y-65.6079
G01 X30.1111 Y-65.5972
G01 X30.0879 Y-65.5891
G01 X30.0689 Y-65.5844
G01 X30.0483 Y-65.5813
G01 X30.0225 Y-65.5800
G01 X25.9750 Y-65.5801
G01 X25.9530 Y-65.5812
G01 X25.9311 Y-65.5844
G01 X25.9097 Y-65.5898
G01 X25.8912 Y-65.5964
G01 X25.8690 Y-65.6067
G01 X25.8521 Y-65.6167
G01 X25.8305 Y-65.6328
G01 X25.8160 Y-65.6460
G01 X25.8012 Y-65.6623
G01 X25.7880 Y-65.6801
G01 X25.7767 Y-65.6990
G01 X25.7672 Y-65.7189
G01 X25.7598 Y-65.7397
G01 X25.7544 Y-65.7611
G01 X25.7513 Y-65.7817
G01 X25.7500 Y-65.8075
G01 X25.7500 Y-66.3538
G01 X25.7515 Y-66.3795
G01 X25.7544 Y-66.3989
G01 X25.7591 Y-66.4179
G01 X25.7682 Y-66.4433
G01 X25.7767 Y-66.4610
G01 X25.7880 Y-66.4799
G01 X25.8012 Y-66.4977
G01 X25.8143 Y-66.5122
G01 X25.8323 Y-66.5288
G01 X25.8501 Y-66.5420
G01 X25.8669 Y-66.5521
G01 X25.8889 Y-66.5628
G01 X25.9121 Y-66.5709
G01 X25.9311 Y-66.5756
G01 X25.9517 Y-66.5787
G01 X25.9775 Y-66.5800
G01 X30.0225 Y-66.5800
G01 X30.0446 Y-66.5790
G01 X30.0713 Y-66.5750
G01 X30.0903 Y-66.5702
G01 X30.1133 Y-66.5618
G01 X30.1310 Y-66.5533
G01 X30.1499 Y-66.5420
G01 X30.1677 Y-66.5288
G01 X30.1857 Y-66.5122
G01 X30.1988 Y-66.4977
G01 X30.2120 Y-66.4799
G01 X30.2233 Y-66.4610
G01 X30.2328 Y-66.4411
G01 X30.2402 Y-66.4203
G01 X30.2456 Y-66.3989
G01 X30.2488 Y-66.3770
G01 X30.2500 Y-66.3525
G00 Z2.0000
G00 X30.2500 Y-61.2725
G01 F60.00
G01 Z-0.2000
G01 F300.00
G01 X30.2500 Y-60.7262
G01 X30.2485 Y-60.7005
G01 X30.2456 Y-60.6811
G01 X30.2409 Y-60.6621
G01 X30.2318 Y-60.6367
G01 X30.2233 Y-60.6190
G01 X30.2120 Y-60.6001
G01 X30.1988 Y-60.5823
G01 X30.1857 Y-60.5678
G01 X30.1677 Y-60.5512
G01 X30.1499 Y-60.5380
G01 X30.1331 Y-60.5279
G01 X30.1111 Y-60.5172
G01 X30.0879 Y-60.5091
G01 X30.0689 Y-60.5044
G01 X30.0483 Y-60.5013
G01 X30.0225 Y-60.5000
G01 X25.9750 Y-60.5001
G01 X25.9530 Y-60.5012
G01 X25.9311 Y-60.5044
G01 X25.9097 Y-60.5098
G01 X25.8912 Y-60.5164
G01 X25.8669 Y-60.5279
G01 X25.8501 Y-60.5380
G01 X25.8305 Y-60.5528
G01 X25.8160 Y-60.5660
G01 X25.8012 Y-60.5823
G01 X25.7880 Y-60.6001
G01 X25.7767 Y-60.6190
G01 X25.7672 Y-60.6389
G01 X25.7598 Y-60.6597
G01 X25.7544 Y-60.6811
G01 X25.7513 Y-60.7017
G01 X25.7500 Y-60.7275
G01 X25.7500 Y-61.2738
G01 X25.7515 Y-61.2995
G01 X25.7544 Y-61.3189
G01 X25.7591 Y-61.3379
G01 X25.7682 Y-61.3633
G01 X25.7767 Y-61.3810
G01 X25.7880 Y-61.3999
G01 X25.8012 Y-61.4177
G01 X25.8143 Y-61.4322
G01 X25.8323 Y-61.4488
G01 X25.8501 Y-61.4620
G01 X25.8669 Y-61.4721
G01 X25.8889 Y-61.4828
G01 X25.9121 Y-61.4909
G01 X25.9311 Y-61.4956
G01 X25.9517 Y-61.4987
G01 X25.9775 Y-61.5000
G01 X30.0225 Y-61.5000
G01 X30.0446 Y-61.4990
G01 X30.0689 Y-61.4956
G01 X30.0903 Y-61.4902
G01 X30.1111 Y-61.4828
G01 X30.1288 Y-61.4744
G01 X30.1499 Y-61.4620
G01 X30.1657 Y-61.4503
G01 X30.1857 Y-61.4322
G01 X30.1988 Y-61.4177
G01 X30.2120 Y-61.3999
G01 X30.2233 Y-61.3810
G01 X30.2328 Y-61.3611
G01 X30.2402 Y-61.3403
G01 X30.2456 Y-61.3189
G01 X30.2488 Y-61.2970
G01 X30.2500 Y-61.2725
G00 Z2.0000
G00 X30.2500 Y-54.3525
G01 F60.00
G01 Z-0.2000
G01 F300.00
G01 X30.2500 Y-53.8062
G01 X30.2485 Y-53.7805
G01 X30.2456 Y-53.7611
G01 X30.2409 Y-53.7421
G01 X30.2318 Y-53.7167
G01 X30.2233 Y-53.6990
G01 X30.2120 Y-53.6801
G01 X30.1988 Y-53.6623
G01 X30.1857 Y-53.6478
G01 X30.1677 Y-53.6312
G01 X30.1499 Y-53.6180
G01 X30.1331 Y-53.6079
G01 X30.1111 Y-53.5972
G01 X30.0879 Y-53.5891
G01 X30.0689 Y-53.5844
G01 X30.0483 Y-53.5813
G01 X30.0225 Y-53.5800
G01 X25.9750 Y-53.5801
G01 X25.9530 Y-53.5812
G01 X25.9311 Y-53.5844
G01 X25.9097 Y-53.5898
G01 X25.8912 Y-53.5964
G01 X25.8669 Y-53.6079
G01 X25.8501 Y-53.6180
G01 X25.8305 Y-53.6328
G01 X25.8160 Y-53.6460
G01 X25.8012 Y-53.6623
G01 X25.7880 Y-53.6801
G01 X25.7767 Y-53.6990
G01 X25.7672 Y-53.7189
G01 X25.7598 Y-53.7397
G01 X25.7544 Y-53.7611
G01 X25.7513 Y-53.7817
G01 X25.7500 Y-53.8075
G01 X25.7500 Y-54.3538
G01 X25.7515 Y-54.3795
G01 X25.7544 Y-54.3989
G01 X25.7591 Y-54.4179
G01 X25.7682 Y-54.4433
G01 X25.7767 Y-54.4610
G01 X25.7880 Y-54.4799
G01 X25.8012 Y-54.4977
G01 X25.8143 Y-54.5122
G01 X25.8323 Y-54.5288
G01 X25.8501 Y-54.5420
G01 X25.8669 Y-54.5521
G01 X25.8889 Y-54.5628
G01 X25.9121 Y-54.5709
G01 X25.9311 Y-54.5756
G01 X25.9517 Y-54.5787
G01 X25.9775 Y-54.5800
G01 X30.0225 Y-54.5800
G01 X30.0446 Y-54.5790
G01 X30.0689 Y-54.5756
G01 X30.0903 Y-54.5702
G01 X30.1111 Y-54.5628
G01 X30.1288 Y-54.5544
G01 X30.1499 Y-54.5420
G01 X30.1657 Y-54.5303
G01 X30.1857 Y-54.5122
G01 X30.1988 Y-54.4977
G01 X30.2120 Y-54.4799
G01 X30.2233 Y-54.4610
G01 X30.2328 Y-54.4411
G01 X30.2402 Y-54.4203
G01 X30.2456 Y-54.3989
G01 X30.2488 Y-54.3770
G01 X30.2500 Y-54.3525
G00 Z2.0000
G00 X30.2500 Y-49.2725
G01 F60.00
G01 Z-0.2000
G01 F300.00
G01 X30.2500 Y-48.7262
G01 X30.2485 Y-48.7005
G01 X30.2456 Y-48.6811
G01 X30.2409 Y-48.6621
G01 X30.2318 Y-48.6367
G01 X30.2233 Y-48.6190
G01 X30.2120 Y-48.6001
G01 X30.1988 Y-48.5823
G01 X30.1857 Y-48.5678
G01 X30.1677 Y-48.5512
G01 X30.1499 Y-48.5380
G01 X30.1331 Y-48.5279
G01 X30.1111 Y-48.5172
G01 X30.0879 Y-48.5091
G01 X30.0689 Y-48.5044
G01 X30.0483 Y-48.5013
G01 X30.0225 Y-48.5000
G01 X25.9750 Y-48.5001
G01 X25.9530 Y-48.5012
G01 X25.9311 Y-48.5044
G01 X25.9097 Y-48.5098
G01 X25.8912 Y-48.5164
G01 X25.8669 Y-48.5279
G01 X25.8501 Y-48.5380
G01 X25.8305 Y-48.5528
G01 X25.8160 Y-48.5660
G01 X25.8012 Y-48.5823
G01 X25.7880 Y-48.6001
G01 X25.7767 Y-48.6190
G01 X25.7672 Y-48.6389
G01 X25.7598 Y-48.6597
G01 X25.7544 Y-48.6811
G01 X25.7513 Y-48.7017
G01 X25.7500 Y-48.7275
G01 X25.7500 Y-49.2738
G01 X25.7515 Y-49.2995
G01 X25.7544 Y-49.3189
G01 X25.7591 Y-49.3379
G01 X25.7682 Y-49.3633
G01 X25.7767 Y-49.3810
G01 X25.7880 Y-49.3999
G01 X25.8012 Y-49.4177
G01 X25.8143 Y-49.4322
G01 X25.8323 Y-49.4488
G01 X25.8501 Y-49.4620
G01 X25.8669 Y-49.4721
G01 X25.8889 Y-49.4828
G01 X25.9121 Y-49.4909
G01 X25.9311 Y-49.4956
G01 X25.9517 Y-49.4987
G01 X25.9775 Y-49.5000
G01 X30.0225 Y-49.5000
G01 X30.0446 Y-49.4990
G01 X30.0689 Y-49.4956
G01 X30.0903 Y-49.4902
G01 X30.1111 Y-49.4828
G01 X30.1288 Y-49.4744
G01 X30.1499 Y-49.4620
G01 X30.1657 Y-49.4503
G01 X30.1857 Y-49.4322
G01 X30.1988 Y-49.4177
G01 X30.2120 Y-49.3999
G01 X30.2233 Y-49.3810
G01 X30.2328 Y-49.3611
G01 X30.2402 Y-49.3403
G01 X30.2456 Y-49.3189
G01 X30.2488 Y-49.2970
G01 X30.2500 Y-49.2725
G00 Z2.0000
G00 X30.3000 Y-41.8625
G01 F60.00
G01 Z-0.2000
G01 F300.00
G01 X30.3000 Y-41.3162
G01 X30.2985 Y-41.2905
G01 X30.2956 Y-41.2711
G01 X30.2909 Y-41.2521
G01 X30.2818 Y-41.2267
G01 X30.2733 Y-41.2090
G01 X30.2620 Y-41.1901
G01 X30.2488 Y-41.1723
G01 X30.2357 Y-41.1578
G01 X30.2177 Y-41.1412
G01 X30.1999 Y-41.1280
G01 X30.1831 Y-41.1179
G01 X30.1611 Y-41.1072
G01 X30.1379 Y-41.0991
G01 X30.1189 Y-41.0944
G01 X30.0983 Y-41.0913
G01 X30.0725 Y-41.0900
G01 X26.0250 Y-41.0901
G01 X26.0030 Y-41.0912
G01 X25.9811 Y-41.0944
G01 X25.9597 Y-41.0998
G01 X25.9412 Y-41.1064
G01 X25.9169 Y-41.1179
G01 X25.9001 Y-41.1280
G01 X25.8805 Y-41.1428
G01 X25.8660 Y-41.1560
G01 X25.8512 Y-41.1723
G01 X25.8380 Y-41.1901
G01 X25.8267 Y-41.2090
G01 X25.8172 Y-41.2289
G01 X25.8098 Y-41.2497
G01 X25.8044 Y-41.2711
G01 X25.8013 Y-41.2917
G01 X25.8000 Y-41.3175
G01 X25.8000 Y-41.8638
G01 X25.8015 Y-41.8895
G01 X25.8044 Y-41.9089
G01 X25.8091 Y-41.9279
G01 X25.8182 Y-41.9533
G01 X25.8267 Y-41.9710
G01 X25.8380 Y-41.9899
G01 X25.8512 Y-42.0077
G01 X25.8643 Y-42.0222
G01 X25.8823 Y-42.0388
G01 X25.9001 Y-42.0520
G01 X25.9169 Y-42.0621
G01 X25.9389 Y-42.0728
G01 X25.9621 Y-42.0809
G01 X25.9811 Y-42.0856
G01 X26.0017 Y-42.0887
G01 X26.0275 Y-42.0900
G01 X30.0725 Y-42.0900
G01 X30.0946 Y-42.0890
G01 X30.1189 Y-42.0856
G01 X30.1403 Y-42.0802
G01 X30.1611 Y-42.0728
G01 X30.1788 Y-42.0644
G01 X30.1999 Y-42.0520
G01 X30.2157 Y-42.0403
G01 X30.2357 Y-42.0222
G01 X30.2488 Y-42.0077
G01 X30.2620 Y-41.9899
G01 X30.2733 Y-41.9710
G01 X30.2828 Y-41.9511
G01 X30.2902 Y-41.9303
G01 X30.2956 Y-41.9089
G01 X30.2988 Y-41.8870
G01 X30.3000 Y-41.8625
G00 Z2.0000
G00 X30.3000 Y-36.7825
G01 F60.00
G01 Z-0.2000
G01 F300.00
G01 X30.3000 Y-36.2362
G01 X30.2985 Y-36.2105
G01 X30.2956 Y-36.1911
G01 X30.2909 Y-36.1721
G01 X30.2818 Y-36.1467
G01 X30.2733 Y-36.1290
G01 X30.2620 Y-36.1101
G01 X30.2488 Y-36.0923
G01 X30.2357 Y-36.0778
G01 X30.2177 Y-36.0612
G01 X30.1999 Y-36.0480
G01 X30.1831 Y-36.0379
G01 X30.1611 Y-36.0272
G01 X30.1379 Y-36.0191
G01 X30.1189 Y-36.0144
G01 X30.0983 Y-36.0113
G01 X30.0725 Y-36.0100
G01 X26.0250 Y-36.0101
G01 X26.0030 Y-36.0112
G01 X25.9811 Y-36.0144
G01 X25.9597 Y-36.0198
G01 X25.9412 Y-36.0264
G01 X25.9169 Y-36.0379
G01 X25.9001 Y-36.0480
G01 X25.8805 Y-36.0628
G01 X25.8660 Y-36.0760
G01 X25.8512 Y-36.0923
G01 X25.8380 Y-36.1101
G01 X25.8267 Y-36.1290
G01 X25.8172 Y-36.1489
G01 X25.8098 Y-36.1697
G01 X25.8044 Y-36.1911
G01 X25.8013 Y-36.2117
G01 X25.8000 Y-36.2375
G01 X25.8000 Y-36.7838
G01 X25.8015 Y-36.8095
G01 X25.8044 Y-36.8289
G01 X25.8091 Y-36.8479
G01 X25.8182 Y-36.8733
G01 X25.8267 Y-36.8910
G01 X25.8380 Y-36.9099
G01 X25.8512 Y-36.9277
G01 X25.8643 Y-36.9422
G01 X25.8823 Y-36.9588
G01 X25.9001 Y-36.9720
G01 X25.9169 Y-36.9821
G01 X25.9389 Y-36.9928
G01 X25.9621 Y-37.0009
G01 X25.9811 Y-37.0056
G01 X26.0017 Y-37.0087
G01 X26.0275 Y-37.0100
G01 X30.0725 Y-37.0100
G01 X30.0946 Y-37.0090
G01 X30.1189 Y-37.0056
G01 X30.1403 Y-37.0002
G01 X30.1611 Y-36.9928
G01 X30.1788 Y-36.9844
G01 X30.1999 Y-36.9720
G01 X30.2157 Y-36.9603
G01 X30.2357 Y-36.9422
G01 X30.2488 Y-36.9277
G01 X30.2620 Y-36.9099
G01 X30.2733 Y-36.8910
G01 X30.2828 Y-36.8711
G01 X30.2902 Y-36.8503
G01 X30.2956 Y-36.8289
G01 X30.2988 Y-36.8070
G01 X30.3000 Y-36.7825
G00 Z2.0000
G00 X30.2500 Y-30.0375
G01 F60.00
G01 Z-0.2000
G01 F300.00
G01 X30.2500 Y-29.4912
G01 X30.2485 Y-29.4655
G01 X30.2456 Y-29.4461
G01 X30.2409 Y-29.4271
G01 X30.2318 Y-29.4017
G01 X30.2233 Y-29.3840
G01 X30.2120 Y-29.3651
G01 X30.1972 Y-29.3455
G01 X30.1840 Y-29.3310
G01 X30.1677 Y-29.3162
G01 X30.1479 Y-29.3017
G01 X30.1310 Y-29.2917
G01 X30.1111 Y-29.2822
G01 X30.0879 Y-29.2741
G01 X30.0689 Y-29.2694
G01 X30.0483 Y-29.2663
G01 X30.0225 Y-29.2650
G01 X25.9750 Y-29.2651
G01 X25.9530 Y-29.2662
G01 X25.9311 Y-29.2694
G01 X25.9097 Y-29.2748
G01 X25.8912 Y-29.2814
G01 X25.8669 Y-29.2929
G01 X25.8501 Y-29.3030
G01 X25.8305 Y-29.3178
G01 X25.8160 Y-29.3310
G01 X25.8012 Y-29.3473
G01 X25.7880 Y-29.3651
G01 X25.7767 Y-29.3840
G01 X25.7672 Y-29.4039
G01 X25.7598 Y-29.4247
G01 X25.7544 Y-29.4461
G01 X25.7513 Y-29.4667
G01 X25.7500 Y-29.4925
G01 X25.7500 Y-30.0388
G01 X25.7515 Y-30.0645
G01 X25.7544 Y-30.0839
G01 X25.7591 Y-30.1029
G01 X25.7682 Y-30.1283
G01 X25.7767 Y-30.1460
G01 X25.7880 Y-30.1649
G01 X25.8028 Y-30.1845
G01 X25.8160 Y-30.1990
G01 X25.8323 Y-30.2138
G01 X25.8521 Y-30.2283
G01 X25.8690 Y-30.2383
G01 X25.8889 Y-30.2478
G01 X25.9121 Y-30.2559
G01 X25.9311 Y-30.2606
G01 X25.9517 Y-30.2637
G01 X25.9775 Y-30.2650
G01 X30.0225 Y-30.2650
G01 X30.0446 Y-30.2640
G01 X30.0689 Y-30.2606
G01 X30.0903 Y-30.2552
G01 X30.1111 Y-30.2478
G01 X30.1288 Y-30.2394
G01 X30.1499 Y-30.2270
G01 X30.1657 Y-30.2153
G01 X30.1857 Y-30.1972
G01 X30.1988 Y-30.1827
G01 X30.2120 Y-30.1649
G01 X30.2233 Y-30.1460
G01 X30.2328 Y-30.1261
G01 X30.2402 Y-30.1053
G01 X30.2456 Y-30.0839
G01 X30.2488 Y-30.0620
G01 X30.2500 Y-30.0375
G00 Z2.0000
G00 X30.2500 Y-24.9575
G01 F60.00
G01 Z-0.2000
G01 F300.00
G01 X30.2500 Y-24.4112
G01 X30.2485 Y-24.3855
G01 X30.2456 Y-24.3661
G01 X30.2409 Y-24.3471
G01 X30.2318 Y-24.3217
G01 X30.2233 Y-24.3040
G01 X30.2120 Y-24.2851
G01 X30.1972 Y-24.2655
G01 X30.1840 Y-24.2510
G01 X30.1677 Y-24.2362
G01 X30.1479 Y-24.2217
G01 X30.1310 Y-24.2117
G01 X30.1111 Y-24.2022
G01 X30.0879 Y-24.1941
G01 X30.0689 Y-24.1894
G01 X30.0483 Y-24.1863
G01 X30.0225 Y-24.1850
G01 X25.9750 Y-24.1851
G01 X25.9530 Y-24.1862
G01 X25.9311 Y-24.1894
G01 X25.9097 Y-24.1948
G01 X25.8912 Y-24.2014
G01 X25.8669 Y-24.2129
G01 X25.8501 Y-24.2230
G01 X25.8305 Y-24.2378
G01 X25.8160 Y-24.2510
G01 X25.8012 Y-24.2673
G01 X25.7880 Y-24.2851
G01 X25.7767 Y-24.3040
G01 X25.7672 Y-24.3239
G01 X25.7598 Y-24.3447
G01 X25.7544 Y-24.3661
G01 X25.7513 Y-24.3867
G01 X25.7500 Y-24.4125
G01 X25.7500 Y-24.9588
G01 X25.7515 Y-24.9845
G01 X25.7544 Y-25.0039
G01 X25.7591 Y-25.0229
G01 X25.7682 Y-25.0483
G01 X25.7767 Y-25.0660
G01 X25.7880 Y-25.0849
G01 X25.8028 Y-25.1045
G01 X25.8160 Y-25.1190
G01 X25.8323 Y-25.1338
G01 X25.8521 Y-25.1483
G01 X25.8690 Y-25.1583
G01 X25.8889 Y-25.1678
G01 X25.9121 Y-25.1759
G01 X25.9311 Y-25.1806
G01 X25.9517 Y-25.1837
G01 X25.9775 Y-25.1850
G01 X30.0225 Y-25.1850
G01 X30.0446 Y-25.1840
G01 X30.0689 Y-25.1806
G01 X30.0903 Y-25.1752
G01 X30.1111 Y-25.1678
G01 X30.1288 Y-25.1594
G01 X30.1499 Y-25.1470
G01 X30.1657 Y-25.1353
G01 X30.1857 Y-25.1172
G01 X30.1988 Y-25.1027
G01 X30.2120 Y-25.0849
G01 X30.2233 Y-25.0660
G01 X30.2328 Y-25.0461
G01 X30.2402 Y-25.0253
G01 X30.2456 Y-25.0039
G01 X30.2488 Y-24.9820
G01 X30.2500 Y-24.9575
G00 Z2.0000
G00 X30.2500 Y-18.2725
G01 F60.00
G01 Z-0.2000
G01 F300.00
G01 X30.2500 Y-17.7262
G01 X30.2485 Y-17.7005
G01 X30.2456 Y-17.6811
G01 X30.2409 Y-17.6621
G01 X30.2318 Y-17.6367
G01 X30.2233 Y-17.6190
G01 X30.2120 Y-17.6001
G01 X30.1972 Y-17.5805
G01 X30.1840 Y-17.5660
G01 X30.1677 Y-17.5512
G01 X30.1479 Y-17.5367
G01 X30.1310 Y-17.5267
G01 X30.1111 Y-17.5172
G01 X30.0879 Y-17.5091
G01 X30.0689 Y-17.5044
G01 X30.0483 Y-17.5013
G01 X30.0225 Y-17.5000
G01 X25.9750 Y-17.5001
G01 X25.9530 Y-17.5012
G01 X25.9311 Y-17.5044
G01 X25.9097 Y-17.5098
G01 X25.8912 Y-17.5164
G01 X25.8669 Y-17.5279
G01 X25.8501 Y-17.5380
G01 X25.8305 Y-17.5528
G01 X25.8160 Y-17.5660
G01 X25.8012 Y-17.5823
G01 X25.7880 Y-17.6001
G01 X25.7767 Y-17.6190
G01 X25.7672 Y-17.6389
G01 X25.7598 Y-17.6597
G01 X25.7544 Y-17.6811
G01 X25.7513 Y-17.7017
G01 X25.7500 Y-17.7275
G01 X25.7500 Y-18.2738
G01 X25.7515 Y-18.2995
G01 X25.7544 Y-18.3189
G01 X25.7591 Y-18.3379
G01 X25.7682 Y-18.3633
G01 X25.7767 Y-18.3810
G01 X25.7880 Y-18.3999
G01 X25.8028 Y-18.4195
G01 X25.8160 Y-18.4340
G01 X25.8323 Y-18.4488
G01 X25.8521 Y-18.4633
G01 X25.8690 Y-18.4733
G01 X25.8889 Y-18.4828
G01 X25.9121 Y-18.4909
G01 X25.9311 Y-18.4956
G01 X25.9517 Y-18.4987
G01 X25.9775 Y-18.5000
G01 X30.0225 Y-18.5000
G01 X30.0446 Y-18.4990
G01 X30.0689 Y-18.4956
G01 X30.0903 Y-18.4902
G01 X30.1111 Y-18.4828
G01 X30.1288 Y-18.4744
G01 X30.1499 Y-18.4620
G01 X30.1657 Y-18.4503
G01 X30.1857 Y-18.4322
G01 X30.1988 Y-18.4177
G01 X30.2120 Y-18.3999
G01 X30.2233 Y-18.3810
G01 X30.2328 Y-18.3611
G01 X30.2402 Y-18.3403
G01 X30.2456 Y-18.3189
G01 X30.2488 Y-18.2970
G01 X30.2500 Y-18.2725
G00 Z2.0000
G00 X30.2500 Y-13.1925
G01 F60.00
G01 Z-0.2000
G01 F300.00
G01 X30.2500 Y-12.6462
G01 X30.2485 Y-12.6205
G01 X30.2456 Y-12.6011
G01 X30.2409 Y-12.5821
G01 X30.2318 Y-12.5567
G01 X30.2233 Y-12.5390
G01 X30.2120 Y-12.5201
G01 X30.1988 Y-12.5023
G01 X30.1857 Y-12.4878
G01 X30.1677 Y-12.4712
G01 X30.1499 Y-12.4580
G01 X30.1331 Y-12.4479
G01 X30.1111 Y-12.4372
G01 X30.0879 Y-12.4291
G01 X30.0689 Y-12.4244
G01 X30.0483 Y-12.4213
G01 X30.0225 Y-12.4200
G01 X25.9750 Y-12.4201
G01 X25.9530 Y-12.4212
G01 X25.9311 Y-12.4244
G01 X25.9097 Y-12.4298
G01 X25.8912 Y-12.4364
G01 X25.8690 Y-12.4467
G01 X25.8521 Y-12.4567
G01 X25.8305 Y-12.4728
G01 X25.8160 Y-12.4860
G01 X25.8012 Y-12.5023
G01 X25.7880 Y-12.5201
G01 X25.7767 Y-12.5390
G01 X25.7672 Y-12.5589
G01 X25.7598 Y-12.5797
G01 X25.7544 Y-12.6011
G01 X25.7513 Y-12.6217
G01 X25.7500 Y-12.6475
G01 X25.7500 Y-13.1938
G01 X25.7515 Y-13.2195
G01 X25.7544 Y-13.2389
G01 X25.7591 Y-13.2579
G01 X25.7682 Y-13.2833
G01 X25.7767 Y-13.3010
G01 X25.7880 Y-13.3199
G01 X25.8012 Y-13.3377
G01 X25.8143 Y-13.3522
G01 X25.8323 Y-13.3688
G01 X25.8501 Y-13.3820
G01 X25.8669 Y-13.3921
G01 X25.8889 Y-13.4028
G01 X25.9121 Y-13.4109
G01 X25.9311 Y-13.4156
G01 X25.9517 Y-13.4187
G01 X25.9775 Y-13.4200
G01 X30.0225 Y-13.4200
G01 X30.0446 Y-13.4190
G01 X30.0689 Y-13.4156
G01 X30.0903 Y-13.4102
G01 X30.1111 Y-13.4028
G01 X30.1288 Y-13.3944
G01 X30.1519 Y-13.3806
G01 X30.1677 Y-13.3688
G01 X30.1857 Y-13.3522
G01 X30.1988 Y-13.3377
G01 X30.2120 Y-13.3199
G01 X30.2233 Y-13.3010
G01 X30.2328 Y-13.2811
G01 X30.2402 Y-13.2603
G01 X30.2456 Y-13.2389
G01 X30.2488 Y-13.2170
G01 X30.2500 Y-13.1925
G00 Z2.0000
M05
G00 Z2.0000
G00 Z10.00
G00 X0.0 Y0.0


